W-Moorer/sdf-nsc/assets/rev_joint_clearance/data/body3.csv
X:Pos_TX-Body3-rev_clearance_joint(m),X:Pos_TY-Body3-rev_clearance_joint(m),X:Pos_TZ-Body3-rev_clearance_joint(m),X:Vel_TX-Body3-rev_clearance_joint(m/s),X:Vel_TY-Body3-rev_clearance_joint(m/s),X:Vel_TZ-Body3-rev_clearance_joint(m/s),X:Acc_TX-Body3-rev_clearance_joint(m/s^2),X:Acc_TY-Body3-rev_clearance_joint(m/s^2),X:Acc_TZ-Body3-rev_clearance_joint(m/s^2),Y:Pos_TX-Body3-rev_clearance_joint(m),Y:Pos_TY-Body3-rev_clearance_joint(m),Y:Pos_TZ-Body3-rev_clearance_joint(m),Y:Vel_TX-Body3-rev_clearance_joint(m/s),Y:Vel_TY-Body3-rev_clearance_joint(m/s),Y:Vel_TZ-Body3-rev_clearance_joint(m/s),Y:Acc_TX-Body3-rev_clearance_joint(m/s^2),Y:Acc_TY-Body3-rev_clearance_joint(m/s^2),Y:Acc_TZ-Body3-rev_clearance_joint(m/s^2)
0.0000000,0.0000000,0.0000000,0.0000000,0.0000000,0.0000000,0.0000000,0.0000000,0.0000000,0.0000000,0.0000000,0.0000000,0.0000000,0.0000000,0.0000000,-1.5940650e-29,-9.8066500,6.0559754e-34
0.00010100000,0.00010100000,0.00010100000,0.00010100000,0.00010100000,0.00010100000,0.00010100000,0.00010100000,0.00010100000,-7.9139993e-40,-5.0018818e-08,1.0913450e-43,-7.9945458e-36,-0.00099047165,1.1155469e-39,-9.4439030e-40,-9.8066500,9.2752957e-40
0.00021300000,0.00021300000,0.00021300000,0.00021300000,0.00021300000,0.00021300000,0.00021300000,0.00021300000,0.00021300000,-1.6867891e-39,-2.2245895e-07,2.3407688e-43,-7.9945458e-36,-0.0020888165,1.1155597e-39,-1.1627631e-41,-9.8066500,1.5175488e-41
0.00030900000,0.00030900000,0.00030900000,0.00030900000,0.00030900000,0.00030900000,0.00030900000,0.00030900000,0.00030900000,-2.4542655e-39,-4.6817437e-07,3.4117064e-43,-7.9945458e-36,-0.0030302549,1.1155601e-39,-1.2196695e-42,-9.8066500,1.6135290e-42
0.00040500000,0.00040500000,0.00040500000,0.00040500000,0.00040500000,0.00040500000,0.00040500000,0.00040500000,0.00040500000,-3.2217419e-39,-8.0426788e-07,4.4826441e-43,-7.9945458e-36,-0.0039716933,1.1155602e-39,-2.7253545e-43,-9.8066500,3.6524950e-43
0.00050100000,0.00050100000,0.00050100000,0.00050100000,0.00050100000,0.00050100000,0.00050100000,0.00050100000,0.00050100000,-3.9892183e-39,-1.2307395e-06,5.5535819e-43,-7.9945458e-36,-0.0049131317,1.1155602e-39,-8.8622549e-44,-9.8066500,1.2017853e-43
0.00062900000,0.00062900000,0.00062900000,0.00062900000,0.00062900000,0.00062900000,0.00062900000,0.00062900000,0.00062900000,-5.0125201e-39,-1.9399564e-06,6.9814989e-43,-7.9945458e-36,-0.0061683829,1.1155602e-39,-1.9822078e-44,-9.8066500,2.7213006e-44
0.00075700000,0.00075700000,0.00075700000,0.00075700000,0.00075700000,0.00075700000,0.00075700000,0.00075700000,0.00075700000,-6.0358220e-39,-2.8098455e-06,8.4094160e-43,-7.9945458e-36,-0.0074236341,1.1155602e-39,-6.4481625e-45,-9.8066500,9.0963083e-45
0.00082100000,0.00082100000,0.00082100000,0.00082100000,0.00082100000,0.00082100000,0.00082100000,0.00082100000,0.00082100000,-6.5474729e-39,-3.3050421e-06,9.1233745e-43,-7.9945458e-36,-0.0080512597,1.1155602e-39,-4.4351644e-45,-9.8066500,6.3710859e-45
0.00094900000,0.00094900000,0.00094900000,0.00094900000,0.00094900000,0.00094900000,0.00094900000,0.00094900000,0.00094900000,-7.5707748e-39,-4.4159394e-06,1.0551292e-42,-7.9945458e-36,-0.0093065109,1.1155602e-39,-2.0964739e-45,-9.8066500,3.1045592e-45
0.0010130000,0.0010130000,0.0010130000,0.0010130000,0.0010130000,0.0010130000,0.0010130000,0.0010130000,0.0010130000,-8.0824257e-39,-5.0316401e-06,1.1265250e-42,-7.9945458e-36,-0.0099341365,1.1155602e-39,-1.4450890e-45,-9.8066500,2.1624484e-45
0.0011410000,0.0011410000,0.0011410000,0.0011410000,0.0011410000,0.0011410000,0.0011410000,0.0011410000,0.0011410000,-9.1057276e-39,-6.3835457e-06,1.2693167e-42,-7.9945458e-36,-0.011189388,1.1155602e-39,-6.8422777e-46,-9.8066500,1.0464208e-45
0.0012050000,0.0012050000,0.0012050000,0.0012050000,0.0012050000,0.0012050000,0.0012050000,0.0012050000,0.0012050000,-9.6173785e-39,-7.1197505e-06,1.3407126e-42,-7.9945458e-36,-0.011817013,1.1155602e-39,-4.6801179e-46,-9.8066500,7.2728200e-46
0.0013330000,0.0013330000,0.0013330000,0.0013330000,0.0013330000,0.0013330000,0.0013330000,0.0013330000,0.0013330000,-1.0640680e-38,-8.7126643e-06,1.4835043e-42,-7.9945458e-36,-0.013072264,1.1155602e-39,-2.2716362e-46,-9.8066500,3.5092064e-46
0.0015250000,0.0015250000,0.0015250000,0.0015250000,0.0015250000,0.0015250000,0.0015250000,0.0015250000,0.0015250000,-1.2175633e-38,-1.1403295e-05,1.6976918e-42,-7.9945458e-36,-0.014955141,1.1155602e-39,-1.0673953e-46,-9.8066500,1.8036351e-46
0.0016530000,0.0016530000,0.0016530000,0.0016530000,0.0016530000,0.0016530000,0.0016530000,0.0016530000,0.0016530000,-1.3198935e-38,-1.3397889e-05,1.8404835e-42,-7.9945458e-36,-0.016210392,1.1155602e-39,-7.3896599e-47,-9.8066500,1.3158689e-46
0.0017810000,0.0017810000,0.0017810000,0.0017810000,0.0017810000,0.0017810000,0.0017810000,0.0017810000,0.0017810000,-1.4222237e-38,-1.5553156e-05,1.9832752e-42,-7.9945458e-36,-0.017465644,1.1155602e-39,-5.4738221e-47,-9.8066500,9.5059550e-47
0.0019090000,0.0019090000,0.0019090000,0.0019090000,0.0019090000,0.0019090000,0.0019090000,0.0019090000,0.0019090000,-1.5245539e-38,-1.7869094e-05,2.1260669e-42,-7.9945458e-36,-0.018720895,1.1155602e-39,-3.2842933e-47,-9.8066500,6.8198264e-47
0.0020370000,0.0020370000,0.0020370000,0.0020370000,0.0020370000,0.0020370000,0.0020370000,0.0020370000,0.0020370000,-1.6268841e-38,-2.0345705e-05,2.2688586e-42,-7.9945458e-36,-0.019976146,1.1155602e-39,-2.1895289e-47,-9.8066500,4.8692427e-47
0.0021650000,0.0021650000,0.0021650000,0.0021650000,0.0021650000,0.0021650000,0.0021650000,0.0021650000,0.0021650000,-1.7292143e-38,-2.2982988e-05,2.4116503e-42,-7.9945458e-36,-0.021231397,1.1155602e-39,-1.6421466e-47,-9.8066500,3.4636358e-47
0.0022930000,0.0022930000,0.0022930000,0.0022930000,0.0022930000,0.0022930000,0.0022930000,0.0022930000,0.0022930000,-1.8315444e-38,-2.5780942e-05,2.5544420e-42,-7.9945458e-36,-0.022486648,1.1155602e-39,-5.4738221e-48,-9.8066500,2.4573399e-47
0.0024210000,0.0024210000,0.0024210000,0.0024210000,0.0024210000,0.0024210000,0.0024210000,0.0024210000,0.0024210000,-1.9338746e-38,-2.8739570e-05,2.6972337e-42,-7.9945458e-36,-0.023741900,1.1155602e-39,-5.4738221e-48,-9.8066500,1.7402371e-47
0.0025490000,0.0025490000,0.0025490000,0.0025490000,0.0025490000,0.0025490000,0.0025490000,0.0025490000,0.0025490000,-2.0362048e-38,-3.1858869e-05,2.8400255e-42,-7.9945458e-36,-0.024997151,1.1155602e-39,-1.0947644e-47,-9.8066500,1.2305409e-47
0.0026770000,0.0026770000,0.0026770000,0.0026770000,0.0026770000,0.0026770000,0.0026770000,0.0026770000,0.0026770000,-2.1385350e-38,-3.5138840e-05,2.9828172e-42,-7.9945458e-36,-0.026252402,1.1155602e-39,-1.0947644e-47,-9.8066500,8.6811398e-48
0.0028050000,0.0028050000,0.0028050000,0.0028050000,0.0028050000,0.0028050000,0.0028050000,0.0028050000,0.0028050000,-2.2408652e-38,-3.8579484e-05,3.1256089e-42,-7.9945458e-36,-0.027507653,1.1155602e-39,-1.0947644e-47,-9.8066500,6.1206312e-48
0.0030610000,0.0030610000,0.0030610000,0.0030610000,0.0030610000,0.0030610000,0.0030610000,0.0030610000,0.0030610000,-2.4455256e-38,-4.5942787e-05,3.4111923e-42,-7.9945458e-36,-0.030018156,1.1155602e-39,0.0000000,-9.8066500,5.0435070e-48
0.0033170000,0.0033170000,0.0033170000,0.0033170000,0.0033170000,0.0033170000,0.0033170000,0.0033170000,0.0033170000,-2.6501859e-38,-5.3948779e-05,3.6967757e-42,-7.9945458e-36,-0.032528658,1.1155602e-39,5.4738221e-48,-9.8066500,3.9610373e-48
0.0035730000,0.0035730000,0.0035730000,0.0035730000,0.0035730000,0.0035730000,0.0035730000,0.0035730000,0.0035730000,-2.8548463e-38,-6.2597460e-05,3.9823591e-42,-7.9945458e-36,-0.035039160,1.1155602e-39,1.6421466e-47,-9.8066500,3.0228969e-48
0.0038290000,0.0038290000,0.0038290000,0.0038290000,0.0038290000,0.0038290000,0.0038290000,0.0038290000,0.0038290000,-3.0595067e-38,-7.1888830e-05,4.2679425e-42,-7.9945458e-36,-0.037549663,1.1155602e-39,-1.0947644e-47,-9.8066500,2.2665045e-48
0.0040850000,0.0040850000,0.0040850000,0.0040850000,0.0040850000,0.0040850000,0.0040850000,0.0040850000,0.0040850000,-3.2641671e-38,-8.1822888e-05,4.5535259e-42,-7.9945458e-36,-0.040060165,1.1155602e-39,-1.0947644e-47,-9.8066500,1.6838418e-48
0.0043410000,0.0043410000,0.0043410000,0.0043410000,0.0043410000,0.0043410000,0.0043410000,0.0043410000,0.0043410000,-3.4688274e-38,-9.2399634e-05,4.8391093e-42,-7.9945458e-36,-0.042570668,1.1155602e-39,0.0000000,-9.8066500,1.2348173e-48
0.0045970000,0.0045970000,0.0045970000,0.0045970000,0.0045970000,0.0045970000,0.0045970000,0.0045970000,0.0045970000,-3.6734878e-38,-0.00010361907,5.1246927e-42,-7.9945458e-36,-0.045081170,1.1155602e-39,0.0000000,-9.8066500,9.0339447e-49
0.0048530000,0.0048530000,0.0048530000,0.0048530000,0.0048530000,0.0048530000,0.0048530000,0.0048530000,0.0048530000,-3.8781482e-38,-0.00011548119,5.4102761e-42,-7.9945458e-36,-0.047591672,1.1155602e-39,0.0000000,-9.8066500,6.5215459e-49
0.0051090000,0.0051090000,0.0051090000,0.0051090000,0.0051090000,0.0051090000,0.0051090000,0.0051090000,0.0051090000,-4.0828085e-38,-0.00012798601,5.6958595e-42,-7.9945458e-36,-0.050102175,1.1155602e-39,-1.0947644e-47,-9.8066500,4.6506106e-49
0.0053650000,0.0053650000,0.0053650000,0.0053650000,0.0053650000,0.0053650000,0.0053650000,0.0053650000,0.0053650000,-4.2874689e-38,-0.00014113351,5.9814429e-42,-7.9945458e-36,-0.052612677,1.1155602e-39,0.0000000,-9.8066500,3.2607729e-49
0.0056210000,0.0056210000,0.0056210000,0.0056210000,0.0056210000,0.0056210000,0.0056210000,0.0056210000,0.0056210000,-4.4921293e-38,-0.00015492370,6.2670263e-42,-7.9945458e-36,-0.055123180,1.1155602e-39,1.0947644e-47,-9.8066500,2.4589435e-49
0.0061330000,0.0061330000,0.0061330000,0.0061330000,0.0061330000,0.0061330000,0.0061330000,0.0061330000,0.0061330000,-4.9014500e-38,-0.00018443214,6.8381932e-42,-7.9945458e-36,-0.060144184,1.1155602e-39,0.0000000,-9.8066500,2.1916671e-49
0.0066450000,0.0066450000,0.0066450000,0.0066450000,0.0066450000,0.0066450000,0.0066450000,0.0066450000,0.0066450000,-5.3107708e-38,-0.00021651134,7.4093600e-42,-7.9945458e-36,-0.065165189,1.1155602e-39,-1.0947644e-47,-9.8066500,1.8174800e-49
0.0071570000,0.0071570000,0.0071570000,0.0071570000,0.0071570000,0.0071570000,0.0071570000,0.0071570000,0.0071570000,-5.7200915e-38,-0.00025116130,7.9805268e-42,-7.9945458e-36,-0.070186194,1.1155602e-39,0.0000000,-9.8066500,1.4967482e-49
0.0076690000,0.0076690000,0.0076690000,0.0076690000,0.0076690000,0.0076690000,0.0076690000,0.0076690000,0.0076690000,-6.1294123e-38,-0.00028838200,8.5516936e-42,-7.9945458e-36,-0.075207199,1.1155602e-39,-2.1895289e-47,-9.8066500,1.0691059e-49
0.0081810000,0.0081810000,0.0081810000,0.0081810000,0.0081810000,0.0081810000,0.0081810000,0.0081810000,0.0081810000,-6.5387330e-38,-0.00032817347,9.1228604e-42,-7.9945458e-36,-0.080228204,1.1155602e-39,0.0000000,-9.8066500,8.5528471e-50
0.0086930000,0.0086930000,0.0086930000,0.0086930000,0.0086930000,0.0086930000,0.0086930000,0.0086930000,0.0086930000,-6.9480538e-38,-0.00037053568,9.6940272e-42,-7.9945458e-36,-0.085249208,1.1155602e-39,2.1895289e-47,-9.8066500,6.4146353e-50
0.0092050000,0.0092050000,0.0092050000,0.0092050000,0.0092050000,0.0092050000,0.0092050000,0.0092050000,0.0092050000,-7.3573745e-38,-0.00041546866,1.0265194e-41,-7.9945458e-36,-0.090270213,1.1155602e-39,0.0000000,-9.8066500,6.4146353e-50
0.0097170000,0.0097170000,0.0097170000,0.0097170000,0.0097170000,0.0097170000,0.0097170000,0.0097170000,0.0097170000,-7.7666953e-38,-0.00046297238,1.0836361e-41,-7.9945458e-36,-0.095291218,1.1155602e-39,0.0000000,-9.8066500,3.2073177e-50
0.010229000,0.010229000,0.010229000,0.010229000,0.010229000,0.010229000,0.010229000,0.010229000,0.010229000,-8.1760160e-38,-0.00051304686,1.1407528e-41,-7.9945458e-36,-0.10031222,1.1155602e-39,-4.3790577e-47,-9.8066500,2.1382118e-50
0.010741000,0.010741000,0.010741000,0.010741000,0.010741000,0.010741000,0.010741000,0.010741000,0.010741000,-8.5853368e-38,-0.00056569210,1.1978694e-41,-7.9945458e-36,-0.10533323,1.1155602e-39,-2.1895289e-47,-9.8066500,0.0000000
0.011253000,0.011253000,0.011253000,0.011253000,0.011253000,0.011253000,0.011253000,0.011253000,0.011253000,-8.9946575e-38,-0.00062090809,1.2549861e-41,-7.9945458e-36,-0.11035423,1.1155602e-39,0.0000000,-9.8066500,2.1382118e-50
0.012253000,0.012253000,0.012253000,0.012253000,0.012253000,0.012253000,0.012253000,0.012253000,0.012253000,-9.7941121e-38,-0.00073616565,1.3665421e-41,-7.9945458e-36,-0.12016088,1.1155602e-39,-2.1895289e-47,-9.8066500,2.1382118e-50
0.013253000,0.013253000,0.013253000,0.013253000,0.013253000,0.013253000,0.013253000,0.013253000,0.013253000,-1.0593567e-37,-0.00086122985,1.4780982e-41,-7.9945458e-36,-0.12996753,1.1155602e-39,-2.1895289e-47,-9.8066500,1.0691059e-50
0.014253000,0.014253000,0.014253000,0.014253000,0.014253000,0.014253000,0.014253000,0.014253000,0.014253000,-1.1393021e-37,-0.00099610071,1.5896542e-41,-7.9945458e-36,-0.13977418,1.1155602e-39,0.0000000,-9.8066500,1.0691059e-50
0.015253000,0.015253000,0.015253000,0.015253000,0.015253000,0.015253000,0.015253000,0.015253000,0.015253000,-1.2192476e-37,-0.0011407782,1.7012102e-41,-7.9945458e-36,-0.14958083,1.1155602e-39,-4.3790577e-47,-9.8066500,2.1382118e-50
0.016253000,0.016253000,0.016253000,0.016253000,0.016253000,0.016253000,0.016253000,0.016253000,0.016253000,-1.2991930e-37,-0.0012952624,1.8127662e-41,-7.9945458e-36,-0.15938748,1.1155602e-39,0.0000000,-9.8066500,0.0000000
0.017253000,0.017253000,0.017253000,0.017253000,0.017253000,0.017253000,0.017253000,0.017253000,0.017253000,-1.3791385e-37,-0.0014595532,1.9243222e-41,-7.9945458e-36,-0.16919413,1.1155602e-39,4.3790577e-47,-9.8066500,-2.1382118e-50
0.018253000,0.018253000,0.018253000,0.018253000,0.018253000,0.018253000,0.018253000,0.018253000,0.018253000,-1.4590840e-37,-0.0016336506,2.0358783e-41,-7.9945458e-36,-0.17900078,1.1155602e-39,4.3790577e-47,-9.8066500,-2.1382118e-50
0.019253000,0.019253000,0.019253000,0.019253000,0.019253000,0.019253000,0.019253000,0.019253000,0.019253000,-1.5390294e-37,-0.0018175547,2.1474343e-41,-7.9945458e-36,-0.18880743,1.1155602e-39,-4.3790577e-47,-9.8066500,-2.1382118e-50
0.020253000,0.020253000,0.020253000,0.020253000,0.020253000,0.020253000,0.020253000,0.020253000,0.020253000,-1.6189749e-37,-0.0020112655,2.2589903e-41,-7.9945458e-36,-0.19861408,1.1155602e-39,-4.3790577e-47,-9.8066500,-2.1382118e-50
0.021253000,0.021253000,0.021253000,0.021253000,0.021253000,0.021253000,0.021253000,0.021253000,0.021253000,-1.6989203e-37,-0.0022147829,2.3705463e-41,-7.9945458e-36,-0.20842073,1.1155602e-39,-4.3790577e-47,-9.8066500,-4.2764235e-50
0.022253000,0.022253000,0.022253000,0.022253000,0.022253000,0.022253000,0.022253000,0.022253000,0.022253000,-1.7788658e-37,-0.0024281070,2.4821023e-41,-7.9945458e-36,-0.21822738,1.1155602e-39,-1.3137173e-46,-9.8066500,-4.2764235e-50
0.023253000,0.023253000,0.023253000,0.023253000,0.023253000,0.023253000,0.023253000,0.023253000,0.023253000,-1.8588113e-37,-0.0026512377,2.5936584e-41,-7.9945458e-36,-0.22803403,1.1155602e-39,-1.3137173e-46,-9.8066500,-4.2764235e-50
0.024253000,0.024253000,0.024253000,0.024253000,0.024253000,0.024253000,0.024253000,0.024253000,0.024253000,-1.9387567e-37,-0.0028841750,2.7052144e-41,-7.9945458e-36,-0.23784068,1.1155602e-39,-8.7581154e-47,-9.8066500,-2.1382118e-50
0.025253000,0.025253000,0.025253000,0.025253000,0.025253000,0.025253000,0.025253000,0.025253000,0.025253000,-2.0187022e-37,-0.0031269190,2.8167704e-41,-7.9945458e-36,-0.24764733,1.1155602e-39,-4.3790577e-47,-9.8066500,-2.1382118e-50
0.026253000,0.026253000,0.026253000,0.026253000,0.026253000,0.026253000,0.026253000,0.026253000,0.026253000,-2.0986476e-37,-0.0033794697,2.9283264e-41,-7.9945458e-36,-0.25745398,1.1155602e-39,-4.3790577e-47,-9.8066500,0.0000000
0.027253000,0.027253000,0.027253000,0.027253000,0.027253000,0.027253000,0.027253000,0.027253000,0.027253000,-2.1785931e-37,-0.0036418270,3.0398824e-41,-7.9945458e-36,-0.26726063,1.1155602e-39,-8.7581154e-47,-9.8066500,0.0000000
0.028253000,0.028253000,0.028253000,0.028253000,0.028253000,0.028253000,0.028253000,0.028253000,0.028253000,-2.2585385e-37,-0.0039139910,3.1514384e-41,-7.9945458e-36,-0.27706728,1.1155602e-39,-8.7581154e-47,-9.8066500,-2.1382118e-50
0.029253000,0.029253000,0.029253000,0.029253000,0.029253000,0.029253000,0.029253000,0.029253000,0.029253000,-2.3384840e-37,-0.0041959616,3.2629945e-41,-7.9945458e-36,-0.28687393,1.1155602e-39,0.0000000,-9.8066500,-4.2764235e-50
0.030253000,0.030253000,0.030253000,0.030253000,0.030253000,0.030253000,0.030253000,0.030253000,0.030253000,-2.4184295e-37,-0.0044877388,3.3745505e-41,-7.9945458e-36,-0.29668058,1.1155602e-39,-8.7581154e-47,-9.8066500,4.2764235e-50
0.031253000,0.031253000,0.031253000,0.031253000,0.031253000,0.031253000,0.031253000,0.031253000,0.031253000,-2.4983749e-37,-0.0047893227,3.4861065e-41,-7.9945458e-36,-0.30648723,1.1155602e-39,0.0000000,-9.8066500,-4.2764235e-50
0.032253000,0.032253000,0.032253000,0.032253000,0.032253000,0.032253000,0.032253000,0.032253000,0.032253000,-2.5783204e-37,-0.0051007133,3.5976625e-41,-7.9945458e-36,-0.31629388,1.1155602e-39,0.0000000,-9.8066500,4.2764235e-50
0.033253000,0.033253000,0.033253000,0.033253000,0.033253000,0.033253000,0.033253000,0.033253000,0.033253000,-2.6582658e-37,-0.0054219105,3.7092185e-41,-7.9945458e-36,-0.32610053,1.1155602e-39,-8.7581154e-47,-9.8066500,-4.2764235e-50
0.034253000,0.034253000,0.034253000,0.034253000,0.034253000,0.034253000,0.034253000,0.034253000,0.034253000,-2.7382113e-37,-0.0057529144,3.8207746e-41,-7.9945458e-36,-0.33590718,1.1155602e-39,0.0000000,-9.8066500,0.0000000
0.035253000,0.035253000,0.035253000,0.035253000,0.035253000,0.035253000,0.035253000,0.035253000,0.035253000,-2.8181567e-37,-0.0060937249,3.9323306e-41,-7.9945458e-36,-0.34571383,1.1155602e-39,8.7581154e-47,-9.8066500,0.0000000
0.036253000,0.036253000,0.036253000,0.036253000,0.036253000,0.036253000,0.036253000,0.036253000,0.036253000,-2.8981022e-37,-0.0064443420,4.0438866e-41,-7.9945458e-36,-0.35552048,1.1155602e-39,0.0000000,-9.8066500,0.0000000
0.037253000,0.037253000,0.037253000,0.037253000,0.037253000,0.037253000,0.037253000,0.037253000,0.037253000,-2.9780477e-37,-0.0068047658,4.1554426e-41,-7.9945458e-36,-0.36532713,1.1155602e-39,0.0000000,-9.8066500,0.0000000
0.038253000,0.038253000,0.038253000,0.038253000,0.038253000,0.038253000,0.038253000,0.038253000,0.038253000,-3.0579931e-37,-0.0071749963,4.2669986e-41,-7.9945458e-36,-0.37513378,1.1155602e-39,-8.7581154e-47,-9.8066500,-4.2764235e-50
0.039253000,0.039253000,0.039253000,0.039253000,0.039253000,0.039253000,0.039253000,0.039253000,0.039253000,-3.1379386e-37,-0.0075550334,4.3785547e-41,-7.9945458e-36,-0.38494043,1.1155602e-39,0.0000000,-9.8066500,4.2764235e-50
0.040253000,0.040253000,0.040253000,0.040253000,0.040253000,0.040253000,0.040253000,0.040253000,0.040253000,-3.2178840e-37,-0.0079448772,4.4901107e-41,-7.9945458e-36,-0.39474708,1.1155602e-39,8.7581154e-47,-9.8066500,-4.2764235e-50
0.041253000,0.041253000,0.041253000,0.041253000,0.041253000,0.041253000,0.041253000,0.041253000,0.041253000,-3.2978295e-37,-0.0083445276,4.6016667e-41,-7.9945458e-36,-0.40455373,1.1155602e-39,0.0000000,-9.8066500,4.2764235e-50
0.042253000,0.042253000,0.042253000,0.042253000,0.042253000,0.042253000,0.042253000,0.042253000,0.042253000,-3.3777750e-37,-0.0087539846,4.7132227e-41,-7.9945458e-36,-0.41436038,1.1155602e-39,0.0000000,-9.8066500,0.0000000
0.043253000,0.043253000,0.043253000,0.043253000,0.043253000,0.043253000,0.043253000,0.043253000,0.043253000,-3.4577204e-37,-0.0091732483,4.8247787e-41,-7.9945458e-36,-0.42416703,1.1155602e-39,-8.7581154e-47,-9.8066500,0.0000000
0.044253000,0.044253000,0.044253000,0.044253000,0.044253000,0.044253000,0.044253000,0.044253000,0.044253000,2.9740418e-10,-0.0096021603,6.6214645e-09,4.4610627e-07,-0.43373612,9.9321967e-06,0.00029740418,-9.6482758,0.0066214645
0.045253000,0.045253000,0.045253000,0.045253000,0.045253000,0.045253000,0.045253000,0.045253000,0.045253000,4.3084797e-10,-0.010040635,2.2193988e-08,5.1463599e-08,-0.44325631,2.0048054e-05,-0.00016396039,-9.5628813,0.0089510595
0.046253000,0.046253000,0.046253000,0.046253000,0.046253000,0.046253000,0.046253000,0.046253000,0.046253000,2.2578432e-10,-0.010488618,4.0975702e-08,-3.7431737e-07,-0.45273728,2.0386308e-05,-0.00033850744,-9.5082767,0.0032091891
0.047253000,0.047253000,0.047253000,0.047253000,0.047253000,0.047253000,0.047253000,0.047253000,0.047253000,-3.8810082e-10,-0.010946064,6.3353087e-08,-8.1829590e-07,-0.46217640,2.4175222e-05,-0.00040882150,-9.4621743,0.0035956723
0.048253000,0.048253000,0.048253000,0.048253000,0.048253000,0.048253000,0.048253000,0.048253000,0.048253000,-1.2700022e-09,-0.011412923,8.7026460e-08,-1.0159094e-06,-0.47156586,2.4321366e-05,-0.00026801619,-9.4136992,0.0012959872
0.049253000,0.049253000,0.049253000,0.049253000,0.049253000,0.049253000,0.049253000,0.049253000,0.049253000,-1.8992709e-09,-0.011889136,1.1538263e-07,-5.0295245e-07,-0.48088983,3.0697570e-05,0.00025263259,-9.3538742,0.0046827980
0.050253000,0.050253000,0.050253000,0.050253000,0.050253000,0.050253000,0.050253000,0.050253000,0.050253000,-1.9692072e-09,-0.012374623,1.4732438e-07,2.0972991e-07,-0.49012429,3.3734539e-05,0.00055933244,-9.2742702,0.0035855789
0.051253000,0.051253000,0.051253000,0.051253000,0.051253000,0.051253000,0.051253000,0.051253000,0.051253000,-1.2333728e-09,-0.012869286,1.8588106e-07,1.1387197e-06,-0.49925085,4.1864152e-05,0.00080577069,-9.1757960,0.0066149347
0.052253000,0.052253000,0.052253000,0.052253000,0.052253000,0.052253000,0.052253000,0.052253000,0.052253000,-6.0618664e-10,-0.013373014,2.2757552e-07,5.7286211e-07,-0.50826087,4.3263347e-05,-0.00010864818,-9.0652769,0.0031377752
0.053253000,0.053253000,0.053253000,0.053253000,0.053253000,0.053253000,0.053253000,0.053253000,0.053253000,-7.3673564e-10,-0.013885674,2.6761191e-07,-5.0941660e-07,-0.51712582,3.9207357e-05,-0.00075773520,-8.9317256,-0.0016580683
0.054253000,0.054253000,0.054253000,0.054253000,0.054253000,0.054253000,0.054253000,0.054253000,0.054253000,-1.9502995e-09,-0.014407120,3.0782557e-07,-1.7550712e-06,-0.52583991,4.0302280e-05,-0.0010830148,-8.7866317,0.00017725959
0.055253000,0.055253000,0.055253000,0.055253000,0.055253000,0.055253000,0.055253000,0.055253000,0.055253000,-4.4125252e-09,-0.014937184,3.5174332e-07,-3.0865568e-06,-0.53437273,4.5769801e-05,-0.0012486620,-8.6174293,0.0037041005
0.056253000,0.056253000,0.056253000,0.056253000,0.056253000,0.056253000,0.056253000,0.056253000,0.056253000,-7.2301800e-09,-0.015475657,4.0122703e-07,-2.9953693e-06,-0.54267721,5.2266690e-05,-0.00035542901,-8.4087923,0.0055659590
0.057253000,0.057253000,0.057253000,0.057253000,0.057253000,0.057253000,0.057253000,0.057253000,0.057253000,-8.8600421e-09,-0.016022295,4.5707008e-07,-1.0359658e-06,-0.55071951,5.9022732e-05,0.0011877927,-8.1644680,0.0063593475
0.058253000,0.058253000,0.058253000,0.058253000,0.058253000,0.058253000,0.058253000,0.058253000,0.058253000,-1.1166334e-08,-0.016576878,5.1360538e-07,-2.6445075e-06,-0.55855695,5.6881413e-05,-0.00067643025,-7.9464466,0.00069223707
0.059253000,0.059253000,0.059253000,0.059253000,0.059253000,0.059253000,0.059253000,0.059253000,0.059253000,-1.2135927e-08,-0.017139139,5.6811871e-07,-3.0124281e-07,-0.56609858,5.3502349e-05,0.0013366997,-7.6765690,-0.0020219636
0.060253000,0.060253000,0.060253000,0.060253000,0.060253000,0.060253000,0.060253000,0.060253000,0.060253000,-1.0739584e-08,-0.017708763,6.2018275e-07,2.5793106e-06,-0.57330675,5.0839397e-05,0.0023659355,-7.3643008,-0.0024492895
0.061253000,0.061253000,0.061253000,0.061253000,0.061253000,0.061253000,0.061253000,0.061253000,0.061253000,-1.0017857e-08,-0.018285433,6.7252061e-07,3.8441882e-07,-0.58019186,5.2474763e-05,-0.00067461601,-7.0448413,0.00027381404
0.062253000,0.062253000,0.062253000,0.062253000,0.062253000,0.062253000,0.062253000,0.062253000,0.062253000,-1.1551398e-08,-0.018868776,7.2518774e-07,-2.6611740e-06,-0.58668013,5.2831773e-05,-0.0022552672,-6.6737949,0.00032927833
0.063253000,0.063253000,0.063253000,0.063253000,0.063253000,0.063253000,0.063253000,0.063253000,0.063253000,-1.6300305e-08,-0.019458447,7.8127822e-07,-6.3565909e-06,-0.59283490,5.7802144e-05,-0.0032153671,-6.3277816,0.0034233401
0.064253000,0.064253000,0.064253000,0.064253000,0.064253000,0.064253000,0.064253000,0.064253000,0.064253000,-2.5171454e-08,-0.020054046,8.4244135e-07,-1.0932270e-05,-0.59856360,6.3699462e-05,-0.0041222414,-5.9283879,0.0050726586
0.065253000,0.065253000,0.065253000,0.065253000,0.065253000,0.065253000,0.065253000,0.065253000,0.065253000,-3.8680513e-08,-0.020655169,9.0683005e-07,-1.5828015e-05,-0.60388439,6.6001490e-05,-0.0046379105,-5.5233287,0.0032255715
0.066253000,0.066253000,0.066253000,0.066253000,0.066253000,0.066253000,0.066253000,0.066253000,0.066253000,-5.1155003e-08,-0.021261353,9.7460040e-07,-1.1957205e-05,-0.60871430,6.9461166e-05,0.0010345693,-5.0610479,0.0033816409
0.067253000,0.067253000,0.067253000,0.067253000,0.067253000,0.067253000,0.067253000,0.067253000,0.067253000,-5.9121853e-08,-0.021872091,1.0468744e-06,-5.7130292e-06,-0.61301554,7.4525862e-05,0.0045076405,-4.5545078,0.0045036775
0.068253000,0.068253000,0.068253000,0.068253000,0.068253000,0.068253000,0.068253000,0.068253000,0.068253000,-6.0601142e-08,-0.022486838,1.1250176e-06,1.7644906e-06,-0.61675110,8.1077815e-05,0.0064875600,-4.0085406,0.0058691950
0.069253000,0.069253000,0.069253000,0.069253000,0.069253000,0.069253000,0.069253000,0.069253000,0.069253000,-6.2380016e-08,-0.023104995,1.2104611e-06,-1.9286662e-06,-0.61986261,8.9093605e-05,-0.00029958454,-3.4105232,0.0073002582
0.070253000,0.070253000,0.070253000,0.070253000,0.070253000,0.070253000,0.070253000,0.070253000,0.070253000,-6.7991677e-08,-0.023726130,1.3046520e-06,-7.5280545e-06,-0.62262281,9.8564631e-05,-0.0038327870,-2.9769745,0.0087474365
0.071253000,0.071253000,0.071253000,0.071253000,0.071253000,0.071253000,0.071253000,0.071253000,0.071253000,-7.9697971e-08,-0.024349690,1.4081285e-06,-1.4753610e-05,-0.62477343,0.00010811922,-0.0060946325,-2.4260721,0.0092855357
0.072253000,0.072253000,0.072253000,0.072253000,0.072253000,0.072253000,0.072253000,0.072253000,0.072253000,-9.9177760e-08,-0.024975049,1.5232812e-06,-2.3366537e-05,-0.62625870,0.00012099087,-0.0077734956,-1.7988717,0.011676283
0.073253000,0.073253000,0.073253000,0.073253000,0.073253000,0.073253000,0.073253000,0.073253000,0.073253000,-1.1744995e-07,-0.025601535,1.6504522e-06,-1.7668393e-05,-0.62704964,0.00013318017,0.0012075975,-1.1269180,0.012018291
0.074253000,0.074253000,0.074253000,0.074253000,0.074253000,0.074253000,0.074253000,0.074253000,0.074253000,-1.2978792e-07,-0.026228433,1.7850382e-06,-9.3708563e-06,-0.62710303,0.00013829340,0.0059342236,-0.41122965,0.0074149208
0.075253000,0.075253000,0.075253000,0.075253000,0.075253000,0.075253000,0.075253000,0.075253000,0.075253000,-1.3418018e-07,-0.026854978,1.9311467e-06,-4.1941004e-07,-0.62636925,0.00015186975,0.0079457053,0.35210898,0.011522538
0.076253000,0.076253000,0.076253000,0.076253000,0.076253000,0.076253000,0.076253000,0.076253000,0.076253000,-1.4016545e-07,-0.027480403,2.0910827e-06,-6.7817710e-06,-0.62486495,0.00016684984,-0.0015930055,1.1202386,0.013827573
0.077253000,0.077253000,0.077253000,0.077253000,0.077253000,0.077253000,0.077253000,0.077253000,0.077253000,-1.5291023e-07,-0.028104041,2.2662080e-06,-1.6124542e-05,-0.62274486,0.00018271998,-0.0067595155,1.7868080,0.015189283
0.078253000,0.078253000,0.078253000,0.078253000,0.078253000,0.078253000,0.078253000,0.078253000,0.078253000,-1.7474370e-07,-0.028725126,2.4581306e-06,-2.6377813e-05,-0.61980738,0.00020032122,-0.0090886859,2.5539197,0.016797252
0.079253000,0.079253000,0.079253000,0.079253000,0.079253000,0.079253000,0.079253000,0.079253000,0.079253000,-2.0761512e-07,-0.029342833,2.6669737e-06,-3.8390383e-05,-0.61601810,0.00021730332,-0.011037943,3.3774951,0.016920490
0.080253000,0.080253000,0.080253000,0.080253000,0.080253000,0.080253000,0.080253000,0.080253000,0.080253000,-2.5311514e-07,-0.029956285,2.8949698e-06,-5.1814331e-05,-0.61132491,0.00023757266,-0.012628612,4.2546265,0.019153057
0.081253000,0.081253000,0.081253000,0.081253000,0.081253000,0.081253000,0.081253000,0.081253000,0.081253000,-2.9518801e-07,-0.030564570,3.1391248e-06,-4.0359291e-05,-0.60570199,0.00025223438,0.0034271559,5.1668187,0.016158827
0.082253000,0.082253000,0.082253000,0.082253000,0.082253000,0.082253000,0.082253000,0.082253000,0.082253000,-3.2660574e-07,-0.031166996,3.4044757e-06,-2.6090163e-05,-0.59949579,0.00027594890,0.010655137,5.8597399,0.021195956
0.083253000,0.083253000,0.083253000,0.083253000,0.083253000,0.083253000,0.083253000,0.083253000,0.083253000,-3.4256952e-07,-0.031762741,3.6917108e-06,-8.2367964e-06,-0.59240509,0.00029817718,0.015453957,6.6803802,0.021884172
0.084253000,0.084253000,0.084253000,0.084253000,0.084253000,0.084253000,0.084253000,0.084253000,0.084253000,-3.3968115e-07,-0.032350947,4.0038306e-06,1.2314432e-05,-0.58443674,0.00032456208,0.018852138,7.5390249,0.024884662
0.085253000,0.085253000,0.085253000,0.085253000,0.085253000,0.085253000,0.085253000,0.085253000,0.085253000,-3.3526474e-07,-0.032930712,4.3416423e-06,5.1804345e-06,-0.57554351,0.00035065769,0.0015280475,8.4418285,0.025691957
0.086253000,0.086253000,0.086253000,0.086253000,0.086253000,0.086253000,0.086253000,0.086253000,0.086253000,-3.3820901e-07,-0.033501112,4.7016504e-06,-6.6246041e-06,-0.56571773,0.00037110634,-0.0073606766,9.3644629,0.022196417
0.087253000,0.087253000,0.087253000,0.087253000,0.087253000,0.087253000,0.087253000,0.087253000,0.087253000,-3.5298180e-07,-0.034061235,5.0815437e-06,-2.0687059e-05,-0.55498422,0.00038983593,-0.011828529,10.277162,0.019885204
0.088253000,0.088253000,0.088253000,0.088253000,0.088253000,0.088253000,0.088253000,0.088253000,0.088253000,-3.8231183e-07,-0.034610123,5.4805182e-06,-3.6608639e-05,-0.54327080,0.00040851496,-0.014557229,11.234670,0.019081088
0.089253000,0.089253000,0.089253000,0.089253000,0.089253000,0.089253000,0.089253000,0.089253000,0.089253000,-4.2843820e-07,-0.035147019,5.8966862e-06,-5.4524542e-05,-0.53089964,0.00042476491,-0.016796345,11.992327,0.017193663
0.090253000,0.090253000,0.090253000,0.090253000,0.090253000,0.090253000,0.090253000,0.090253000,0.090253000,-4.9324750e-07,-0.035671061,6.3394616e-06,-7.4150771e-05,-0.51761600,0.00045607898,-0.018682934,12.853203,0.026607267
0.091253000,0.091253000,0.091253000,0.091253000,0.091253000,0.091253000,0.091253000,0.091253000,0.091253000,-5.5214678e-07,-0.036181311,6.8095409e-06,-5.5944277e-05,-0.50335364,0.00048373132,0.0059100181,13.792639,0.027303979
0.092253000,0.092253000,0.092253000,0.092253000,0.092253000,0.092253000,0.092253000,0.092253000,0.092253000,-5.9246063e-07,-0.036676832,7.3074471e-06,-3.1021121e-05,-0.48815613,0.00051181957,0.018585443,14.729225,0.027826831
0.093253000,0.093253000,0.093253000,0.093253000,0.093253000,0.093253000,0.093253000,0.093253000,0.093253000,-6.0681585e-07,-0.037156704,7.8350469e-06,-1.3759158e-06,-0.47204712,0.00054244671,0.025958618,15.649081,0.029693701
0.094253000,0.094253000,0.094253000,0.094253000,0.094253000,0.094253000,0.094253000,0.094253000,0.094253000,-5.9683098e-07,-0.037620011,8.3898854e-06,2.2154927e-05,-0.45502609,0.00056845769,0.024340101,16.563709,0.027238550
0.095253000,0.095253000,0.095253000,0.095253000,0.095253000,0.095253000,0.095253000,0.095253000,0.095253000,-5.8708113e-07,-0.038065857,8.9649725e-06,9.6323316e-06,-0.43711448,0.00058521149,-0.00023502971,17.462315,0.020248720
0.096253000,0.096253000,0.096253000,0.096253000,0.096253000,0.096253000,0.096253000,0.096253000,0.096253000,-5.9051010e-07,-0.038493367,9.5591036e-06,-1.0018374e-05,-0.41834253,0.00060365304,-0.013178814,18.335404,0.019043942
0.097253000,0.097253000,0.097253000,0.097253000,0.097253000,0.097253000,0.097253000,0.097253000,0.097253000,-6.1291959e-07,-0.038901680,1.0167856e-05,-3.1899750e-05,-0.39871355,0.00061606311,-0.018980522,19.197788,0.014621357
0.098253000,0.098253000,0.098253000,0.098253000,0.098253000,0.098253000,0.098253000,0.098253000,0.098253000,-6.5965913e-07,-0.039289962,1.0801835e-05,-5.8904576e-05,-0.37826709,0.00064659210,-0.024330058,20.030232,0.025226446
0.099253000,0.099253000,0.099253000,0.099253000,0.099253000,0.099253000,0.099253000,0.099253000,0.099253000,-7.1171943e-07,-0.039657617,1.1615259e-05,-5.4720672e-05,-0.35734186,0.00090314686,-0.0053207499,20.626902,0.17944532
0.10025300,0.10025300,0.10025300,0.10025300,0.10025300,0.10025300,0.10025300,0.10025300,0.10025300,-7.6527514e-07,-0.040006290,1.2735973e-05,-5.4303412e-05,-0.33918163,0.0012743581,-0.0014954096,18.982450,0.30728927
0.10125300,0.10125300,0.10125300,0.10125300,0.10125300,0.10125300,0.10125300,0.10125300,0.10125300,-8.2650654e-07,-0.040336746,1.4264230e-05,-6.5069250e-05,-0.32134745,0.0017320299,-0.0076756953,18.216941,0.40754429
0.10225300,0.10225300,0.10225300,0.10225300,0.10225300,0.10225300,0.10225300,0.10225300,0.10225300,-9.0176061e-07,-0.040650453,1.6080715e-05,-8.2265409e-05,-0.30533215,0.0019605984,-0.014022671,16.749175,0.28822707
0.10325300,0.10325300,0.10325300,0.10325300,0.10325300,0.10325300,0.10325300,0.10325300,0.10325300,-9.9354800e-07,-0.040948110,1.8059743e-05,-0.00010005405,-0.28963293,0.0020602991,-0.016533316,16.049211,0.16254282
0.10425300,0.10425300,0.10425300,0.10425300,0.10425300,0.10425300,0.10425300,0.10425300,0.10425300,-1.0969322e-06,-0.041231237,2.0309659e-05,-0.00010918265,-0.27586073,0.0023853603,-0.011596843,14.531202,0.27088844
0.10525300,0.10525300,0.10525300,0.10525300,0.10525300,0.10525300,0.10525300,0.10525300,0.10525300,-1.2095686e-06,-0.041500379,2.2878890e-05,-0.00011726240,-0.26214976,0.0027288883,-0.0092521102,13.984379,0.31931480
0.10625300,0.10625300,0.10625300,0.10625300,0.10625300,0.10625300,0.10625300,0.10625300,0.10625300,-1.3255255e-06,-0.041755648,2.5811431e-05,-0.00011761725,-0.24833303,0.0031141961,-0.0033206078,13.872612,0.36331013
0.10725300,0.10725300,0.10725300,0.10725300,0.10725300,0.10725300,0.10725300,0.10725300,0.10725300,-1.4350756e-06,-0.041997475,2.9399938e-05,-0.00010634668,-0.23510546,0.0039164910,0.0064068484,13.442583,0.65596663
0.10825300,0.10825300,0.10825300,0.10825300,0.10825300,0.10825300,0.10825300,0.10825300,0.10825300,-1.5336736e-06,-0.042225924,3.3770343e-05,-9.3121948e-05,-0.22176048,0.0047613526,0.010952102,13.377517,0.78189666
0.10925300,0.10925300,0.10925300,0.10925300,0.10925300,0.10925300,0.10925300,0.10925300,0.10925300,-1.6220195e-06,-0.042440870,3.8969226e-05,-8.3219799e-05,-0.20819393,0.0056131232,0.010252134,13.503537,0.82847927
0.11025300,0.11025300,0.11025300,0.11025300,0.11025300,0.11025300,0.11025300,0.11025300,0.11025300,-1.7166431e-06,-0.042642924,4.4520199e-05,-9.7762491e-05,-0.19560927,0.0057270177,-0.0062777504,12.890957,0.35208941
0.11125300,0.11125300,0.11125300,0.11125300,0.11125300,0.11125300,0.11125300,0.11125300,0.11125300,-1.8250776e-06,-0.042832312,5.0146618e-05,-0.00011533999,-0.18305430,0.0056641421,-0.013810915,12.666960,0.075446065
0.11225300,0.11225300,0.11225300,0.11225300,0.11225300,0.11225300,0.11225300,0.11225300,0.11225300,-1.9439504e-06,-0.043009121,5.5646960e-05,-0.00012409187,-0.17051954,0.0054373028,-0.010438225,12.578828,-0.12607752
0.11325300,0.11325300,0.11325300,0.11325300,0.11325300,0.11325300,0.11325300,0.11325300,0.11325300,-2.0594010e-06,-0.043173399,6.0889061e-05,-0.00011373949,-0.15801300,0.0051129812,0.0034221791,12.530640,-0.25824024
0.11425300,0.11425300,0.11425300,0.11425300,0.11425300,0.11425300,0.11425300,0.11425300,0.11425300,-2.1625927e-06,-0.043325574,6.5436356e-05,-9.7062361e-05,-0.14612211,0.0041998920,0.012258810,12.104134,-0.69480617
0.11525300,0.11525300,0.11525300,0.11525300,0.11525300,0.11525300,0.11525300,0.11525300,0.11525300,-2.2448913e-06,-0.043465825,6.9007431e-05,-7.1851962e-05,-0.13429001,0.0030829639,0.020893203,11.922784,-0.97622079
0.11625300,0.11625300,0.11625300,0.11625300,0.11625300,0.11625300,0.11625300,0.11625300,0.11625300,-2.3025354e-06,-0.043594203,7.1438795e-05,-4.5316877e-05,-0.12244091,0.0018615097,0.024654457,11.873660,-1.1397098
0.11725300,0.11725300,0.11725300,0.11725300,0.11725300,0.11725300,0.11725300,0.11725300,0.11725300,-2.3375796e-06,-0.043710766,7.2588778e-05,-2.3744236e-05,-0.11065536,0.00050929135,0.022599913,11.814920,-1.2813821
0.11825300,0.11825300,0.11825300,0.11825300,0.11825300,0.11825300,0.11825300,0.11825300,0.11825300,-2.3530668e-06,-0.043815493,7.2406987e-05,-5.7086342e-06,-0.098810029,-0.00084767660,0.019557039,11.835192,-1.3317727
0.11925300,0.11925300,0.11925300,0.11925300,0.11925300,0.11925300,0.11925300,0.11925300,0.11925300,-2.3586471e-06,-0.043908360,7.0862515e-05,-6.2690932e-07,-0.086935800,-0.0022258131,0.0099068296,11.861216,-1.3626819
0.12025300,0.12025300,0.12025300,0.12025300,0.12025300,0.12025300,0.12025300,0.12025300,0.12025300,-2.3770895e-06,-0.043989569,6.8143794e-05,-2.4873482e-05,-0.075381539,-0.0033058461,-0.012862105,11.656580,-1.1742493
0.12125300,0.12125300,0.12125300,0.12125300,0.12125300,0.12125300,0.12125300,0.12125300,0.12125300,-2.4107093e-06,-0.044059768,6.4759094e-05,-4.1208549e-05,-0.064693628,-0.0037176894,-0.015177413,11.010800,-0.66597859
0.12225300,0.12225300,0.12225300,0.12225300,0.12225300,0.12225300,0.12225300,0.12225300,0.12225300,-2.4528194e-06,-0.044119296,6.0956058e-05,-4.6355117e-05,-0.054191875,-0.0040122036,-0.0084901835,10.671436,-0.41833573
0.12325300,0.12325300,0.12325300,0.12325300,0.12325300,0.12325300,0.12325300,0.12325300,0.12325300,-2.5012576e-06,-0.044168299,5.6905685e-05,-5.1602374e-05,-0.043740936,-0.0041740417,-0.0063282321,10.524438,-0.24733727
0.12425300,0.12425300,0.12425300,0.12425300,0.12425300,0.12425300,0.12425300,0.12425300,0.12425300,-2.5553027e-06,-0.044206853,5.2711563e-05,-5.6848398e-05,-0.033329201,-0.0042659966,-0.0056067600,10.449303,-0.14374905
0.12525300,0.12525300,0.12525300,0.12525300,0.12525300,0.12525300,0.12525300,0.12525300,0.12525300,-2.6041757e-06,-0.044235016,4.8460465e-05,-4.6287024e-05,-0.022966764,-0.0042795853,0.0051719958,10.391392,-0.056975448
0.12625300,0.12625300,0.12625300,0.12625300,0.12625300,0.12625300,0.12625300,0.12625300,0.12625300,-2.6419536e-06,-0.044252847,4.4168560e-05,-3.2230306e-05,-0.012666661,-0.0043123089,0.011095144,10.330532,-0.040807550
0.12725300,0.12725300,0.12725300,0.12725300,0.12725300,0.12725300,0.12725300,0.12725300,0.12725300,-2.6651634e-06,-0.044260750,3.9847515e-05,-1.5925894e-05,-0.0029374750,-0.0043356144,0.014567989,9.9296350,-0.029139561
0.12825300,0.12825300,0.12825300,0.12825300,0.12825300,0.12825300,0.12825300,0.12825300,0.12825300,-2.6747806e-06,-0.044258903,3.5504909e-05,-2.8207532e-06,0.0067213796,-0.0043533873,0.013592757,9.7491147,-0.021561751
0.12925300,0.12925300,0.12925300,0.12925300,0.12925300,0.12925300,0.12925300,0.12925300,0.12925300,-2.6724512e-06,-0.044247406,3.1145589e-05,8.3025971e-06,0.016321718,-0.0043676773,0.011946486,9.6499306,-0.016713934
0.13025300,0.13025300,0.13025300,0.13025300,0.13025300,0.13025300,0.13025300,0.13025300,0.13025300,-2.6609490e-06,-0.044226339,2.6795112e-05,1.6088578e-05,0.025853054,-0.0043460548,0.0091728156,9.5708675,0.0088437249
0.13125300,0.13125300,0.13125300,0.13125300,0.13125300,0.13125300,0.13125300,0.13125300,0.13125300,-2.6466268e-06,-0.044195764,2.2435093e-05,1.5732240e-05,0.035327820,-0.0043647901,0.0028200468,9.5067995,-0.0095423065
0.13225300,0.13225300,0.13225300,0.13225300,0.13225300,0.13225300,0.13225300,0.13225300,0.13225300,-2.6353464e-06,-0.044155714,1.8037621e-05,9.7595831e-06,0.044787793,-0.0044161989,-0.0030417556,9.4755819,-0.037453333
0.13325300,0.13325300,0.13325300,0.13325300,0.13325300,0.13325300,0.13325300,0.13325300,0.13325300,-2.6336678e-06,-0.044106224,1.3579479e-05,-3.1224374e-06,0.054210773,-0.0044884765,-0.0096019322,9.4405144,-0.060669514
0.13425300,0.13425300,0.13425300,0.13425300,0.13425300,0.13425300,0.13425300,0.13425300,0.13425300,-2.6446188e-06,-0.044047313,9.0610042e-06,-1.7265752e-05,0.063620309,-0.0045486415,-0.012629520,9.4198619,-0.060333146
0.13525300,0.13525300,0.13525300,0.13525300,0.13525300,0.13525300,0.13525300,0.13525300,0.13525300,-2.6664038e-06,-0.043979007,4.4568286e-06,-2.7202023e-05,0.073003454,-0.0046470259,-0.010834021,9.3953842,-0.085700679
0.13625300,0.13625300,0.13625300,0.13625300,0.13625300,0.13625300,0.13625300,0.13625300,0.13625300,-2.7015266e-06,-0.043900514,-9.0661673e-07,-4.1791663e-05,0.083586653,-0.0057430802,-0.013337767,10.187261,-0.75926972
0.13725300,0.13725300,0.13725300,0.13725300,0.13725300,0.13725300,0.13725300,0.13725300,0.13725300,-2.7411490e-06,-0.043811525,-7.3402540e-06,-4.1872186e-05,0.094237379,-0.0069687333,-0.0044996041,10.496237,-1.0701920
0.13825300,0.13825300,0.13825300,0.13825300,0.13825300,0.13825300,0.13825300,0.13825300,0.13825300,-2.7797233e-06,-0.043711928,-1.5012734e-05,-3.8050304e-05,0.10490154,-0.0082919009,0.0010480527,10.608188,-1.2388424
0.13925300,0.13925300,0.13925300,0.13925300,0.13925300,0.13925300,0.13925300,0.13925300,0.13925300,-2.8160691e-06,-0.043601652,-2.4009341e-05,-3.5231520e-05,0.11561527,-0.0096586714,0.0022285403,10.678548,-1.3241278
0.14025300,0.14025300,0.14025300,0.14025300,0.14025300,0.14025300,0.14025300,0.14025300,0.14025300,-2.8425491e-06,-0.043480301,-3.4267406e-05,-2.1547109e-05,0.12688812,-0.010888793,0.0098657875,11.074750,-1.2614569
0.14125300,0.14125300,0.14125300,0.14125300,0.14125300,0.14125300,0.14125300,0.14125300,0.14125300,-2.8527291e-06,-0.043347673,-4.5699337e-05,-2.0299982e-06,0.13826682,-0.012018864,0.016300003,11.277386,-1.1738666
0.14225300,0.14225300,0.14225300,0.14225300,0.14225300,0.14225300,0.14225300,0.14225300,0.14225300,-2.8497622e-06,-0.043203647,-5.8233035e-05,9.5404202e-06,0.14972520,-0.013084581,0.013146947,11.398045,-1.1017668
0.14325300,0.14325300,0.14325300,0.14325300,0.14325300,0.14325300,0.14325300,0.14325300,0.14325300,-2.8361176e-06,-0.043048176,-7.1719993e-05,1.8983403e-05,0.16119303,-0.013963589,0.010677637,11.444567,-0.95326055
0.14425300,0.14425300,0.14425300,0.14425300,0.14425300,0.14425300,0.14425300,0.14425300,0.14425300,-2.8152404e-06,-0.042880774,-8.5705720e-05,2.4493479e-05,0.17336738,-0.014235111,0.0072325964,11.931091,-0.49876827
0.14525300,0.14525300,0.14525300,0.14525300,0.14525300,0.14525300,0.14525300,0.14525300,0.14525300,-2.7921011e-06,-0.042700511,-9.9472107e-05,2.4270326e-05,0.18669322,-0.013656717,0.0022620966,12.860924,0.21933957
0.14625300,0.14625300,0.14625300,0.14625300,0.14625300,0.14625300,0.14625300,0.14625300,0.14625300,-2.7710828e-06,-0.042507052,-0.00011266394,1.9957822e-05,0.20005727,-0.012904562,-0.0021209703,13.196341,0.57454976
0.14725300,0.14725300,0.14725300,0.14725300,0.14725300,0.14725300,0.14725300,0.14725300,0.14725300,-2.7581038e-06,-0.042300407,-0.00012511679,8.9593638e-06,0.21323816,-0.012083354,-0.0080392954,13.186043,0.73898916
0.14825300,0.14825300,0.14825300,0.14825300,0.14825300,0.14825300,0.14825300,0.14825300,0.14825300,-2.7487700e-06,-0.042080240,-0.00013696777,7.5112339e-06,0.22692770,-0.011550039,-0.0036451851,13.521704,0.60187270
0.14925300,0.14925300,0.14925300,0.14925300,0.14925300,0.14925300,0.14925300,0.14925300,0.14925300,-2.7407044e-06,-0.041846508,-0.00014829402,7.4315516e-06,0.24051540,-0.011063895,-0.0012681832,13.565701,0.52472059
0.15025300,0.15025300,0.15025300,0.15025300,0.15025300,0.15025300,0.15025300,0.15025300,0.15025300,-2.7336984e-06,-0.041599359,-0.00015915429,6.4760362e-06,0.25385644,-0.010627280,-0.0010597380,13.415930,0.46598336
0.15125300,0.15125300,0.15125300,0.15125300,0.15125300,0.15125300,0.15125300,0.15125300,0.15125300,-2.7286040e-06,-0.041339022,-0.00016956404,4.1387416e-06,0.26693088,-0.010184489,-0.0019114424,13.188266,0.45052147
0.15225300,0.15225300,0.15225300,0.15225300,0.15225300,0.15225300,0.15225300,0.15225300,0.15225300,-2.7310802e-06,-0.041065806,-0.00017954481,-6.2614969e-06,0.27965596,-0.0097662776,-0.0075706398,12.879479,0.42898162
0.15325300,0.15325300,0.15325300,0.15325300,0.15325300,0.15325300,0.15325300,0.15325300,0.15325300,-2.7420892e-06,-0.040777916,-0.00018924689,-1.5275513e-05,0.29522683,-0.0095627246,-0.0085328904,14.673738,0.27869587
0.15425300,0.15425300,0.15425300,0.15425300,0.15425300,0.15425300,0.15425300,0.15425300,0.15425300,-2.7686639e-06,-0.040473895,-0.00019852210,-3.4357520e-05,0.31208768,-0.0090617914,-0.015565635,16.131812,0.42685414
0.15525300,0.15525300,0.15525300,0.15525300,0.15525300,0.15525300,0.15525300,0.15525300,0.15525300,-2.8111548e-06,-0.040152752,-0.00020726830,-5.0448899e-05,0.32970287,-0.0084816894,-0.015916131,17.120728,0.52901933
0.15625300,0.15625300,0.15625300,0.15625300,0.15625300,0.15625300,0.15625300,0.15625300,0.15625300,-2.8732776e-06,-0.039814083,-0.00021545218,-7.1938899e-05,0.34743217,-0.0079027195,-0.019632044,17.526446,0.56231975
0.15725300,0.15725300,0.15725300,0.15725300,0.15725300,0.15725300,0.15725300,0.15725300,0.15725300,-2.9524085e-06,-0.039457826,-0.00022307260,-8.7634858e-05,0.36505116,-0.0073386796,-0.017007987,17.588141,0.56346651
0.15825300,0.15825300,0.15825300,0.15825300,0.15825300,0.15825300,0.15825300,0.15825300,0.15825300,-3.0522767e-06,-0.039083096,-0.00023023276,-0.00011023685,0.38396707,-0.0069300402,-0.020737325,18.473318,0.46024840
0.15925300,0.15925300,0.15925300,0.15925300,0.15925300,0.15925300,0.15925300,0.15925300,0.15925300,-3.1741367e-06,-0.038689850,-0.00023699125,-0.00013285591,0.40250356,-0.0065576537,-0.021991815,18.515433,0.40167382
0.16025300,0.16025300,0.16025300,0.16025300,0.16025300,0.16025300,0.16025300,0.16025300,0.16025300,-3.3182961e-06,-0.038278480,-0.00024336748,-0.00015530907,0.42043221,-0.0061850994,-0.022299377,18.124245,0.38226083
0.16125300,0.16125300,0.16125300,0.16125300,0.16125300,0.16125300,0.16125300,0.16125300,0.16125300,-3.4870515e-06,-0.037849457,-0.00024947725,-0.00018105345,0.43784828,-0.0059765371,-0.024596044,17.652133,0.26646182
0.16225300,0.16225300,0.16225300,0.16225300,0.16225300,0.16225300,0.16225300,0.16225300,0.16225300,-3.6770474e-06,-0.037403480,-0.00025540704,-0.00020061615,0.45445482,-0.0058398101,-0.021240485,16.955068,0.17997190
0.16325300,0.16325300,0.16325300,0.16325300,0.16325300,0.16325300,0.16325300,0.16325300,0.16325300,-3.8799672e-06,-0.036941337,-0.00026118601,-0.00020938176,0.47022568,-0.0057035490,-0.012923899,16.165595,0.15083135
0.16425300,0.16425300,0.16425300,0.16425300,0.16425300,0.16425300,0.16425300,0.16425300,0.16425300,-4.0912342e-06,-0.036463881,-0.00026681130,-0.00021544057,0.48511340,-0.0055484506,-0.0083471706,15.313679,0.15367609
0.16525300,0.16525300,0.16525300,0.16525300,0.16525300,0.16525300,0.16525300,0.16525300,0.16525300,-4.3067481e-06,-0.035971998,-0.00027228566,-0.00021763735,0.49909591,-0.0053989017,-0.0042469165,14.426234,0.15092460
0.16625300,0.16625300,0.16625300,0.16625300,0.16625300,0.16625300,0.16625300,0.16625300,0.16625300,-4.5246976e-06,-0.035466626,-0.00027762335,-0.00021916723,0.51211617,-0.0052693491,-0.0024355563,13.488915,0.13667659
0.16725300,0.16725300,0.16725300,0.16725300,0.16725300,0.16725300,0.16725300,0.16725300,0.16725300,-4.7464562e-06,-0.034948498,-0.00028282950,-0.00022366328,0.52450713,-0.0051403886,-0.0038092206,12.756949,0.13153258
0.16825300,0.16825300,0.16825300,0.16825300,0.16825300,0.16825300,0.16825300,0.16825300,0.16825300,-4.9763152e-06,-0.034418338,-0.00028787628,-0.00023390907,0.53617526,-0.0049670829,-0.0081002635,12.031067,0.15938128
0.16925300,0.16925300,0.16925300,0.16925300,0.16925300,0.16925300,0.16925300,0.16925300,0.16925300,-5.2207070e-06,-0.033876954,-0.00029275028,-0.00025165823,0.54699520,-0.0047876218,-0.014532862,11.223651,0.17276786
0.17025300,0.17025300,0.17025300,0.17025300,0.17025300,0.17025300,0.17025300,0.17025300,0.17025300,-5.4829994e-06,-0.033325238,-0.00029744698,-0.00027124270,0.55688268,-0.0046080441,-0.017900599,10.332871,0.17730774
0.17125300,0.17125300,0.17125300,0.17125300,0.17125300,0.17125300,0.17125300,0.17125300,0.17125300,-5.7637153e-06,-0.032764110,-0.00030196594,-0.00028992773,0.56583480,-0.0044300898,-0.018423556,9.4123722,0.17773881
0.17225300,0.17225300,0.17225300,0.17225300,0.17225300,0.17225300,0.17225300,0.17225300,0.17225300,-6.0567354e-06,-0.032194511,-0.00030630908,-0.00029917216,0.57383417,-0.0042552246,-0.012304137,8.4703683,0.17582308
0.17325300,0.17325300,0.17325300,0.17325300,0.17325300,0.17325300,0.17325300,0.17325300,0.17325300,-6.3569492e-06,-0.031617354,-0.00031047135,-0.00030381058,0.58093597,-0.0040718370,-0.0071936621,7.5579875,0.18086603
0.17425300,0.17425300,0.17425300,0.17425300,0.17425300,0.17425300,0.17425300,0.17425300,0.17425300,-6.6592250e-06,-0.031033535,-0.00031445535,-0.00030330690,0.58714920,-0.0038948689,-0.0020620995,6.6614810,0.17826746
0.17525300,0.17525300,0.17525300,0.17525300,0.17525300,0.17525300,0.17525300,0.17525300,0.17525300,-6.9617573e-06,-0.030443735,-0.00031827389,-0.00030266045,0.59279093,-0.0037358070,-0.00025640065,5.9816525,0.16546372
0.17625300,0.17625300,0.17625300,0.17625300,0.17625300,0.17625300,0.17625300,0.17625300,0.17625300,-7.2610038e-06,-0.029848757,-0.00032193460,-0.00029760374,0.59756723,-0.0035817986,0.0032856769,5.1780830,0.15782688
0.17725300,0.17725300,0.17725300,0.17725300,0.17725300,0.17725300,0.17725300,0.17725300,0.17725300,-7.5545016e-06,-0.029249455,-0.00032544828,-0.00029062333,0.60146443,-0.0034401691,0.0057488274,4.3241564,0.14702860
0.17825300,0.17825300,0.17825300,0.17825300,0.17825300,0.17825300,0.17825300,0.17825300,0.17825300,-7.8416412e-06,-0.028646688,-0.00032882342,-0.00028396049,0.60449869,-0.0033058690,0.0063581728,3.4642272,0.13854292
0.17925300,0.17925300,0.17925300,0.17925300,0.17925300,0.17925300,0.17925300,0.17925300,0.17925300,-8.1220175e-06,-0.028041307,-0.00033206884,-0.00027699477,0.60668890,-0.0031805541,0.0067632025,2.6148804,0.12972429
0.18025300,0.18025300,0.18025300,0.18025300,0.18025300,0.18025300,0.18025300,0.18025300,0.18025300,-8.3964373e-06,-0.027434130,-0.00033519776,-0.00027144149,0.60807335,-0.0030706686,0.0059565911,1.7945937,0.11649843
0.18125300,0.18125300,0.18125300,0.18125300,0.18125300,0.18125300,0.18125300,0.18125300,0.18125300,-8.6656438e-06,-0.026825850,-0.00033822063,-0.00026659987,0.60883292,-0.0029698445,0.0052132719,1.1045785,0.10604885
0.18225300,0.18225300,0.18225300,0.18225300,0.18225300,0.18225300,0.18225300,0.18225300,0.18225300,-8.9310739e-06,-0.026217181,-0.00034113367,-0.00026354183,0.60886340,-0.0028581362,0.0037764511,0.38851690,0.10982184
0.18325300,0.18325300,0.18325300,0.18325300,0.18325300,0.18325300,0.18325300,0.18325300,0.18325300,-9.1948825e-06,-0.025608856,-0.00034393946,-0.00026299784,0.60815190,-0.0027521580,0.0016214800,-0.34482680,0.10725936
0.18425300,0.18425300,0.18425300,0.18425300,0.18425300,0.18425300,0.18425300,0.18425300,0.18425300,-9.4584524e-06,-0.025001598,-0.00034664402,-0.00026345057,0.60672544,-0.0026539454,0.00023867543,-1.0659154,0.10122824
0.18525300,0.18525300,0.18525300,0.18525300,0.18525300,0.18525300,0.18525300,0.18525300,0.18525300,-9.7237238e-06,-0.024396097,-0.00034924900,-0.00026612221,0.60462180,-0.0025551931,-0.0017015372,-1.7577331,0.099577596
0.18625300,0.18625300,0.18625300,0.18625300,0.18625300,0.18625300,0.18625300,0.18625300,0.18625300,-9.9927349e-06,-0.023792985,-0.00035181753,-0.00027088094,0.60191764,-0.0025502982,-0.0037396650,-2.3886887,0.036455810
0.18725300,0.18725300,0.18725300,0.18725300,0.18725300,0.18725300,0.18725300,0.18725300,0.18725300,-1.0267668e-05,-0.023192849,-0.00035433934,-0.00027789377,0.59864820,-0.0024984528,-0.0059217763,-2.9758509,0.046715542
0.18825300,0.18825300,0.18825300,0.18825300,0.18825300,0.18825300,0.18825300,0.18825300,0.18825300,-1.0550369e-05,-0.022596214,-0.00035681345,-0.00028658518,0.59488490,-0.0024502594,-0.0077681965,-3.5008184,0.047700722
0.18925300,0.18925300,0.18925300,0.18925300,0.18925300,0.18925300,0.18925300,0.18925300,0.18925300,-1.0841381e-05,-0.022003624,-0.00035924239,-0.00029516744,0.59056643,-0.0024063552,-0.0083109066,-4.0459190,0.045169770
0.19025300,0.19025300,0.19025300,0.19025300,0.19025300,0.19025300,0.19025300,0.19025300,0.19025300,-1.1140540e-05,-0.021415617,-0.00036162874,-0.00030323228,0.58571597,-0.0023650569,-0.0081468616,-4.5822810,0.042588742
0.19125300,0.19125300,0.19125300,0.19125300,0.19125300,0.19125300,0.19125300,0.19125300,0.19125300,-1.1446278e-05,-0.020832697,-0.00036396025,-0.00030902856,0.58037665,-0.0023040912,-0.0065798080,-5.0869717,0.054840032
0.19225300,0.19225300,0.19225300,0.19225300,0.19225300,0.19225300,0.19225300,0.19225300,0.19225300,-1.1756634e-05,-0.020255318,-0.00036623359,-0.00031266433,0.57460939,-0.0022442586,-0.0046171181,-5.5405025,0.058168463
0.19325300,0.19325300,0.19325300,0.19325300,0.19325300,0.19325300,0.19325300,0.19325300,0.19325300,-1.2070637e-05,-0.019683856,-0.00036845072,-0.00031582663,0.56850216,-0.0021890209,-0.0036472360,-5.9183177,0.056214574
0.19425300,0.19425300,0.19425300,0.19425300,0.19425300,0.19425300,0.19425300,0.19425300,0.19425300,-1.2386499e-05,-0.019118721,-0.00037061712,-0.00031679123,0.56197160,-0.0021410363,-0.0018588154,-6.3264783,0.050727977
0.19525300,0.19525300,0.19525300,0.19525300,0.19525300,0.19525300,0.19525300,0.19525300,0.19525300,-1.2703325e-05,-0.018560320,-0.00037273879,-0.00031730855,0.55503548,-0.0020993049,-0.00096448682,-6.7329089,0.044730260
0.19625300,0.19625300,0.19625300,0.19625300,0.19625300,0.19625300,0.19625300,0.19625300,0.19625300,-1.3020661e-05,-0.018009036,-0.00037482212,-0.00031759019,0.54772416,-0.0020641608,-0.00050925033,-7.1185126,0.038339448
0.19725300,0.19725300,0.19725300,0.19725300,0.19725300,0.19725300,0.19725300,0.19725300,0.19725300,-1.3338300e-05,-0.017465236,-0.00037687304,-0.00031779134,0.54005830,-0.0020347051,-0.00030385224,-7.4834150,0.032416982
0.19825300,0.19825300,0.19825300,0.19825300,0.19825300,0.19825300,0.19825300,0.19825300,0.19825300,-1.3655886e-05,-0.016929258,-0.00037889733,-0.00031755943,0.53206690,-0.0020109804,5.3320499e-05,-7.8220705,0.026622122
0.19925300,0.19925300,0.19925300,0.19925300,0.19925300,0.19925300,0.19925300,0.19925300,0.19925300,-1.3973253e-05,-0.016401344,-0.00038090024,-0.00031725737,0.52388296,-0.0019922212,0.00021915186,-8.0633187,0.021380143
0.20025300,0.20025300,0.20025300,0.20025300,0.20025300,0.20025300,0.20025300,0.20025300,0.20025300,-1.4290290e-05,-0.015881742,-0.00038288591,-0.00031687175,0.51544441,-0.0019770486,0.00033012835,-8.3134669,0.017241771
0.20125300,0.20125300,0.20125300,0.20125300,0.20125300,0.20125300,0.20125300,0.20125300,0.20125300,-1.4606969e-05,-0.015370695,-0.00038485794,-0.00031649991,0.50676985,-0.0019652094,0.00035793328,-8.5541971,0.013640064
0.20225300,0.20225300,0.20225300,0.20225300,0.20225300,0.20225300,0.20225300,0.20225300,0.20225300,-1.4923315e-05,-0.014868412,-0.00038682040,-0.00031617898,0.49790115,-0.0019576771,0.00033326347,-8.7638648,0.0095682637
0.20325300,0.20325300,0.20325300,0.20325300,0.20325300,0.20325300,0.20325300,0.20325300,0.20325300,-1.5239307e-05,-0.014375095,-0.00038877625,-0.00031581540,0.48883410,-0.0019525386,0.00035347813,-8.9659927,0.0066150832
0.20425300,0.20425300,0.20425300,0.20425300,0.20425300,0.20425300,0.20425300,0.20425300,0.20425300,-1.5554973e-05,-0.013890913,-0.00039072813,-0.00031550311,0.47961466,-0.0019498984,0.00032602022,-9.1349567,0.0039651122
0.20525300,0.20525300,0.20525300,0.20525300,0.20525300,0.20525300,0.20525300,0.20525300,0.20525300,-1.5870351e-05,-0.013416019,-0.00039267575,-0.00031523355,0.47024946,-0.0019454957,0.00028838178,-9.2884491,0.0042568873
0.20625300,0.20625300,0.20625300,0.20625300,0.20625300,0.20625300,0.20625300,0.20625300,0.20625300,-1.6185449e-05,-0.012950526,-0.00039461853,-0.00031495915,0.46079357,-0.0019403569,0.00027905620,-9.4000761,0.0048448400
0.20725300,0.20725300,0.20725300,0.20725300,0.20725300,0.20725300,0.20725300,0.20725300,0.20725300,-1.6500314e-05,-0.012494525,-0.00039655546,-0.00031474807,0.45125518,-0.0019340061,0.00023373813,-9.4922909,0.0058487489
0.20825300,0.20825300,0.20825300,0.20825300,0.20825300,0.20825300,0.20825300,0.20825300,0.20825300,-1.6814972e-05,-0.012048101,-0.00039848489,-0.00031455474,0.44163477,-0.0019256776,0.00020680173,-9.5777018,0.0075019776
0.20925300,0.20925300,0.20925300,0.20925300,0.20925300,0.20925300,0.20925300,0.20925300,0.20925300,-1.7129473e-05,-0.011611320,-0.00040040530,-0.00031442122,0.43195897,-0.0019159034,0.00015794424,-9.6430970,0.0090167920
0.21025300,0.21025300,0.21025300,0.21025300,0.21025300,0.21025300,0.21025300,0.21025300,0.21025300,-1.7443866e-05,-0.011184236,-0.00040231509,-0.00031434039,0.42223688,-0.0019044813,0.00010653879,-9.6957623,0.010620274
0.21125300,0.21125300,0.21125300,0.21125300,0.21125300,0.21125300,0.21125300,0.21125300,0.21125300,-1.7758192e-05,-0.010766881,-0.00040421312,-0.00031429206,0.41248914,-0.0018921409,6.7728075e-05,-9.7304124,0.011767085
0.21225300,0.21225300,0.21225300,0.21225300,0.21225300,0.21225300,0.21225300,0.21225300,0.21225300,-1.8072481e-05,-0.010359281,-0.00040609856,-0.00031426989,0.40272355,-0.0018791532,3.7362345e-05,-9.7538635,0.012580794
0.21325300,0.21325300,0.21325300,0.21325300,0.21325300,0.21325300,0.21325300,0.21325300,0.21325300,-1.8386758e-05,-0.0099614520,-0.00040797074,-0.00031427126,0.39294298,-0.0018655494,1.1537462e-05,-9.7716686,0.013262814
0.21425300,0.21425300,0.21425300,0.21425300,0.21425300,0.21425300,0.21425300,0.21425300,0.21425300,-1.8701042e-05,-0.0095734074,-0.00040982913,-0.00031428784,0.38315250,-0.0018514978,-7.2084986e-06,-9.7842117,0.013788650
0.21525300,0.21525300,0.21525300,0.21525300,0.21525300,0.21525300,0.21525300,0.21525300,0.21525300,-1.9015346e-05,-0.0091951560,-0.00041167335,-0.00031431433,0.37335472,-0.0018371215,-2.0058301e-05,-9.7932544,0.014180407
0.21625300,0.21625300,0.21625300,0.21625300,0.21625300,0.21625300,0.21625300,0.21625300,0.21625300,-1.9329680e-05,-0.0088267043,-0.00041350308,-0.00031434881,0.36355188,-0.0018225008,-2.9678616e-05,-9.7996434,0.014473948
0.21725300,0.21725300,0.21725300,0.21725300,0.21725300,0.21725300,0.21725300,0.21725300,0.21725300,-1.9644050e-05,-0.0084680561,-0.00041531817,-0.00031438711,0.35374647,-0.0018077599,-3.5424708e-05,-9.8034922,0.014651942
0.21825300,0.21825300,0.21825300,0.21825300,0.21825300,0.21825300,0.21825300,0.21825300,0.21825300,-1.9958457e-05,-0.0081192133,-0.00041711851,-0.00031442689,0.34394008,-0.0017929744,-3.8329201e-05,-9.8054225,0.014740982
0.21925300,0.21925300,0.21925300,0.21925300,0.21925300,0.21925300,0.21925300,0.21925300,0.21925300,-2.0272905e-05,-0.0077801769,-0.00041890407,-0.00031446740,0.33413320,-0.0017781669,-3.9781055e-05,-9.8063915,0.014785320
0.22025300,0.22025300,0.22025300,0.22025300,0.22025300,0.22025300,0.22025300,0.22025300,0.22025300,-2.0587393e-05,-0.0074509474,-0.00042067483,-0.00031450827,0.32432608,-0.0017633486,-4.0507050e-05,-9.8068799,0.014807303
0.22125300,0.22125300,0.22125300,0.22125300,0.22125300,0.22125300,0.22125300,0.22125300,0.22125300,-2.0901922e-05,-0.0071315250,-0.00042243076,-0.00031454932,0.31451883,-0.0017485251,-4.0870340e-05,-9.8071280,0.014818106
0.22225300,0.22225300,0.22225300,0.22225300,0.22225300,0.22225300,0.22225300,0.22225300,0.22225300,-2.1216492e-05,-0.0068219099,-0.00042417187,-0.00031459047,0.30471151,-0.0017336992,-4.1052387e-05,-9.8072559,0.014823318
0.22325300,0.22325300,0.22325300,0.22325300,0.22325300,0.22325300,0.22325300,0.22325300,0.22325300,-2.1531103e-05,-0.0065221021,-0.00042589816,-0.00031463166,0.29490415,-0.0017188722,-4.1143863e-05,-9.8073237,0.014825731
0.22425300,0.22425300,0.22425300,0.22425300,0.22425300,0.22425300,0.22425300,0.22425300,0.22425300,-2.1845755e-05,-0.0062321016,-0.00042760961,-0.00031467287,0.28509677,-0.0017040450,-4.1190075e-05,-9.8073615,0.014826742
0.22525300,0.22525300,0.22525300,0.22525300,0.22525300,0.22525300,0.22525300,0.22525300,0.22525300,-2.2160449e-05,-0.0059519085,-0.00042930625,-0.00031471409,0.27528937,-0.0016892178,-4.1213661e-05,-9.8073843,0.014827052
0.22625300,0.22625300,0.22625300,0.22625300,0.22625300,0.22625300,0.22625300,0.22625300,0.22625300,-2.2475183e-05,-0.0056815229,-0.00043098805,-0.00031475533,0.26548197,-0.0016743908,-4.1225934e-05,-9.8073995,0.014827007
0.22725300,0.22725300,0.22725300,0.22725300,0.22725300,0.22725300,0.22725300,0.22725300,0.22725300,-2.2789959e-05,-0.0054209446,-0.00043265503,-0.00031479656,0.25567455,-0.0016595641,-4.1232547e-05,-9.8074110,0.014826785
0.22825300,0.22825300,0.22825300,0.22825300,0.22825300,0.22825300,0.22825300,0.22825300,0.22825300,-2.3104776e-05,-0.0051701738,-0.00043430718,-0.00031483780,0.24586712,-0.0016447378,-4.1236323e-05,-9.8074207,0.014826470
0.22925300,0.22925300,0.22925300,0.22925300,0.22925300,0.22925300,0.22925300,0.22925300,0.22925300,-2.3419635e-05,-0.0049292104,-0.00043594450,-0.00031487904,0.23605969,-0.0016299119,-4.1238674e-05,-9.8074293,0.014826108
0.23025300,0.23025300,0.23025300,0.23025300,0.23025300,0.23025300,0.23025300,0.23025300,0.23025300,-2.3734534e-05,-0.0046980544,-0.00043756700,-0.00031492028,0.22625225,-0.0016150863,-4.1240305e-05,-9.8074376,0.014825720
0.23125300,0.23125300,0.23125300,0.23125300,0.23125300,0.23125300,0.23125300,0.23125300,0.23125300,-2.4049475e-05,-0.0044767059,-0.00043917468,-0.00031496152,0.21644480,-0.0016002612,-4.1241568e-05,-9.8074455,0.014825317
0.23225300,0.23225300,0.23225300,0.23225300,0.23225300,0.23225300,0.23225300,0.23225300,0.23225300,-2.4364458e-05,-0.0042651648,-0.00044076752,-0.00031500277,0.20663734,-0.0015854365,-4.1242640e-05,-9.8074534,0.014824905
0.23325300,0.23325300,0.23325300,0.23325300,0.23325300,0.23325300,0.23325300,0.23325300,0.23325300,-2.4679481e-05,-0.0040634312,-0.00044234555,-0.00031504401,0.19682988,-0.0015706122,-4.1243608e-05,-9.8074612,0.014824486
0.23425300,0.23425300,0.23425300,0.23425300,0.23425300,0.23425300,0.23425300,0.23425300,0.23425300,-2.4994546e-05,-0.0038715051,-0.00044390875,-0.00031508526,0.18702240,-0.0015557884,-4.1244517e-05,-9.8074690,0.014824061
0.23525300,0.23525300,0.23525300,0.23525300,0.23525300,0.23525300,0.23525300,0.23525300,0.23525300,-2.5309651e-05,-0.0036893864,-0.00044545713,-0.00031512650,0.17721492,-0.0015409650,-4.1245388e-05,-9.8074767,0.014823632
0.23625300,0.23625300,0.23625300,0.23625300,0.23625300,0.23625300,0.23625300,0.23625300,0.23625300,-2.5624799e-05,-0.0035170752,-0.00044699068,-0.00031516775,0.16740744,-0.0015261420,-4.1246233e-05,-9.8074845,0.014823198
0.23725300,0.23725300,0.23725300,0.23725300,0.23725300,0.23725300,0.23725300,0.23725300,0.23725300,-2.5939987e-05,-0.0033545715,-0.00044850941,-0.00031520900,0.15759994,-0.0015113195,-4.1247056e-05,-9.8074922,0.014822761
0.23825300,0.23825300,0.23825300,0.23825300,0.23825300,0.23825300,0.23825300,0.23825300,0.23825300,-2.6255217e-05,-0.0032018754,-0.00045001332,-0.00031525024,0.14779244,-0.0014964974,-4.1247862e-05,-9.8075000,0.014822318
0.23925300,0.23925300,0.23925300,0.23925300,0.23925300,0.23925300,0.23925300,0.23925300,0.23925300,-2.6570487e-05,-0.0030589867,-0.00045150241,-0.00031529149,0.13798492,-0.0014816757,-4.1248650e-05,-9.8075077,0.014821872
0.24025300,0.24025300,0.24025300,0.24025300,0.24025300,0.24025300,0.24025300,0.24025300,0.24025300,-2.6885800e-05,-0.0029259055,-0.00045297667,-0.00031533274,0.12817740,-0.0014668545,-4.1249421e-05,-9.8075155,0.014821422
0.24125300,0.24125300,0.24125300,0.24125300,0.24125300,0.24125300,0.24125300,0.24125300,0.24125300,-2.7201153e-05,-0.0028026319,-0.00045443612,-0.00031537399,0.11836988,-0.0014520338,-4.1250177e-05,-9.8075232,0.014820968
0.24225300,0.24225300,0.24225300,0.24225300,0.24225300,0.24225300,0.24225300,0.24225300,0.24225300,-2.7516548e-05,-0.0026891658,-0.00045588074,-0.00031541524,0.10856234,-0.0014372135,-4.1250917e-05,-9.8075310,0.014820510
0.24325300,0.24325300,0.24325300,0.24325300,0.24325300,0.24325300,0.24325300,0.24325300,0.24325300,-2.7831983e-05,-0.0025855072,-0.00045731054,-0.00031545650,0.098754800,-0.0014223937,-4.1251641e-05,-9.8075387,0.014820047
0.24425300,0.24425300,0.24425300,0.24425300,0.24425300,0.24425300,0.24425300,0.24425300,0.24425300,-2.8147461e-05,-0.0024916562,-0.00045872553,-0.00031549775,0.088947249,-0.0014075743,-4.1252350e-05,-9.8075465,0.014819581
0.24525300,0.24525300,0.24525300,0.24525300,0.24525300,0.24525300,0.24525300,0.24525300,0.24525300,-2.8462979e-05,-0.0024076127,-0.00046012569,-0.00031553900,0.079139691,-0.0013927555,-4.1253042e-05,-9.8075542,0.014819110
0.24625300,0.24625300,0.24625300,0.24625300,0.24625300,0.24625300,0.24625300,0.24625300,0.24625300,-2.8778539e-05,-0.0023333768,-0.00046151104,-0.00031558026,0.069332125,-0.0013779371,-4.1253719e-05,-9.8075619,0.014818636
0.24725300,0.24725300,0.24725300,0.24725300,0.24725300,0.24725300,0.24725300,0.24725300,0.24725300,-2.9094139e-05,-0.0022689485,-0.00046288157,-0.00031562151,0.059524552,-0.0013631191,-4.1254381e-05,-9.8075697,0.014818157
0.24825300,0.24825300,0.24825300,0.24825300,0.24825300,0.24825300,0.24825300,0.24825300,0.24825300,-2.9409782e-05,-0.0022143277,-0.00046423728,-0.00031566277,0.049716971,-0.0013483017,-4.1255027e-05,-9.8075774,0.014817675
0.24925300,0.24925300,0.24925300,0.24925300,0.24925300,0.24925300,0.24925300,0.24925300,0.24925300,-2.9725465e-05,-0.0021695145,-0.00046557817,-0.00031570402,0.039909382,-0.0013334848,-4.1255657e-05,-9.8075852,0.014817188
0.25025300,0.25025300,0.25025300,0.25025300,0.25025300,0.25025300,0.25025300,0.25025300,0.25025300,-3.0041190e-05,-0.0021345090,-0.00046690425,-0.00031574528,0.030101785,-0.0013186683,-4.1256271e-05,-9.8075929,0.014816698
0.25125300,0.25125300,0.25125300,0.25125300,0.25125300,0.25125300,0.25125300,0.25125300,0.25125300,-3.0356955e-05,-0.0021093110,-0.00046821551,-0.00031578654,0.020294180,-0.0013038523,-4.1256870e-05,-9.8076007,0.014816203
0.25225300,0.25225300,0.25225300,0.25225300,0.25225300,0.25225300,0.25225300,0.25225300,0.25225300,-3.0672763e-05,-0.0020939206,-0.00046951195,-0.00031582779,0.010486568,-0.0012890369,-4.1257453e-05,-9.8076084,0.014815704
0.25325300,0.25325300,0.25325300,0.25325300,0.25325300,0.25325300,0.25325300,0.25325300,0.25325300,-3.0988611e-05,-0.0020883378,-0.00047079358,-0.00031586905,0.00067894797,-0.0012742219,-4.1258021e-05,-9.8076161,0.014815201
0.25425300,0.25425300,0.25425300,0.25425300,0.25425300,0.25425300,0.25425300,0.25425300,0.25425300,-3.1304501e-05,-0.0020925627,-0.00047206040,-0.00031591031,-0.0091286798,-0.0012594075,-4.1258572e-05,-9.8076239,0.014814694
0.25525300,0.25525300,0.25525300,0.25525300,0.25525300,0.25525300,0.25525300,0.25525300,0.25525300,-3.1620432e-05,-0.0021065952,-0.00047331240,-0.00031595157,-0.018936315,-0.0012445936,-4.1259109e-05,-9.8076316,0.014814184
0.25625300,0.25625300,0.25625300,0.25625300,0.25625300,0.25625300,0.25625300,0.25625300,0.25625300,-3.1936404e-05,-0.0021304354,-0.00047454958,-0.00031599283,-0.028743958,-0.0012297802,-4.1259629e-05,-9.8076394,0.014813669
0.25725300,0.25725300,0.25725300,0.25725300,0.25725300,0.25725300,0.25725300,0.25725300,0.25725300,-3.2252417e-05,-0.0021640831,-0.00047577196,-0.00031603409,-0.038551609,-0.0012149673,-4.1260134e-05,-9.8076471,0.014813150
0.25825300,0.25825300,0.25825300,0.25825300,0.25825300,0.25825300,0.25825300,0.25825300,0.25825300,-3.2568472e-05,-0.0022075386,-0.00047697952,-0.00031607535,-0.048359268,-0.0012001549,-4.1260623e-05,-9.8076548,0.014812627
0.25925300,0.25925300,0.25925300,0.25925300,0.25925300,0.25925300,0.25925300,0.25925300,0.25925300,-3.2884568e-05,-0.0022608017,-0.00047817227,-0.00031611661,-0.058166935,-0.0011853431,-4.1261097e-05,-9.8076626,0.014812100
0.26025300,0.26025300,0.26025300,0.26025300,0.26025300,0.26025300,0.26025300,0.26025300,0.26025300,-3.3200705e-05,-0.0023238725,-0.00047935021,-0.00031615787,-0.067974609,-0.0011705318,-4.1261554e-05,-9.8076703,0.014811568
0.26125300,0.26125300,0.26125300,0.26125300,0.26125300,0.26125300,0.26125300,0.26125300,0.26125300,-3.3516884e-05,-0.0023967509,-0.00048051333,-0.00031619914,-0.077782291,-0.0011557210,-4.1261997e-05,-9.8076781,0.014811033
0.26225300,0.26225300,0.26225300,0.26225300,0.26225300,0.26225300,0.26225300,0.26225300,0.26225300,-3.3833104e-05,-0.0024794370,-0.00048166165,-0.00031624040,-0.087589980,-0.0011409108,-4.1262423e-05,-9.8076858,0.014810494
0.26325300,0.26325300,0.26325300,0.26325300,0.26325300,0.26325300,0.26325300,0.26325300,0.26325300,-3.4149365e-05,-0.0025719309,-0.00048279516,-0.00031628166,-0.097397678,-0.0011261011,-4.1262834e-05,-9.8076935,0.014809951
0.26425300,0.26425300,0.26425300,0.26425300,0.26425300,0.26425300,0.26425300,0.26425300,0.26425300,-3.4465667e-05,-0.0026742324,-0.00048391385,-0.00031632293,-0.10720538,-0.0011112920,-4.1263229e-05,-9.8077013,0.014809404
0.26525300,0.26525300,0.26525300,0.26525300,0.26525300,0.26525300,0.26525300,0.26525300,0.26525300,-3.4782010e-05,-0.0027863417,-0.00048501774,-0.00031636419,-0.11701310,-0.0010964834,-4.1263609e-05,-9.8077090,0.014808852
0.26625300,0.26625300,0.26625300,0.26625300,0.26625300,0.26625300,0.26625300,0.26625300,0.26625300,-3.5098395e-05,-0.0029082586,-0.00048610682,-0.00031640545,-0.12682082,-0.0010816754,-4.1263972e-05,-9.8077167,0.014808297
0.26725300,0.26725300,0.26725300,0.26725300,0.26725300,0.26725300,0.26725300,0.26725300,0.26725300,-3.5414821e-05,-0.0030399833,-0.00048718109,-0.00031644672,-0.13662854,-0.0010668679,-4.1264321e-05,-9.8077245,0.014807737
0.26825300,0.26825300,0.26825300,0.26825300,0.26825300,0.26825300,0.26825300,0.26825300,0.26825300,-3.5731289e-05,-0.0031815157,-0.00048824056,-0.00031648798,-0.14643628,-0.0010520610,-4.1264653e-05,-9.8077322,0.014807174
0.26925300,0.26925300,0.26925300,0.26925300,0.26925300,0.26925300,0.26925300,0.26925300,0.26925300,-3.6047797e-05,-0.0033328559,-0.00048928521,-0.00031652925,-0.15624402,-0.0010372547,-4.1264970e-05,-9.8077400,0.014806607
0.27025300,0.27025300,0.27025300,0.27025300,0.27025300,0.27025300,0.27025300,0.27025300,0.27025300,-3.6364347e-05,-0.0034940038,-0.00049031507,-0.00031657051,-0.16605178,-0.0010224490,-4.1265271e-05,-9.8077477,0.014806035
0.27125300,0.27125300,0.27125300,0.27125300,0.27125300,0.27125300,0.27125300,0.27125300,0.27125300,-3.6680938e-05,-0.0036649594,-0.00049133011,-0.00031661178,-0.17585954,-0.0010076438,-4.1265557e-05,-9.8077554,0.014805459
0.27225300,0.27225300,0.27225300,0.27225300,0.27225300,0.27225300,0.27225300,0.27225300,0.27225300,-3.6997571e-05,-0.0038457228,-0.00049233035,-0.00031665305,-0.18566730,-0.00099283919,-4.1265827e-05,-9.8077632,0.014804880
0.27325300,0.27325300,0.27325300,0.27325300,0.27325300,0.27325300,0.27325300,0.27325300,0.27325300,-3.7314244e-05,-0.0040362940,-0.00049331579,-0.00031669431,-0.19547508,-0.00097803519,-4.1266081e-05,-9.8077709,0.014804296
0.27425300,0.27425300,0.27425300,0.27425300,0.27425300,0.27425300,0.27425300,0.27425300,0.27425300,-3.7630959e-05,-0.0042366730,-0.00049428642,-0.00031673558,-0.20528286,-0.00096323177,-4.1266319e-05,-9.8077786,0.014803708
0.27525300,0.27525300,0.27525300,0.27525300,0.27525300,0.27525300,0.27525300,0.27525300,0.27525300,-3.7947716e-05,-0.0044468598,-0.00049524226,-0.00031677684,-0.21509065,-0.00094842895,-4.1266542e-05,-9.8077864,0.014803117
0.27625300,0.27625300,0.27625300,0.27625300,0.27625300,0.27625300,0.27625300,0.27625300,0.27625300,-3.8264513e-05,-0.0046668543,-0.00049618328,-0.00031681811,-0.22489845,-0.00093362673,-4.1266749e-05,-9.8077941,0.014802521
0.27725300,0.27725300,0.27725300,0.27725300,0.27725300,0.27725300,0.27725300,0.27725300,0.27725300,-3.8581352e-05,-0.0048966567,-0.00049710951,-0.00031685938,-0.23470625,-0.00091882511,-4.1266941e-05,-9.8078018,0.014801921
0.27825300,0.27825300,0.27825300,0.27825300,0.27825300,0.27825300,0.27825300,0.27825300,0.27825300,-3.8898232e-05,-0.0051362668,-0.00049802093,-0.00031690065,-0.24451407,-0.00090402409,-4.1267117e-05,-9.8078096,0.014801317
0.27925300,0.27925300,0.27925300,0.27925300,0.27925300,0.27925300,0.27925300,0.27925300,0.27925300,-3.9215153e-05,-0.0053856848,-0.00049891756,-0.00031694191,-0.25432189,-0.00088922369,-4.1267277e-05,-9.8078173,0.014800709
0.28025300,0.28025300,0.28025300,0.28025300,0.28025300,0.28025300,0.28025300,0.28025300,0.28025300,-3.9532116e-05,-0.0056449106,-0.00049979938,-0.00031698318,-0.26412972,-0.00087442390,-4.1267421e-05,-9.8078250,0.014800097
0.28125300,0.28125300,0.28125300,0.28125300,0.28125300,0.28125300,0.28125300,0.28125300,0.28125300,-3.9849119e-05,-0.0059139443,-0.00050066641,-0.00031702445,-0.27393755,-0.00085962472,-4.1267550e-05,-9.8078328,0.014799481
0.28225300,0.28225300,0.28225300,0.28225300,0.28225300,0.28225300,0.28225300,0.28225300,0.28225300,-4.0166165e-05,-0.0061927857,-0.00050151863,-0.00031706572,-0.28374540,-0.00084482617,-4.1267664e-05,-9.8078405,0.014798861
0.28325300,0.28325300,0.28325300,0.28325300,0.28325300,0.28325300,0.28325300,0.28325300,0.28325300,-4.0483251e-05,-0.0064814351,-0.00050235606,-0.00031710698,-0.29355325,-0.00083002825,-4.1267761e-05,-9.8078482,0.014798237
0.28425300,0.28425300,0.28425300,0.28425300,0.28425300,0.28425300,0.28425300,0.28425300,0.28425300,-4.0800379e-05,-0.0067798922,-0.00050317869,-0.00031714825,-0.30336111,-0.00081523095,-4.1267843e-05,-9.8078560,0.014797609
0.28525300,0.28525300,0.28525300,0.28525300,0.28525300,0.28525300,0.28525300,0.28525300,0.28525300,-4.1117547e-05,-0.0070881573,-0.00050398652,-0.00031718952,-0.31316898,-0.00080043429,-4.1267909e-05,-9.8078637,0.014796977
0.28625300,0.28625300,0.28625300,0.28625300,0.28625300,0.28625300,0.28625300,0.28625300,0.28625300,-4.1434758e-05,-0.0074062302,-0.00050477956,-0.00031723079,-0.32297685,-0.00078563827,-4.1267960e-05,-9.8078714,0.014796341
0.28725300,0.28725300,0.28725300,0.28725300,0.28725300,0.28725300,0.28725300,0.28725300,0.28725300,-4.1752009e-05,-0.0077341110,-0.00050555780,-0.00031727206,-0.33278474,-0.00077084289,-4.1267995e-05,-9.8078792,0.014795700
0.28825300,0.28825300,0.28825300,0.28825300,0.28825300,0.28825300,0.28825300,0.28825300,0.28825300,-4.2068486e-05,-0.0080716725,-0.00050631547,-0.00031608983,-0.34240184,-0.00074739213,0.00077439729,-9.6806983,0.020565738
0.28925300,0.28925300,0.28925300,0.28925300,0.28925300,0.28925300,0.28925300,0.28925300,0.28925300,-4.2384296e-05,-0.0084188462,-0.00050704918,-0.00031547577,-0.35197978,-0.00072172200,0.00066750237,-9.6121903,0.023968668
0.29025300,0.29025300,0.29025300,0.29025300,0.29025300,0.29025300,0.29025300,0.29025300,0.29025300,-4.2699555e-05,-0.0087755919,-0.00050775506,-0.00031498382,-0.36153168,-0.00069195885,0.00055046833,-9.5719943,0.027831653
0.29125300,0.29125300,0.29125300,0.29125300,0.29125300,0.29125300,0.29125300,0.29125300,0.29125300,-4.3014434e-05,-0.0091418758,-0.00050843235,-0.00031468954,-0.37105306,-0.00066301060,0.00037967258,-9.5382554,0.028576050
0.29225300,0.29225300,0.29225300,0.29225300,0.29225300,0.29225300,0.29225300,0.29225300,0.29225300,-4.3328985e-05,-0.0095176577,-0.00050907950,-0.00031438736,-0.38053083,-0.00063207400,0.00032801454,-9.4979272,0.030149750
0.29325300,0.29325300,0.29325300,0.29325300,0.29325300,0.29325300,0.29325300,0.29325300,0.29325300,-4.3643139e-05,-0.0099029110,-0.00050969623,-0.00031395443,-0.38998901,-0.00060151331,0.00039795561,-9.4714309,0.030423712
0.29425300,0.29425300,0.29425300,0.29425300,0.29425300,0.29425300,0.29425300,0.29425300,0.29425300,-4.3956824e-05,-0.010297591,-0.00051028079,-0.00031345134,-0.39939417,-0.00056847634,0.00046804569,-9.4272546,0.032165882
0.29525300,0.29525300,0.29525300,0.29525300,0.29525300,0.29525300,0.29525300,0.29525300,0.29525300,-4.4269735e-05,-0.010701639,-0.00051083078,-0.00031252295,-0.40873167,-0.00053270442,0.00077494532,-9.3674156,0.034569911
0.29625300,0.29625300,0.29625300,0.29625300,0.29625300,0.29625300,0.29625300,0.29625300,0.29625300,-4.4581657e-05,-0.011114981,-0.00051134247,-0.00031142798,-0.41798810,-0.00049253916,0.00098829391,-9.2934231,0.038300145
0.29725300,0.29725300,0.29725300,0.29725300,0.29725300,0.29725300,0.29725300,0.29725300,0.29725300,-4.4892491e-05,-0.011537568,-0.00051181384,-0.00031029033,-0.42721039,-0.00045121626,0.0010878664,-9.2460023,0.040315313
0.29825300,0.29825300,0.29825300,0.29825300,0.29825300,0.29825300,0.29825300,0.29825300,0.29825300,-4.5202253e-05,-0.011969352,-0.00051224300,-0.00030922530,-0.43638248,-0.00040806112,0.0010726395,-9.1967247,0.042208529
0.29925300,0.29925300,0.29925300,0.29925300,0.29925300,0.29925300,0.29925300,0.29925300,0.29925300,-4.5510874e-05,-0.012410259,-0.00051262736,-0.00030805149,-0.44546790,-0.00036194975,0.0011400888,-9.1225253,0.044810428
0.30025300,0.30025300,0.30025300,0.30025300,0.30025300,0.30025300,0.30025300,0.30025300,0.30025300,-4.5818246e-05,-0.012860206,-0.00051296383,-0.00030674720,-0.45446740,-0.00031252535,0.0012495550,-9.0405051,0.047886407
0.30125300,0.30125300,0.30125300,0.30125300,0.30125300,0.30125300,0.30125300,0.30125300,0.30125300,-4.6124237e-05,-0.013319077,-0.00051324777,-0.00030530102,-0.46333208,-0.00025768277,0.0013806373,-8.9232929,0.052523858
0.30225300,0.30225300,0.30225300,0.30225300,0.30225300,0.30225300,0.30225300,0.30225300,0.30225300,-4.6428632e-05,-0.013786743,-0.00051347685,-0.00030359637,-0.47206467,-0.00020164752,0.0015966437,-8.7961564,0.054864780
0.30325300,0.30325300,0.30325300,0.30325300,0.30325300,0.30325300,0.30325300,0.30325300,0.30325300,-4.6731323e-05,-0.014263111,-0.00051364698,-0.00030183946,-0.48071832,-0.00014065724,0.0017034904,-8.7011491,0.058948447
0.30425300,0.30425300,0.30425300,0.30425300,0.30425300,0.30425300,0.30425300,0.30425300,0.30425300,-4.7032128e-05,-0.014748034,-0.00051375268,-0.00029986070,-0.48920033,-7.3475982e-05,0.0018870018,-8.5550578,0.064436990
0.30525300,0.30525300,0.30525300,0.30525300,0.30525300,0.30525300,0.30525300,0.30525300,0.30525300,-4.7330877e-05,-0.015241349,-0.00051379123,-0.00029772162,-0.49751106,-4.9812267e-06,0.0020550557,-8.3921714,0.067142167
0.30625300,0.30625300,0.30625300,0.30625300,0.30625300,0.30625300,0.30625300,0.30625300,0.30625300,-4.7627202e-05,-0.015742854,-0.00051375764,-0.00029511398,-0.50560066,6.9660100e-05,0.0024234438,-8.1904578,0.072141607
0.30725300,0.30725300,0.30725300,0.30725300,0.30725300,0.30725300,0.30725300,0.30725300,0.30725300,-4.7920830e-05,-0.016252339,-0.00051364338,-0.00029227934,-0.51347529,0.00015459227,0.0026975776,-7.9799052,0.080668649
0.30825300,0.30825300,0.30825300,0.30825300,0.30825300,0.30825300,0.30825300,0.30825300,0.30825300,-4.8211497e-05,-0.016769553,-0.00051344031,-0.00028918604,-0.52107727,0.00024748096,0.0029613931,-7.7279578,0.088815340
0.30925300,0.30925300,0.30925300,0.30925300,0.30925300,0.30925300,0.30925300,0.30925300,0.30925300,-4.8498839e-05,-0.017294211,-0.00051314012,-0.00028567920,-0.52838143,0.00034875029,0.0033250188,-7.4454281,0.097118003
0.31025300,0.31025300,0.31025300,0.31025300,0.31025300,0.31025300,0.31025300,0.31025300,0.31025300,-4.8782746e-05,-0.017826041,-0.00051274032,-0.00028218942,-0.53541530,0.00044960450,0.0034348603,-7.1710529,0.099608808
0.31125300,0.31125300,0.31125300,0.31125300,0.31125300,0.31125300,0.31125300,0.31125300,0.31125300,-4.9062612e-05,-0.018364716,-0.00051223318,-0.00027784536,-0.54209728,0.00056080291,0.0040409991,-6.8450035,0.10733521
0.31225300,0.31225300,0.31225300,0.31225300,0.31225300,0.31225300,0.31225300,0.31225300,0.31225300,-4.9338873e-05,-0.018909905,-0.00051161148,-0.00027445868,-0.54844549,0.00067899126,0.0036047864,-6.5138076,0.11457064
0.31325300,0.31325300,0.31325300,0.31325300,0.31325300,0.31325300,0.31325300,0.31325300,0.31325300,-4.9611745e-05,-0.019461319,-0.00051086609,-0.00027117766,-0.55452748,0.00080722907,0.0033889369,-6.2259328,0.12368208
0.31425300,0.31425300,0.31425300,0.31425300,0.31425300,0.31425300,0.31425300,0.31425300,0.31425300,-4.9880807e-05,-0.020018598,-0.00050997248,-0.00026715748,-0.56021080,0.00096772282,0.0038097692,-5.8641878,0.14822320
0.31525300,0.31525300,0.31525300,0.31525300,0.31525300,0.31525300,0.31525300,0.31525300,0.31525300,-5.0145317e-05,-0.020581387,-0.00050893153,-0.00026223280,-0.56554420,0.0011146234,0.0045530447,-5.5103270,0.14734146
0.31625300,0.31625300,0.31625300,0.31625300,0.31625300,0.31625300,0.31625300,0.31625300,0.31625300,-5.0404777e-05,-0.021149328,-0.00050774277,-0.00025693585,-0.57051792,0.0012626602,0.0050489781,-5.1525946,0.14780500
0.31725300,0.31725300,0.31725300,0.31725300,0.31725300,0.31725300,0.31725300,0.31725300,0.31725300,-5.0660428e-05,-0.021722024,-0.00050640369,-0.00025374625,-0.57507207,0.0014142342,0.0038093920,-4.7536270,0.15031768
0.31825300,0.31825300,0.31825300,0.31825300,0.31825300,0.31825300,0.31825300,0.31825300,0.31825300,-5.0913178e-05,-0.022299016,-0.00050490796,-0.00025129995,-0.57914042,0.0015740581,0.0029006646,-4.2967786,0.15665519
0.31925300,0.31925300,0.31925300,0.31925300,0.31925300,0.31925300,0.31925300,0.31925300,0.31925300,-5.1163595e-05,-0.022879797,-0.00050324617,-0.00024924998,-0.58267635,0.0017448239,0.0023335333,-3.7895472,0.16606225
0.32025300,0.32025300,0.32025300,0.32025300,0.32025300,0.32025300,0.32025300,0.32025300,0.32025300,-5.1416006e-05,-0.023463800,-0.00050140680,-0.00025340864,-0.58561292,0.0019281539,-0.0019945963,-3.2208915,0.17757405
0.32125300,0.32125300,0.32125300,0.32125300,0.32125300,0.32125300,0.32125300,0.32125300,0.32125300,-5.1673063e-05,-0.024050381,-0.00049938239,-0.00025937939,-0.58787076,0.0021169333,-0.0046453596,-2.5788578,0.18504430
0.32225300,0.32225300,0.32225300,0.32225300,0.32225300,0.32225300,0.32225300,0.32225300,0.32225300,-5.1936982e-05,-0.024638819,-0.00049717147,-0.00026734973,-0.58936566,0.0023041833,-0.0068620177,-1.8562237,0.18651477
0.32325300,0.32325300,0.32325300,0.32325300,0.32325300,0.32325300,0.32325300,0.32325300,0.32325300,-5.2209093e-05,-0.025228521,-0.00049476613,-0.00027620824,-0.59033525,0.0025025402,-0.0081930138,-1.2651310,0.19440951
0.32425300,0.32425300,0.32425300,0.32425300,0.32425300,0.32425300,0.32425300,0.32425300,0.32425300,-5.2490713e-05,-0.025818832,-0.00049215679,-0.00028637298,-0.59061386,0.0027113461,-0.0095074927,-0.60745345,0.20400710
0.32525300,0.32525300,0.32525300,0.32525300,0.32525300,0.32525300,0.32525300,0.32525300,0.32525300,-5.2782394e-05,-0.026409193,-0.00048929583,-0.00029671234,-0.59038760,0.0029867677,-0.010062077,-0.051639059,0.25161679
0.32625300,0.32625300,0.32625300,0.32625300,0.32625300,0.32625300,0.32625300,0.32625300,0.32625300,-5.3084394e-05,-0.026998944,-0.00048615472,-0.00030715988,-0.58944508,0.0032811899,-0.010319049,0.61113294,0.28015370
0.32725300,0.32725300,0.32725300,0.32725300,0.32725300,0.32725300,0.32725300,0.32725300,0.32725300,-5.3397870e-05,-0.027587354,-0.00048271060,-0.00031921339,-0.58774024,0.0035956159,-0.011475356,1.3402666,0.30300193
0.32825300,0.32825300,0.32825300,0.32825300,0.32825300,0.32825300,0.32825300,0.32825300,0.32825300,-5.3722085e-05,-0.028173641,-0.00047887706,-0.00032958419,-0.58522549,0.0040282559,-0.010738984,2.1232600,0.38942731
0.32925300,0.32925300,0.32925300,0.32925300,0.32925300,0.32925300,0.32925300,0.32925300,0.32925300,-5.4057501e-05,-0.028757024,-0.00047471539,-0.00034101745,-0.58192995,0.0043257266,-0.011201835,2.9047756,0.32812291
0.33025300,0.33025300,0.33025300,0.33025300,0.33025300,0.33025300,0.33025300,0.33025300,0.33025300,-5.4405182e-05,-0.029337100,-0.00047026528,-0.00035381350,-0.57842339,0.0045943303,-0.012264648,3.3059692,0.28844341
0.33125300,0.33125300,0.33125300,0.33125300,0.33125300,0.33125300,0.33125300,0.33125300,0.33125300,-5.4766813e-05,-0.029913242,-0.00046553640,-0.00036860463,-0.57417536,0.0048682708,-0.013948968,3.9340059,0.27877484
0.33225300,0.33225300,0.33225300,0.33225300,0.33225300,0.33225300,0.33225300,0.33225300,0.33225300,-5.5145371e-05,-0.030484709,-0.00046052751,-0.00038702264,-0.56912834,0.0051488972,-0.016928330,4.6760137,0.28000919
0.33325300,0.33325300,0.33325300,0.33325300,0.33325300,0.33325300,0.33325300,0.33325300,0.33325300,-5.5543229e-05,-0.031050708,-0.00045524331,-0.00040750754,-0.56326533,0.0054218553,-0.019299373,5.4673452,0.27530846
0.33425300,0.33425300,0.33425300,0.33425300,0.33425300,0.33425300,0.33425300,0.33425300,0.33425300,-5.5963287e-05,-0.031610402,-0.00044968165,-0.00043115835,-0.55654125,0.0057003924,-0.022200336,6.3051683,0.27746088
0.33525300,0.33525300,0.33525300,0.33525300,0.33525300,0.33525300,0.33525300,0.33525300,0.33525300,-5.6406491e-05,-0.032162939,-0.00044383469,-0.00045477739,-0.54895907,0.0059895989,-0.023146134,7.1565114,0.28529129
0.33625300,0.33625300,0.33625300,0.33625300,0.33625300,0.33625300,0.33625300,0.33625300,0.33625300,-5.6872345e-05,-0.032707632,-0.00043770089,-0.00047717759,-0.54077090,0.0062772308,-0.022648847,7.8442879,0.28685172
0.33725300,0.33725300,0.33725300,0.33725300,0.33725300,0.33725300,0.33725300,0.33725300,0.33725300,-5.7361981e-05,-0.033243685,-0.00043127726,-0.00050152835,-0.53173273,0.0065685329,-0.023783454,8.6402070,0.28981864
0.33825300,0.33825300,0.33825300,0.33825300,0.33825300,0.33825300,0.33825300,0.33825300,0.33825300,-5.7878368e-05,-0.033770249,-0.00042455796,-0.00052976194,-0.52181959,0.0068671513,-0.026750211,9.4888275,0.29568517
0.33925300,0.33925300,0.33925300,0.33925300,0.33925300,0.33925300,0.33925300,0.33925300,0.33925300,-5.8421515e-05,-0.034286459,-0.00041755553,-0.00055652680,-0.51103250,0.0071439799,-0.026759980,10.354338,0.28311409
0.34025300,0.34025300,0.34025300,0.34025300,0.34025300,0.34025300,0.34025300,0.34025300,0.34025300,-5.8992761e-05,-0.034791445,-0.00041027767,-0.00058529636,-0.49937446,0.0074155842,-0.028099696,11.223470,0.27544089
0.34125300,0.34125300,0.34125300,0.34125300,0.34125300,0.34125300,0.34125300,0.34125300,0.34125300,-5.9591737e-05,-0.035284403,-0.00040264716,-0.00061283982,-0.48694392,0.0078068278,-0.027728876,12.028188,0.35264271
0.34225300,0.34225300,0.34225300,0.34225300,0.34225300,0.34225300,0.34225300,0.34225300,0.34225300,-6.0218317e-05,-0.035764490,-0.00039462972,-0.00064038254,-0.47365208,0.0082109145,-0.027604773,12.870619,0.38693867
0.34325300,0.34325300,0.34325300,0.34325300,0.34325300,0.34325300,0.34325300,0.34325300,0.34325300,-6.0874210e-05,-0.036230834,-0.00038619457,-0.00067055025,-0.45947205,0.0086439938,-0.029313395,13.743559,0.41769914
0.34425300,0.34425300,0.34425300,0.34425300,0.34425300,0.34425300,0.34425300,0.34425300,0.34425300,-6.1560013e-05,-0.036682572,-0.00037733098,-0.00070075709,-0.44443442,0.0090778198,-0.029909023,14.606273,0.42845032
0.34525300,0.34525300,0.34525300,0.34525300,0.34525300,0.34525300,0.34525300,0.34525300,0.34525300,-6.2271103e-05,-0.037118855,-0.00036802600,-0.00072373345,-0.42855586,0.0095256767,-0.025287253,15.454469,0.44138809
0.34625300,0.34625300,0.34625300,0.34625300,0.34625300,0.34625300,0.34625300,0.34625300,0.34625300,-6.2998488e-05,-0.037538877,-0.00035828981,-0.00073553362,-0.41189151,0.0099517824,-0.016295865,16.261055,0.43119981
0.34725300,0.34725300,0.34725300,0.34725300,0.34725300,0.34725300,0.34725300,0.34725300,0.34725300,-6.3739202e-05,-0.037941842,-0.00034812764,-0.00074737745,-0.39443644,0.010375171,-0.013327835,17.057063,0.42599217
0.34825300,0.34825300,0.34825300,0.34825300,0.34825300,0.34825300,0.34825300,0.34825300,0.34825300,-6.4493112e-05,-0.038327355,-0.00033739178,-0.00076050781,-0.37678723,0.011022700,-0.013196188,17.451829,0.57368375
0.34925300,0.34925300,0.34925300,0.34925300,0.34925300,0.34925300,0.34925300,0.34925300,0.34925300,-6.5261281e-05,-0.038695287,-0.00032604551,-0.00077529925,-0.35914222,0.011651470,-0.014259687,17.580614,0.61040782
0.35025300,0.35025300,0.35025300,0.35025300,0.35025300,0.35025300,0.35025300,0.35025300,0.35025300,-6.6038290e-05,-0.039045860,-0.00031402380,-0.00078142931,-0.34189226,0.012359443,-0.0088399371,17.360182,0.67545090
0.35125300,0.35125300,0.35125300,0.35125300,0.35125300,0.35125300,0.35125300,0.35125300,0.35125300,-6.6830140e-05,-0.039379349,-0.00030165879,-0.00079926947,-0.32494843,0.012536645,-0.014840086,17.082611,0.34328530
0.35225300,0.35225300,0.35225300,0.35225300,0.35225300,0.35225300,0.35225300,0.35225300,0.35225300,-6.7640455e-05,-0.039695761,-0.00028912830,-0.00081954855,-0.30787257,0.012613234,-0.018466082,17.078108,0.16548755
0.35325300,0.35325300,0.35325300,0.35325300,0.35325300,0.35325300,0.35325300,0.35325300,0.35325300,-6.8472894e-05,-0.039994961,-0.00027654133,-0.00084350019,-0.29059431,0.012615209,-0.022123125,17.211545,0.056479103
0.35425300,0.35425300,0.35425300,0.35425300,0.35425300,0.35425300,0.35425300,0.35425300,0.35425300,-6.9330602e-05,-0.040276756,-0.00026394646,-0.00087034285,-0.27309225,0.012598821,-0.025269481,17.405219,0.0079013708
0.35525300,0.35525300,0.35525300,0.35525300,0.35525300,0.35525300,0.35525300,0.35525300,0.35525300,-7.0218449e-05,-0.040540950,-0.00025139279,-0.00090291643,-0.25539339,0.012533083,-0.030138879,17.600984,-0.041191660
0.35625300,0.35625300,0.35625300,0.35625300,0.35625300,0.35625300,0.35625300,0.35625300,0.35625300,-7.1144413e-05,-0.040787466,-0.00023887188,-0.00094502264,-0.23767744,0.012504514,-0.038117101,17.677624,-0.032776707
0.35725300,0.35725300,0.35725300,0.35725300,0.35725300,0.35725300,0.35725300,0.35725300,0.35725300,-7.2109053e-05,-0.041016620,-0.00022614651,-0.00098397731,-0.22047339,0.012827615,-0.038675480,17.361914,0.20447532
0.35825300,0.35825300,0.35825300,0.35825300,0.35825300,0.35825300,0.35825300,0.35825300,0.35825300,-7.3113785e-05,-0.041228851,-0.00021301196,-0.0010247789,-0.20376886,0.013339133,-0.040092870,16.923654,0.40917037
0.35925300,0.35925300,0.35925300,0.35925300,0.35925300,0.35925300,0.35925300,0.35925300,0.35925300,-7.4149906e-05,-0.041424739,-0.00019956069,-0.0010518153,-0.18771617,0.013609632,-0.031388600,16.343010,0.31672259
0.36025300,0.36025300,0.36025300,0.36025300,0.36025300,0.36025300,0.36025300,0.36025300,0.36025300,-7.5220312e-05,-0.041605018,-0.00018595216,-0.0010875485,-0.17247509,0.013687153,-0.034284956,15.608392,0.15725501
0.36125300,0.36125300,0.36125300,0.36125300,0.36125300,0.36125300,0.36125300,0.36125300,0.36125300,-7.6331655e-05,-0.041770581,-0.00017236153,-0.0011318116,-0.15820405,0.013581692,-0.040937086,14.716827,-0.017889016
0.36225300,0.36225300,0.36225300,0.36225300,0.36225300,0.36225300,0.36225300,0.36225300,0.36225300,-7.7479813e-05,-0.041922074,-0.00015893279,-0.0011665643,-0.14445961,0.013347788,-0.036814120,14.068567,-0.16189858
0.36325300,0.36325300,0.36325300,0.36325300,0.36325300,0.36325300,0.36325300,0.36325300,0.36325300,-7.8663445e-05,-0.042059933,-0.00014578641,-0.0012013708,-0.13104130,0.013005193,-0.035475714,13.635060,-0.28236307
0.36425300,0.36425300,0.36425300,0.36425300,0.36425300,0.36425300,0.36425300,0.36425300,0.36425300,-7.9877969e-05,-0.042184331,-0.00013300770,-0.0012299693,-0.11766643,0.012594890,-0.030890938,13.461601,-0.36765654
0.36525300,0.36525300,0.36525300,0.36525300,0.36525300,0.36525300,0.36525300,0.36525300,0.36525300,-8.1120204e-05,-0.042295310,-0.00012066140,-0.0012560901,-0.10427032,0.012130089,-0.027710847,13.417941,-0.43241933
0.36625300,0.36625300,0.36625300,0.36625300,0.36625300,0.36625300,0.36625300,0.36625300,0.36625300,-8.2381981e-05,-0.042392931,-0.00010876159,-0.0012715483,-0.090942057,0.011676567,-0.019542402,13.358155,-0.44648775
0.36725300,0.36725300,0.36725300,0.36725300,0.36725300,0.36725300,0.36725300,0.36725300,0.36725300,-8.3656777e-05,-0.042477171,-9.7353963e-05,-0.0012813053,-0.077549719,0.011161529,-0.013018788,13.380943,-0.49218817
0.36825300,0.36825300,0.36825300,0.36825300,0.36825300,0.36825300,0.36825300,0.36825300,0.36825300,-8.4941921e-05,-0.042548019,-8.6438797e-05,-0.0012903184,-0.064151515,0.010668937,-0.010348311,13.392451,-0.49245761
0.36925300,0.36925300,0.36925300,0.36925300,0.36925300,0.36925300,0.36925300,0.36925300,0.36925300,-8.6239177e-05,-0.042605555,-7.5955127e-05,-0.0013033119,-0.050879723,0.010267922,-0.012111767,13.312011,-0.43149532
0.37025300,0.37025300,0.37025300,0.37025300,0.37025300,0.37025300,0.37025300,0.37025300,0.37025300,-8.7555968e-05,-0.042649908,-6.5820037e-05,-0.0013265579,-0.037761692,0.0099607998,-0.019534643,13.182692,-0.34858015
0.37125300,0.37125300,0.37125300,0.37125300,0.37125300,0.37125300,0.37125300,0.37125300,0.37125300,-8.8892038e-05,-0.042681252,-5.5911377e-05,-0.0013457104,-0.024839375,0.0097954457,-0.019279860,13.009109,-0.22642941
0.37225300,0.37225300,0.37225300,0.37225300,0.37225300,0.37225300,0.37225300,0.37225300,0.37225300,-9.0248281e-05,-0.042699736,-4.6181217e-05,-0.0013663280,-0.012055343,0.0096409092,-0.020171694,12.859057,-0.17850084
0.37325300,0.37325300,0.37325300,0.37325300,0.37325300,0.37325300,0.37325300,0.37325300,0.37325300,-9.1628035e-05,-0.042705504,-3.6589787e-05,-0.0013915113,0.00059121067,0.0095220653,-0.023512768,12.717388,-0.13872951
0.37425300,0.37425300,0.37425300,0.37425300,0.37425300,0.37425300,0.37425300,0.37425300,0.37425300,-9.3035570e-05,-0.042698458,-2.7182758e-05,-0.0014214237,0.013452915,0.0093148285,-0.027779160,12.813599,-0.18440109
0.37525300,0.37525300,0.37525300,0.37525300,0.37525300,0.37525300,0.37525300,0.37525300,0.37525300,-9.4470395e-05,-0.042678447,-1.8055824e-05,-0.0014484718,0.026492969,0.0089868871,-0.027291787,12.964569,-0.28009461
0.37625300,0.37625300,0.37625300,0.37625300,0.37625300,0.37625300,0.37625300,0.37625300,0.37625300,-9.5924732e-05,-0.042645473,-9.2253043e-06,-0.0014640924,0.039456480,0.0086823122,-0.019511006,12.963864,-0.29641481
0.37725300,0.37725300,0.37725300,0.37725300,0.37725300,0.37725300,0.37725300,0.37725300,0.37725300,-9.7389049e-05,-0.042599706,-6.8002382e-07,-0.0014693065,0.052162149,0.0084026610,-0.0099797082,12.791734,-0.28523907
0.37825300,0.37825300,0.37825300,0.37825300,0.37825300,0.37825300,0.37825300,0.37825300,0.37825300,-9.8857050e-05,-0.042541223,7.5941358e-06,-0.0014698436,0.064841100,0.0081385991,-0.0036846982,12.716545,-0.27112092
0.37925300,0.37925300,0.37925300,0.37925300,0.37925300,0.37925300,0.37925300,0.37925300,0.37925300,-0.00010032579,-0.042470144,1.5604990e-05,-0.0014691041,0.077377956,0.0078792012,-0.00073523190,12.596752,-0.26330559
0.38025300,0.38025300,0.38025300,0.38025300,0.38025300,0.38025300,0.38025300,0.38025300,0.38025300,-0.00010178932,-0.042386526,2.3368157e-05,-0.0014609334,0.089887046,0.0076393234,0.0052020686,12.538311,-0.24768706
0.38125300,0.38125300,0.38125300,0.38125300,0.38125300,0.38125300,0.38125300,0.38125300,0.38125300,-0.00010324831,-0.042290365,3.0857422e-05,-0.0014567230,0.10243328,0.0073523141,0.0045410027,12.543592,-0.27390187
0.38225300,0.38225300,0.38225300,0.38225300,0.38225300,0.38225300,0.38225300,0.38225300,0.38225300,-0.00010469764,-0.042181538,3.8080842e-05,-0.0014444928,0.11515886,0.0070904975,0.0096671188,12.664917,-0.26584503
0.38325300,0.38325300,0.38325300,0.38325300,0.38325300,0.38325300,0.38325300,0.38325300,0.38325300,-0.00010613353,-0.042059740,4.5084649e-05,-0.0014291652,0.12828360,0.0068940002,0.013440760,12.971465,-0.21961321
0.38425300,0.38425300,0.38425300,0.38425300,0.38425300,0.38425300,0.38425300,0.38425300,0.38425300,-0.00010755492,-0.041924552,5.1918648e-05,-0.0014141518,0.14188370,0.0067490961,0.014489154,13.390555,-0.16980714
0.38525300,0.38525300,0.38525300,0.38525300,0.38525300,0.38525300,0.38525300,0.38525300,0.38525300,-0.00010895842,-0.041775479,5.8625457e-05,-0.0013945490,0.15601573,0.0066432133,0.017898310,13.884875,-0.12719093
0.38625300,0.38625300,0.38625300,0.38625300,0.38625300,0.38625300,0.38625300,0.38625300,0.38625300,-0.00011033704,-0.041612077,6.5288727e-05,-0.0013661787,0.17056606,0.0066415002,0.024879604,14.328511,-0.043539016
0.38725300,0.38725300,0.38725300,0.38725300,0.38725300,0.38725300,0.38725300,0.38725300,0.38725300,-0.00011169132,-0.041433939,7.1978735e-05,-0.0013421093,0.18550502,0.0067033775,0.024339466,14.735475,0.026738508
0.38825300,0.38825300,0.38825300,0.38825300,0.38825300,0.38825300,0.38825300,0.38825300,0.38825300,-0.00011302958,-0.041240611,7.8725279e-05,-0.0013302507,0.20092369,0.0067748117,0.016018870,15.190938,0.056535635
0.38925300,0.38925300,0.38925300,0.38925300,0.38925300,0.38925300,0.38925300,0.38925300,0.38925300,-0.00011435846,-0.041031615,8.5475542e-05,-0.0013241954,0.21683050,0.0067521233,0.0093765186,15.668186,0.0037196283
0.39025300,0.39025300,0.39025300,0.39025300,0.39025300,0.39025300,0.39025300,0.39025300,0.39025300,-0.00011568114,-0.040806485,9.2135717e-05,-0.0013195697,0.23319722,0.0066151298,0.0062092884,16.133879,-0.090089108
0.39125300,0.39125300,0.39125300,0.39125300,0.39125300,0.39125300,0.39125300,0.39125300,0.39125300,-0.00011699433,-0.040564787,9.8589853e-05,-0.0013084563,0.24998154,0.0063511166,0.0094787422,16.567505,-0.20603852
0.39225300,0.39225300,0.39225300,0.39225300,0.39225300,0.39225300,0.39225300,0.39225300,0.39225300,-0.00011829280,-0.040306133,0.00010482405,-0.0012911033,0.26713230,0.0061242227,0.014728199,16.956339,-0.21994211
0.39325300,0.39325300,0.39325300,0.39325300,0.39325300,0.39325300,0.39325300,0.39325300,0.39325300,-0.00011957302,-0.040029905,0.00011081413,-0.0012710975,0.28501449,0.0058680333,0.018246634,17.573576,-0.24410698
0.39425300,0.39425300,0.39425300,0.39425300,0.39425300,0.39425300,0.39425300,0.39425300,0.39425300,-0.00012083288,-0.039735596,0.00011655770,-0.0012496839,0.30334924,0.0056203063,0.020357912,18.081027,-0.24652033
0.39525300,0.39525300,0.39525300,0.39525300,0.39525300,0.39525300,0.39525300,0.39525300,0.39525300,-0.00012207372,-0.039422673,0.00012209760,-0.0012313203,0.32223081,0.0054380686,0.019028390,18.614720,-0.20366522
0.39625300,0.39625300,0.39625300,0.39625300,0.39625300,0.39625300,0.39625300,0.39625300,0.39625300,-0.00012329187,-0.039090759,0.00012749487,-0.0012068121,0.34140852,0.0053259601,0.022681592,18.990046,-0.14262743
0.39725300,0.39725300,0.39725300,0.39725300,0.39725300,0.39725300,0.39725300,0.39725300,0.39725300,-0.00012448420,-0.038739783,0.00013278440,-0.0011794147,0.36050707,0.0052356443,0.025825448,19.062384,-0.10775303
0.39825300,0.39825300,0.39825300,0.39825300,0.39825300,0.39825300,0.39825300,0.39825300,0.39825300,-0.00012564561,-0.038369927,0.00013798969,-0.0011459490,0.37929592,0.0051631759,0.030918952,18.880025,-0.084229946
0.39925300,0.39925300,0.39925300,0.39925300,0.39925300,0.39925300,0.39925300,0.39925300,0.39925300,-0.00012677281,-0.037981670,0.00014311503,-0.0011100957,0.39745879,0.0050853679,0.034208544,18.401922,-0.079948661
0.40025300,0.40025300,0.40025300,0.40025300,0.40025300,0.40025300,0.40025300,0.40025300,0.40025300,-0.00012786402,-0.037575679,0.00014817524,-0.0010732136,0.41485712,0.0050276526,0.035990877,17.732864,-0.065126396
0.40125300,0.40125300,0.40125300,0.40125300,0.40125300,0.40125300,0.40125300,0.40125300,0.40125300,-0.00012891754,-0.037152711,0.00015316118,-0.0010346814,0.43145728,0.0049487933,0.037685110,16.977724,-0.074281658
0.40225300,0.40225300,0.40225300,0.40225300,0.40225300,0.40225300,0.40225300,0.40225300,0.40225300,-0.00012993361,-0.036713569,0.00015806985,-0.00099734605,0.44722800,0.0048700476,0.037451943,16.173057,-0.077257697
0.40325300,0.40325300,0.40325300,0.40325300,0.40325300,0.40325300,0.40325300,0.40325300,0.40325300,-0.00013091213,-0.036259252,0.00016293001,-0.00095974029,0.46190429,0.0048359018,0.037554487,15.175212,-0.048516419
0.40425300,0.40425300,0.40425300,0.40425300,0.40425300,0.40425300,0.40425300,0.40425300,0.40425300,-0.00013185680,-0.035790682,0.00016775988,-0.00092775362,0.47569718,0.0048147182,0.033842612,14.253666,-0.030294545
0.40525300,0.40525300,0.40525300,0.40525300,0.40525300,0.40525300,0.40525300,0.40525300,0.40525300,-0.00013276799,-0.035308769,0.00017256459,-0.00089443737,0.48858372,0.0047921270,0.033491702,13.342248,-0.025158996
0.40625300,0.40625300,0.40625300,0.40625300,0.40625300,0.40625300,0.40625300,0.40625300,0.40625300,-0.00013364729,-0.034814382,0.00017735089,-0.00086335569,0.50062484,0.0047770987,0.031885021,12.474826,-0.018405208
0.40725300,0.40725300,0.40725300,0.40725300,0.40725300,0.40725300,0.40725300,0.40725300,0.40725300,-0.00013449553,-0.034308287,0.00018211817,-0.00083272028,0.51194820,0.0047577716,0.031051949,11.707186,-0.019019800
0.40825300,0.40825300,0.40825300,0.40825300,0.40825300,0.40825300,0.40825300,0.40825300,0.40825300,-0.00013531212,-0.033791280,0.00018685382,-0.00080076300,0.52246363,0.0047198389,0.031655504,10.912676,-0.031628341
0.40925300,0.40925300,0.40925300,0.40925300,0.40925300,0.40925300,0.40925300,0.40925300,0.40925300,-0.00013609613,-0.033264180,0.00019155649,-0.00076771643,0.53214708,0.0046861708,0.032582878,10.093196,-0.032988242
0.41025300,0.41025300,0.41025300,0.41025300,0.41025300,0.41025300,0.41025300,0.41025300,0.41025300,-0.00013684797,-0.032727864,0.00019622501,-0.00073575685,0.54092304,0.0046514532,0.032167346,9.2150344,-0.034141149
