W-Moorer/sdf-nsc/assets/rev_joint_clearance/data/body2.csv
X:Pos_TX-Body2-rev_clearance_joint(m),X:Pos_TY-Body2-rev_clearance_joint(m),X:Pos_TZ-Body2-rev_clearance_joint(m),X:Vel_TX-Body2-rev_clearance_joint(m/s),X:Vel_TY-Body2-rev_clearance_joint(m/s),X:Vel_TZ-Body2-rev_clearance_joint(m/s),X:Acc_TX-Body2-rev_clearance_joint(m/s^2),X:Acc_TY-Body2-rev_clearance_joint(m/s^2),X:Acc_TZ-Body2-rev_clearance_joint(m/s^2),Y:Pos_TX-Body2-rev_clearance_joint(m),Y:Pos_TY-Body2-rev_clearance_joint(m),Y:Pos_TZ-Body2-rev_clearance_joint(m),Y:Vel_TX-Body2-rev_clearance_joint(m/s),Y:Vel_TY-Body2-rev_clearance_joint(m/s),Y:Vel_TZ-Body2-rev_clearance_joint(m/s),Y:Acc_TX-Body2-rev_clearance_joint(m/s^2),Y:Acc_TY-Body2-rev_clearance_joint(m/s^2),Y:Acc_TZ-Body2-rev_clearance_joint(m/s^2)
0.0000000,0.0000000,0.0000000,0.0000000,0.0000000,0.0000000,0.0000000,0.0000000,0.0000000,1.6438863e-06,8.3558826e-05,2.6598360,0.0000000,0.0000000,0.0000000,7.6375600e-28,-9.8066500,-2.9015678e-32
0.00010100000,0.00010100000,0.00010100000,0.00010100000,0.00010100000,0.00010100000,0.00010100000,0.00010100000,0.00010100000,1.6438863e-06,8.3508807e-05,2.6598360,3.8303861e-34,-0.00099047165,-5.3448077e-38,4.5249980e-38,-9.8066500,-4.4366512e-38
0.00021300000,0.00021300000,0.00021300000,0.00021300000,0.00021300000,0.00021300000,0.00021300000,0.00021300000,0.00021300000,1.6438863e-06,8.3336367e-05,2.6598360,3.8303861e-34,-0.0020888165,-5.3448691e-38,5.5711276e-40,-9.8066500,-7.2201124e-40
0.00030900000,0.00030900000,0.00030900000,0.00030900000,0.00030900000,0.00030900000,0.00030900000,0.00030900000,0.00030900000,1.6438863e-06,8.3090651e-05,2.6598360,3.8303861e-34,-0.0030302549,-5.3448709e-38,5.8437577e-41,-9.8066500,-7.6378772e-41
0.00040500000,0.00040500000,0.00040500000,0.00040500000,0.00040500000,0.00040500000,0.00040500000,0.00040500000,0.00040500000,1.6438863e-06,8.2754558e-05,2.6598360,3.8303861e-34,-0.0039716933,-5.3448711e-38,1.3057881e-41,-9.8066500,-1.7080965e-41
0.00050100000,0.00050100000,0.00050100000,0.00050100000,0.00050100000,0.00050100000,0.00050100000,0.00050100000,0.00050100000,1.6438863e-06,8.2328086e-05,2.6598360,3.8303861e-34,-0.0049131317,-5.3448712e-38,4.2461722e-42,-9.8066500,-5.5544615e-42
0.00062900000,0.00062900000,0.00062900000,0.00062900000,0.00062900000,0.00062900000,0.00062900000,0.00062900000,0.00062900000,1.6438863e-06,8.1618869e-05,2.6598360,3.8303861e-34,-0.0061683829,-5.3448712e-38,9.4972180e-43,-9.8066500,-1.2421557e-42
0.00075700000,0.00075700000,0.00075700000,0.00075700000,0.00075700000,0.00075700000,0.00075700000,0.00075700000,0.00075700000,1.6438863e-06,8.0748980e-05,2.6598360,3.8303861e-34,-0.0074236341,-5.3448712e-38,3.0890212e-43,-9.8066500,-4.0378470e-43
0.00082100000,0.00082100000,0.00082100000,0.00082100000,0.00082100000,0.00082100000,0.00082100000,0.00082100000,0.00082100000,1.6438863e-06,8.0253784e-05,2.6598360,3.8303861e-34,-0.0080512597,-5.3448712e-38,2.1243721e-43,-9.8066500,-2.7757591e-43
0.00094900000,0.00094900000,0.00094900000,0.00094900000,0.00094900000,0.00094900000,0.00094900000,0.00094900000,0.00094900000,1.6438863e-06,7.9142886e-05,2.6598360,3.8303861e-34,-0.0093065109,-5.3448712e-38,1.0047534e-43,-9.8066500,-1.3119111e-43
0.0010130000,0.0010130000,0.0010130000,0.0010130000,0.0010130000,0.0010130000,0.0010130000,0.0010130000,0.0010130000,1.6438863e-06,7.8527186e-05,2.6598360,3.8303861e-34,-0.0099341365,-5.3448712e-38,6.9095775e-44,-9.8066500,-9.0195523e-44
0.0011410000,0.0011410000,0.0011410000,0.0011410000,0.0011410000,0.0011410000,0.0011410000,0.0011410000,0.0011410000,1.6438863e-06,7.7175280e-05,2.6598360,3.8303861e-34,-0.011189388,-5.3448712e-38,3.2679406e-44,-9.8066500,-4.2635238e-44
0.0012050000,0.0012050000,0.0012050000,0.0012050000,0.0012050000,0.0012050000,0.0012050000,0.0012050000,0.0012050000,1.6438863e-06,7.6439075e-05,2.6598360,3.8303861e-34,-0.011817013,-5.3448712e-38,2.2476261e-44,-9.8066500,-2.9313518e-44
0.0013330000,0.0013330000,0.0013330000,0.0013330000,0.0013330000,0.0013330000,0.0013330000,0.0013330000,0.0013330000,1.6438863e-06,7.4846161e-05,2.6598360,3.8303861e-34,-0.013072264,-5.3448712e-38,1.0625348e-44,-9.8066500,-1.3857187e-44
0.0015250000,0.0015250000,0.0015250000,0.0015250000,0.0015250000,0.0015250000,0.0015250000,0.0015250000,0.0015250000,1.6438863e-06,7.2155530e-05,2.6598360,3.8303861e-34,-0.014955141,-5.3448712e-38,5.0250306e-45,-9.8066500,-6.5395080e-45
0.0016530000,0.0016530000,0.0016530000,0.0016530000,0.0016530000,0.0016530000,0.0016530000,0.0016530000,0.0016530000,1.6438863e-06,7.0160936e-05,2.6598360,3.8303861e-34,-0.016210392,-5.3448712e-38,3.4561186e-45,-9.8066500,-4.4898108e-45
0.0017810000,0.0017810000,0.0017810000,0.0017810000,0.0017810000,0.0017810000,0.0017810000,0.0017810000,0.0017810000,1.6438863e-06,6.8005670e-05,2.6598360,3.8303861e-34,-0.017465644,-5.3448712e-38,2.3737095e-45,-9.8066500,-3.0831733e-45
0.0019090000,0.0019090000,0.0019090000,0.0019090000,0.0019090000,0.0019090000,0.0019090000,0.0019090000,0.0019090000,1.6438863e-06,6.5689732e-05,2.6598360,3.8303861e-34,-0.018720895,-5.3448712e-38,1.6373526e-45,-9.8066500,-2.1175396e-45
0.0020370000,0.0020370000,0.0020370000,0.0020370000,0.0020370000,0.0020370000,0.0020370000,0.0020370000,0.0020370000,1.6438863e-06,6.3213121e-05,2.6598360,3.8303861e-34,-0.019976146,-5.3448712e-38,1.1259029e-45,-9.8066500,-1.4544857e-45
0.0021650000,0.0021650000,0.0021650000,0.0021650000,0.0021650000,0.0021650000,0.0021650000,0.0021650000,0.0021650000,1.6438863e-06,6.0575838e-05,2.6598360,3.8303861e-34,-0.021231397,-5.3448712e-38,7.7412672e-46,-9.8066500,-9.9913101e-46
0.0022930000,0.0022930000,0.0022930000,0.0022930000,0.0022930000,0.0022930000,0.0022930000,0.0022930000,0.0022930000,1.6438863e-06,5.7777883e-05,2.6598360,3.8303861e-34,-0.022486648,-5.3448712e-38,5.3947620e-46,-9.8066500,-6.8637027e-46
0.0024210000,0.0024210000,0.0024210000,0.0024210000,0.0024210000,0.0024210000,0.0024210000,0.0024210000,0.0024210000,1.6438863e-06,5.4819256e-05,2.6598360,3.8303861e-34,-0.023741900,-5.3448712e-38,3.6911848e-46,-9.8066500,-4.7152861e-46
0.0025490000,0.0025490000,0.0025490000,0.0025490000,0.0025490000,0.0025490000,0.0025490000,0.0025490000,0.0025490000,1.6438863e-06,5.1699957e-05,2.6598360,3.8303861e-34,-0.024997151,-5.3448712e-38,2.4713794e-46,-9.8066500,-3.2394276e-46
0.0026770000,0.0026770000,0.0026770000,0.0026770000,0.0026770000,0.0026770000,0.0026770000,0.0026770000,0.0026770000,1.6438863e-06,4.8419986e-05,2.6598360,3.8303861e-34,-0.026252402,-5.3448712e-38,1.6751560e-46,-9.8066500,-2.2256383e-46
0.0028050000,0.0028050000,0.0028050000,0.0028050000,0.0028050000,0.0028050000,0.0028050000,0.0028050000,0.0028050000,1.6438863e-06,4.4979342e-05,2.6598360,3.8303861e-34,-0.027507653,-5.3448712e-38,1.1354023e-46,-9.8066500,-1.5291142e-46
0.0030610000,0.0030610000,0.0030610000,0.0030610000,0.0030610000,0.0030610000,0.0030610000,0.0030610000,0.0030610000,1.6438863e-06,3.7616038e-05,2.6598360,3.8303861e-34,-0.030018156,-5.3448712e-38,8.5024338e-47,-9.8066500,-1.0432620e-46
0.0033170000,0.0033170000,0.0033170000,0.0033170000,0.0033170000,0.0033170000,0.0033170000,0.0033170000,0.0033170000,1.6438863e-06,2.9610046e-05,2.6598360,3.8303861e-34,-0.032528658,-5.3448712e-38,6.4253299e-47,-9.8066500,-7.1254820e-47
0.0035730000,0.0035730000,0.0035730000,0.0035730000,0.0035730000,0.0035730000,0.0035730000,0.0035730000,0.0035730000,1.6438863e-06,2.0961366e-05,2.6598360,3.8303861e-34,-0.035039160,-5.3448712e-38,5.7328443e-47,-9.8066500,-4.8704638e-47
0.0038290000,0.0038290000,0.0038290000,0.0038290000,0.0038290000,0.0038290000,0.0038290000,0.0038290000,0.0038290000,1.6438863e-06,1.1669996e-05,2.6598360,3.8303861e-34,-0.037549663,-5.3448712e-38,1.8171569e-47,-9.8066500,-3.3307615e-47
0.0040850000,0.0040850000,0.0040850000,0.0040850000,0.0040850000,0.0040850000,0.0040850000,0.0040850000,0.0040850000,1.6438863e-06,1.7359382e-06,2.6598360,3.8303861e-34,-0.040060165,-5.3448712e-38,9.5250001e-48,-9.8066500,-2.2781232e-47
0.0043410000,0.0043410000,0.0043410000,0.0043410000,0.0043410000,0.0043410000,0.0043410000,0.0043410000,0.0043410000,1.6438863e-06,-8.8408084e-06,2.6598360,3.8303861e-34,-0.042570668,-5.3448712e-38,1.3796067e-47,-9.8066500,-1.5590331e-47
0.0045970000,0.0045970000,0.0045970000,0.0045970000,0.0045970000,0.0045970000,0.0045970000,0.0045970000,0.0045970000,1.6438863e-06,-2.0060244e-05,2.6598360,3.8303861e-34,-0.045081170,-5.3448712e-38,1.1861173e-47,-9.8066500,-1.0667617e-47
0.0048530000,0.0048530000,0.0048530000,0.0048530000,0.0048530000,0.0048530000,0.0048530000,0.0048530000,0.0048530000,1.6438863e-06,-3.1922368e-05,2.6598360,3.8303861e-34,-0.047591672,-5.3448712e-38,1.0141735e-47,-9.8066500,-7.3054757e-48
0.0051090000,0.0051090000,0.0051090000,0.0051090000,0.0051090000,0.0051090000,0.0051090000,0.0051090000,0.0051090000,1.6438863e-06,-4.4427180e-05,2.6598360,3.8303861e-34,-0.050102175,-5.3448712e-38,-3.9568270e-48,-9.8066500,-5.0075695e-48
0.0053650000,0.0053650000,0.0053650000,0.0053650000,0.0053650000,0.0053650000,0.0053650000,0.0053650000,0.0053650000,1.6438863e-06,-5.7574681e-05,2.6598360,3.8303861e-34,-0.052612677,-5.3448712e-38,4.7219696e-48,-9.8066500,-3.4375663e-48
0.0056210000,0.0056210000,0.0056210000,0.0056210000,0.0056210000,0.0056210000,0.0056210000,0.0056210000,0.0056210000,1.6438863e-06,-7.1364871e-05,2.6598360,3.8303861e-34,-0.055123180,-5.3448712e-38,1.3007383e-47,-9.8066500,-2.3424422e-48
0.0061330000,0.0061330000,0.0061330000,0.0061330000,0.0061330000,0.0061330000,0.0061330000,0.0061330000,0.0061330000,1.6438863e-06,-0.00010087332,2.6598360,3.8303861e-34,-0.060144184,-5.3448712e-38,4.3701002e-48,-9.8066500,-1.5608888e-48
0.0066450000,0.0066450000,0.0066450000,0.0066450000,0.0066450000,0.0066450000,0.0066450000,0.0066450000,0.0066450000,1.6438863e-06,-0.00013295252,2.6598360,3.8303861e-34,-0.065165189,-5.3448712e-38,-6.1728078e-48,-9.8066500,-1.0424349e-48
0.0071570000,0.0071570000,0.0071570000,0.0071570000,0.0071570000,0.0071570000,0.0071570000,0.0071570000,0.0071570000,1.6438863e-06,-0.00016760247,2.6598360,3.8303861e-34,-0.070186194,-5.3448712e-38,2.3514507e-48,-9.8066500,-6.9222106e-49
0.0076690000,0.0076690000,0.0076690000,0.0076690000,0.0076690000,0.0076690000,0.0076690000,0.0076690000,0.0076690000,1.6438863e-06,-0.00020482318,2.6598360,3.8303861e-34,-0.075207199,-5.3448712e-38,-2.0832437e-47,-9.8066500,-4.7207865e-49
0.0081810000,0.0081810000,0.0081810000,0.0081810000,0.0081810000,0.0081810000,0.0081810000,0.0081810000,0.0081810000,1.6438863e-06,-0.00024461464,2.6598360,3.8303861e-34,-0.080228204,-5.3448712e-38,3.3454993e-49,-9.8066500,-3.1265442e-49
0.0086930000,0.0086930000,0.0086930000,0.0086930000,0.0086930000,0.0086930000,0.0086930000,0.0086930000,0.0086930000,1.6438863e-06,-0.00028697686,2.6598360,3.8303861e-34,-0.085249208,-5.3448712e-38,2.6288191e-47,-9.8066500,-2.0969501e-49
0.0092050000,0.0092050000,0.0092050000,0.0092050000,0.0092050000,0.0092050000,0.0092050000,0.0092050000,0.0092050000,1.6438863e-06,-0.00033190983,2.6598360,3.8303861e-34,-0.090270213,-5.3448712e-38,5.3663831e-48,-9.8066500,-1.2418159e-49
0.0097170000,0.0097170000,0.0097170000,0.0097170000,0.0097170000,0.0097170000,0.0097170000,0.0097170000,0.0097170000,1.6438863e-06,-0.00037941356,2.6598360,3.8303861e-34,-0.095291218,-5.3448712e-38,4.5995671e-48,-9.8066500,-9.7444489e-50
0.010229000,0.010229000,0.010229000,0.010229000,0.010229000,0.010229000,0.010229000,0.010229000,0.010229000,1.6438863e-06,-0.00042948804,2.6598360,3.8303861e-34,-0.10031222,-5.3448712e-38,-3.8366150e-47,-9.8066500,-6.7691315e-50
0.010741000,0.010741000,0.010741000,0.010741000,0.010741000,0.010741000,0.010741000,0.010741000,0.010741000,1.6438863e-06,-0.00048213327,2.6598360,3.8303861e-34,-0.10533323,-5.3448712e-38,-1.7216886e-47,-9.8066500,-6.1258270e-50
0.011253000,0.011253000,0.011253000,0.011253000,0.011253000,0.011253000,0.011253000,0.011253000,0.011253000,1.6438863e-06,-0.00053734926,2.6598360,3.8303861e-34,-0.11035423,-5.3448712e-38,5.5173409e-48,-9.8066500,-2.0747905e-50
0.012253000,0.012253000,0.012253000,0.012253000,0.012253000,0.012253000,0.012253000,0.012253000,0.012253000,1.6438863e-06,-0.00065260682,2.6598360,3.8303861e-34,-0.12016088,-5.3448712e-38,-1.1887734e-47,-9.8066500,-7.5954359e-51
0.013253000,0.013253000,0.013253000,0.013253000,0.013253000,0.013253000,0.013253000,0.013253000,0.013253000,1.6438863e-06,-0.00077767103,2.6598360,3.8303861e-34,-0.12996753,-5.3448712e-38,-1.6751625e-47,-9.8066500,-9.2363350e-51
0.014253000,0.014253000,0.014253000,0.014253000,0.014253000,0.014253000,0.014253000,0.014253000,0.014253000,1.6438863e-06,-0.00091254189,2.6598360,3.8303861e-34,-0.13977418,-5.3448712e-38,9.8144755e-48,-9.8066500,-3.0173177e-51
0.015253000,0.015253000,0.015253000,0.015253000,0.015253000,0.015253000,0.015253000,0.015253000,0.015253000,1.6438863e-06,-0.0010572194,2.6598360,3.8303861e-34,-0.14958083,-5.3448712e-38,-4.0556914e-47,-9.8066500,1.1956757e-50
0.016253000,0.016253000,0.016253000,0.016253000,0.016253000,0.016253000,0.016253000,0.016253000,0.016253000,1.6438863e-06,-0.0012117036,2.6598360,3.8303861e-34,-0.15938748,-5.3448712e-38,8.6212757e-48,-9.8066500,-6.4859817e-51
0.017253000,0.017253000,0.017253000,0.017253000,0.017253000,0.017253000,0.017253000,0.017253000,0.017253000,1.6438863e-06,-0.0013759944,2.6598360,3.8303861e-34,-0.16919413,-5.3448712e-38,4.1379435e-47,-9.8066500,-2.5837493e-50
0.018253000,0.018253000,0.018253000,0.018253000,0.018253000,0.018253000,0.018253000,0.018253000,0.018253000,1.6438863e-06,-0.0015500918,2.6598360,3.8303861e-34,-0.17900078,-5.3448712e-38,4.5034242e-47,-9.8066500,-2.4447970e-50
0.019253000,0.019253000,0.019253000,0.019253000,0.019253000,0.019253000,0.019253000,0.019253000,0.019253000,1.6438863e-06,-0.0017339959,2.6598360,3.8303861e-34,-0.18880743,-5.3448712e-38,-2.9089693e-47,-9.8066500,-2.3499147e-50
0.020253000,0.020253000,0.020253000,0.020253000,0.020253000,0.020253000,0.020253000,0.020253000,0.020253000,1.6438863e-06,-0.0019277067,2.6598360,3.8303861e-34,-0.19861408,-5.3448712e-38,-2.9159478e-47,-9.8066500,-2.2840837e-50
0.021253000,0.021253000,0.021253000,0.021253000,0.021253000,0.021253000,0.021253000,0.021253000,0.021253000,1.6438863e-06,-0.0021312241,2.6598360,3.8303861e-34,-0.20842073,-5.3448712e-38,-2.2451268e-47,-9.8066500,-4.3774404e-50
0.022253000,0.022253000,0.022253000,0.022253000,0.022253000,0.022253000,0.022253000,0.022253000,0.022253000,1.6438863e-06,-0.0023445481,2.6598360,3.8303861e-34,-0.21822738,-5.3448712e-38,-1.0956808e-46,-9.8066500,-4.3463362e-50
0.023253000,0.023253000,0.023253000,0.023253000,0.023253000,0.023253000,0.023253000,0.023253000,0.023253000,1.6438863e-06,-0.0025676789,2.6598360,3.8303861e-34,-0.22803403,-5.3448712e-38,-1.0951835e-46,-9.8066500,-4.3249285e-50
0.024253000,0.024253000,0.024253000,0.024253000,0.024253000,0.024253000,0.024253000,0.024253000,0.024253000,1.6438863e-06,-0.0028006162,2.6598360,3.8303861e-34,-0.23784068,-5.3448712e-38,-4.7678246e-47,-9.8066500,-2.1731098e-50
0.025253000,0.025253000,0.025253000,0.025253000,0.025253000,0.025253000,0.025253000,0.025253000,0.025253000,1.6438863e-06,-0.0030433602,2.6598360,3.8303861e-34,-0.24764733,-5.3448712e-38,5.5704578e-48,-9.8066500,-2.1635680e-50
0.026253000,0.026253000,0.026253000,0.026253000,0.026253000,0.026253000,0.026253000,0.026253000,0.026253000,1.6438863e-06,-0.0032959109,2.6598360,3.8303861e-34,-0.25745398,-5.3448712e-38,-3.6469851e-48,-9.8066500,-1.7819586e-52
0.027253000,0.027253000,0.027253000,0.027253000,0.027253000,0.027253000,0.027253000,0.027253000,0.027253000,1.6438863e-06,-0.0035582682,2.6598360,3.8303861e-34,-0.26726063,-5.3448712e-38,-6.6739217e-47,-9.8066500,-1.1833775e-52
0.028253000,0.028253000,0.028253000,0.028253000,0.028253000,0.028253000,0.028253000,0.028253000,0.028253000,1.6438863e-06,-0.0038304321,2.6598360,3.8303861e-34,-0.27706728,-5.3448712e-38,-6.6231650e-47,-9.8066500,-2.1467845e-50
0.029253000,0.029253000,0.029253000,0.029253000,0.029253000,0.029253000,0.029253000,0.029253000,0.029253000,1.6438863e-06,-0.0041124027,2.6598360,3.8303861e-34,-0.28687393,-5.3448712e-38,8.0225624e-48,-9.8066500,-4.2819060e-50
0.030253000,0.030253000,0.030253000,0.030253000,0.030253000,0.030253000,0.030253000,0.030253000,0.030253000,1.6438863e-06,-0.0044041800,2.6598360,3.8303861e-34,-0.29668058,-5.3448712e-38,-6.9521333e-47,-9.8066500,4.2718764e-50
0.031253000,0.031253000,0.031253000,0.031253000,0.031253000,0.031253000,0.031253000,0.031253000,0.031253000,1.6438863e-06,-0.0047057639,2.6598360,3.8303861e-34,-0.30648723,-5.3448712e-38,9.4634990e-48,-9.8066500,-4.2793667e-50
0.032253000,0.032253000,0.032253000,0.032253000,0.032253000,0.032253000,0.032253000,0.032253000,0.032253000,1.6438863e-06,-0.0050171545,2.6598360,3.8303861e-34,-0.31629388,-5.3448712e-38,1.9202157e-47,-9.8066500,4.2736134e-50
0.033253000,0.033253000,0.033253000,0.033253000,0.033253000,0.033253000,0.033253000,0.033253000,0.033253000,1.6438863e-06,-0.0053383517,2.6598360,3.8303861e-34,-0.32610053,-5.3448712e-38,-6.6703629e-47,-9.8066500,-4.2788311e-50
0.034253000,0.034253000,0.034253000,0.034253000,0.034253000,0.034253000,0.034253000,0.034253000,0.034253000,1.6438863e-06,-0.0056693555,2.6598360,3.8303861e-34,-0.33590718,-5.3448712e-38,1.2790594e-47,-9.8066500,-1.5576461e-53
0.035253000,0.035253000,0.035253000,0.035253000,0.035253000,0.035253000,0.035253000,0.035253000,0.035253000,1.6438863e-06,-0.0060101660,2.6598360,3.8303861e-34,-0.34571383,-5.3448712e-38,9.2820213e-47,-9.8066500,-8.5020247e-54
0.036253000,0.036253000,0.036253000,0.036253000,0.036253000,0.036253000,0.036253000,0.036253000,0.036253000,1.6438863e-06,-0.0063607832,2.6598360,3.8303861e-34,-0.35552048,-5.3448712e-38,3.1231721e-47,-9.8066500,-2.2962892e-53
0.037253000,0.037253000,0.037253000,0.037253000,0.037253000,0.037253000,0.037253000,0.037253000,0.037253000,1.6438863e-06,-0.0067212070,2.6598360,3.8303861e-34,-0.36532713,-5.3448712e-38,3.0608897e-47,-9.8066500,-2.1433925e-53
0.038253000,0.038253000,0.038253000,0.038253000,0.038253000,0.038253000,0.038253000,0.038253000,0.038253000,1.6438863e-06,-0.0070914375,2.6598360,3.8303861e-34,-0.37513378,-5.3448712e-38,-7.4969601e-47,-9.8066500,-4.2773739e-50
0.039253000,0.039253000,0.039253000,0.039253000,0.039253000,0.039253000,0.039253000,0.039253000,0.039253000,1.6438863e-06,-0.0074714746,2.6598360,3.8303861e-34,-0.38494043,-5.3448712e-38,6.6085630e-48,-9.8066500,4.2758985e-50
0.040253000,0.040253000,0.040253000,0.040253000,0.040253000,0.040253000,0.040253000,0.040253000,0.040253000,1.6438863e-06,-0.0078613183,2.6598360,3.8303861e-34,-0.39474708,-5.3448712e-38,7.7188163e-47,-9.8066500,-4.2758588e-50
0.041253000,0.041253000,0.041253000,0.041253000,0.041253000,0.041253000,0.041253000,0.041253000,0.041253000,1.6438863e-06,-0.0082609687,2.6598360,3.8303861e-34,-0.40455373,-5.3448712e-38,8.7971868e-48,-9.8066500,4.2758235e-50
0.042253000,0.042253000,0.042253000,0.042253000,0.042253000,0.042253000,0.042253000,0.042253000,0.042253000,1.6438863e-06,-0.0086704258,2.6598360,3.8303861e-34,-0.41436038,-5.3448712e-38,4.6098022e-48,-9.8066500,-3.2298642e-54
0.043253000,0.043253000,0.043253000,0.043253000,0.043253000,0.043253000,0.043253000,0.043253000,0.043253000,1.6438863e-06,-0.0090896895,2.6598360,3.8303861e-34,-0.42416703,-5.3448712e-38,-5.6679169e-47,-9.8066500,-1.9401243e-53
0.044253000,0.044253000,0.044253000,0.044253000,0.044253000,0.044253000,0.044253000,0.044253000,0.044253000,1.6450658e-06,-0.0095186873,2.6598360,1.7692436e-06,-0.43386482,9.9362350e-06,0.0011794947,-9.7340779,0.0066241504
0.045253000,0.045253000,0.045253000,0.045253000,0.045253000,0.045253000,0.045253000,0.045253000,0.045253000,1.6474363e-06,-0.0099573814,2.6598360,2.9659390e-06,-0.44354234,2.0057005e-05,0.0011909613,-9.6963689,0.0089552061
0.046253000,0.046253000,0.046253000,0.046253000,0.046253000,0.046253000,0.046253000,0.046253000,0.046253000,1.6496401e-06,-0.010405744,2.6598360,2.1204731e-06,-0.45319718,2.0400636e-05,-0.00016665542,-9.6686860,0.0032141074
0.047253000,0.047253000,0.047253000,0.047253000,0.047253000,0.047253000,0.047253000,0.047253000,0.047253000,1.6518437e-06,-0.010863760,2.6598360,2.2035331e-06,-0.46284250,2.4195831e-05,-1.7373359e-07,-9.6531053,0.0036014132
0.048253000,0.048253000,0.048253000,0.048253000,0.048253000,0.048253000,0.048253000,0.048253000,0.048253000,1.6514661e-06,-0.011331405,2.6598361,-1.6681700e-06,-0.47245990,2.4348767e-05,-0.0025811855,-9.6293037,0.0013022958
0.049253000,0.049253000,0.049253000,0.049253000,0.049253000,0.049253000,0.049253000,0.049253000,0.049253000,1.6508164e-06,-0.011808654,2.6598361,-7.8576663e-07,-0.48205088,3.0732701e-05,-0.00027212827,-9.6037537,0.0046898523
0.050253000,0.050253000,0.050253000,0.050253000,0.050253000,0.050253000,0.050253000,0.050253000,0.050253000,1.6516303e-06,-0.012295474,2.6598361,1.5456390e-06,-0.49160452,3.3778585e-05,0.0014635455,-9.5703461,0.0035935650
0.051253000,0.051253000,0.051253000,0.051253000,0.051253000,0.051253000,0.051253000,0.051253000,0.051253000,1.6546376e-06,-0.012791819,2.6598362,4.1040700e-06,-0.50110880,4.1918261e-05,0.0021934337,-9.5263031,0.0066238443
0.052253000,0.052253000,0.052253000,0.052253000,0.052253000,0.052253000,0.052253000,0.052253000,0.052253000,1.6591445e-06,-0.013297641,2.6598362,5.2566435e-06,-0.51055935,4.3328477e-05,0.0014995213,-9.4757971,0.0031474210
0.053253000,0.053253000,0.053253000,0.053253000,0.053253000,0.053253000,0.053253000,0.053253000,0.053253000,1.6649982e-06,-0.013812878,2.6598363,6.5271849e-06,-0.51994549,3.9284522e-05,0.0013468856,-9.4160287,-0.0016478042
0.054253000,0.054253000,0.054253000,0.054253000,0.054253000,0.054253000,0.054253000,0.054253000,0.054253000,1.6724804e-06,-0.014337468,2.6598363,8.2963262e-06,-0.52926609,4.0391994e-05,0.0016284403,-9.3524082,0.00018766029
0.055253000,0.055253000,0.055253000,0.055253000,0.055253000,0.055253000,0.055253000,0.055253000,0.055253000,1.6793470e-06,-0.014871335,2.6598363,6.5589153e-06,-0.53850541,4.5872108e-05,-0.00061536565,-9.2770183,0.0037140084
0.056253000,0.056253000,0.056253000,0.056253000,0.056253000,0.056253000,0.056253000,0.056253000,0.056253000,1.6706793e-06,-0.015414386,2.6598364,-1.6434886e-05,-0.54764337,5.2381097e-05,-0.015534257,-9.1843092,0.0055745607
0.057253000,0.057253000,0.057253000,0.057253000,0.057253000,0.057253000,0.057253000,0.057253000,0.057253000,1.6572005e-06,-0.015966514,2.6598364,-1.5884359e-05,-0.55666613,5.9147449e-05,-0.0048111973,-9.0766076,0.0063651851
0.058253000,0.058253000,0.058253000,0.058253000,0.058253000,0.058253000,0.058253000,0.058253000,0.058253000,1.6435908e-06,-0.016527621,2.6598365,-1.3674994e-05,-0.56559620,5.7011780e-05,-0.00013071512,-8.9789188,0.00069272759
0.059253000,0.059253000,0.059253000,0.059253000,0.059253000,0.059253000,0.059253000,0.059253000,0.059253000,1.6338383e-06,-0.017097587,2.6598366,-7.8241055e-06,-0.57439603,5.3631975e-05,0.0038567216,-8.8595251,-0.0020293695
0.060253000,0.060253000,0.060253000,0.060253000,0.060253000,0.060253000,0.060253000,0.060253000,0.060253000,1.6325099e-06,-0.017676274,2.6598366,2.8834917e-06,-0.58304682,5.0958370e-05,0.0084233474,-8.7203701,-0.0024683964
0.061253000,0.061253000,0.061253000,0.061253000,0.061253000,0.061253000,0.061253000,0.061253000,0.061253000,1.6380486e-06,-0.018263537,2.6598367,8.9720802e-06,-0.59155104,5.2568266e-05,0.0068668045,-8.5762706,0.00023790518
0.062253000,0.062253000,0.062253000,0.062253000,0.062253000,0.062253000,0.062253000,0.062253000,0.062253000,1.6486482e-06,-0.018859211,2.6598367,1.3130216e-05,-0.59987957,5.2879230e-05,0.0050613654,-8.4111113,0.00027001895
0.063253000,0.063253000,0.063253000,0.063253000,0.063253000,0.063253000,0.063253000,0.063253000,0.063253000,1.6625981e-06,-0.019463142,2.6598368,1.5625219e-05,-0.60805995,5.7775254e-05,0.0033512301,-8.2572911,0.0033327807
0.064253000,0.064253000,0.064253000,0.064253000,0.064253000,0.064253000,0.064253000,0.064253000,0.064253000,1.6781421e-06,-0.020075152,2.6598368,1.6341591e-05,-0.61604887,6.3560701e-05,0.0015959652,-8.0783741,0.0049406497
0.065253000,0.065253000,0.065253000,0.065253000,0.065253000,0.065253000,0.065253000,0.065253000,0.065253000,1.6943190e-06,-0.020695060,2.6598369,1.6494008e-05,-0.62385769,6.5701917e-05,0.00063556309,-7.8986696,0.0030399595
0.066253000,0.066253000,0.066253000,0.066253000,0.066253000,0.066253000,0.066253000,0.066253000,0.066253000,1.7145241e-06,-0.021322661,2.6598370,2.2219473e-05,-0.63144747,6.8937150e-05,0.0040283005,-7.6927466,0.0031266820
0.067253000,0.067253000,0.067253000,0.067253000,0.067253000,0.067253000,0.067253000,0.067253000,0.067253000,1.7402105e-06,-0.021957728,2.6598370,2.8426357e-05,-0.63879892,7.3695713e-05,0.0054783563,-7.4652122,0.0041600293
0.068253000,0.068253000,0.068253000,0.068253000,0.068253000,0.068253000,0.068253000,0.068253000,0.068253000,1.7555103e-06,-0.022600014,2.6598371,1.0105089e-05,-0.64589580,7.9837707e-05,-0.010392023,-7.2196572,0.0054132259
0.069253000,0.069253000,0.069253000,0.069253000,0.069253000,0.069253000,0.069253000,0.069253000,0.069253000,1.7673134e-06,-0.023249244,2.6598372,1.0054436e-05,-0.65270271,8.7312606e-05,-0.0034977777,-6.9444949,0.0067031396
0.070253000,0.070253000,0.070253000,0.070253000,0.070253000,0.070253000,0.070253000,0.070253000,0.070253000,1.7863021e-06,-0.023905222,2.6598373,2.2581918e-05,-0.65935139,9.6091599e-05,0.0071877877,-6.7472844,0.0079863960
0.071253000,0.071253000,0.071253000,0.071253000,0.071253000,0.071253000,0.071253000,0.071253000,0.071253000,1.8209434e-06,-0.024567697,2.6598374,4.2468960e-05,-0.66572449,0.00010476271,0.015658187,-6.4978306,0.0083213005
0.072253000,0.072253000,0.072253000,0.072253000,0.072253000,0.072253000,0.072253000,0.072253000,0.072253000,1.8811207e-06,-0.025236388,2.6598375,7.2947766e-05,-0.67179829,0.00011651637,0.025545252,-6.2151384,0.010462648
0.073253000,0.073253000,0.073253000,0.073253000,0.073253000,0.073253000,0.073253000,0.073253000,0.073253000,1.9508893e-06,-0.025910994,2.6598376,7.4563833e-05,-0.67756398,0.00012730300,0.0095886732,-5.9155087,0.010501808
0.074253000,0.074253000,0.074253000,0.074253000,0.074253000,0.074253000,0.074253000,0.074253000,0.074253000,1.9851037e-06,-0.026591195,2.6598377,1.6434542e-05,-0.68299746,0.00013067022,-0.035565550,-5.5941536,0.0055335016
0.075253000,0.075253000,0.075253000,0.075253000,0.075253000,0.075253000,0.075253000,0.075253000,0.075253000,1.9250644e-06,-0.027276649,2.6598379,-0.00010717071,-0.68808123,0.00014208647,-0.094271344,-5.2539000,0.0092020716
0.076253000,0.076253000,0.076253000,0.076253000,0.076253000,0.076253000,0.076253000,0.076253000,0.076253000,1.8280455e-06,-0.027967016,2.6598380,-0.00011550991,-0.69282293,0.00015441712,-0.036982596,-4.9124342,0.010987622
0.077253000,0.077253000,0.077253000,0.077253000,0.077253000,0.077253000,0.077253000,0.077253000,0.077253000,1.7277526e-06,-0.028661993,2.6598382,-0.00010192791,-0.69728268,0.00016708430,-0.0032644312,-4.6106477,0.011758480
0.078253000,0.078253000,0.078253000,0.078253000,0.078253000,0.078253000,0.078253000,0.078253000,0.078253000,1.6399878e-06,-0.029361241,2.6598384,-8.1495883e-05,-0.70138409,0.00018081169,0.012547961,-4.2711506,0.012663036
0.079253000,0.079253000,0.079253000,0.079253000,0.079253000,0.079253000,0.079253000,0.079253000,0.079253000,1.5715533e-06,-0.030064392,2.6598386,-5.8761506e-05,-0.70510205,0.00019313666,0.019360248,-3.9023586,0.011961968
0.080253000,0.080253000,0.080253000,0.080253000,0.080253000,0.080253000,0.080253000,0.080253000,0.080253000,1.5273645e-06,-0.030771053,2.6598388,-3.2054885e-05,-0.70841567,0.00020783154,0.024286469,-3.5098651,0.013230532
0.081253000,0.081253000,0.081253000,0.081253000,0.081253000,0.081253000,0.081253000,0.081253000,0.081253000,1.5113199e-06,-0.031480817,2.6598390,-1.9720018e-06,-0.71131504,0.00021585331,0.028140193,-3.1028692,0.0091165738
0.082253000,0.082253000,0.082253000,0.082253000,0.082253000,0.082253000,0.082253000,0.082253000,0.082253000,1.5295682e-06,-0.032193368,2.6598392,3.5386447e-05,-0.71394519,0.00023178535,0.034255504,-2.7877210,0.012934459
0.083253000,0.083253000,0.083253000,0.083253000,0.083253000,0.083253000,0.083253000,0.083253000,0.083253000,1.5810898e-06,-0.032908343,2.6598394,6.8142019e-05,-0.71618618,0.00024486414,0.033208085,-2.4232316,0.012202781
0.084253000,0.084253000,0.084253000,0.084253000,0.084253000,0.084253000,0.084253000,0.084253000,0.084253000,1.6080419e-06,-0.033625358,2.6598397,1.4644906e-05,-0.71803512,0.00026055094,-0.024655291,-2.0403718,0.013584518
0.085253000,0.085253000,0.085253000,0.085253000,0.085253000,0.085253000,0.085253000,0.085253000,0.085253000,1.6390410e-06,-0.034344010,2.6598400,3.3014786e-05,-0.71947070,0.00027418227,0.0040242409,-1.6371804,0.012548405
0.086253000,0.086253000,0.086253000,0.086253000,0.086253000,0.086253000,0.086253000,0.086253000,0.086253000,1.6893162e-06,-0.035063880,2.6598402,5.9916110e-05,-0.72047956,0.00028017703,0.019296591,-1.2182990,0.0069737853
0.087253000,0.087253000,0.087253000,0.087253000,0.087253000,0.087253000,0.087253000,0.087253000,0.087253000,1.7686085e-06,-0.035784559,2.6598405,9.3812782e-05,-0.72108393,0.00028221875,0.029071139,-0.80901148,0.0023298681
0.088253000,0.088253000,0.088253000,0.088253000,0.088253000,0.088253000,0.088253000,0.088253000,0.088253000,1.8762718e-06,-0.036505619,2.6598408,0.00012186897,-0.72124963,0.00028168058,0.028453482,-0.38013593,-0.0011052842
0.089253000,0.089253000,0.089253000,0.089253000,0.089253000,0.089253000,0.089253000,0.089253000,0.089253000,2.0107664e-06,-0.037226717,2.6598411,0.00014793827,-0.72111668,0.00027603596,0.026939779,-0.038071414,-0.0058161417
0.090253000,0.090253000,0.090253000,0.090253000,0.090253000,0.090253000,0.090253000,0.090253000,0.090253000,2.1735486e-06,-0.037947462,2.6598414,0.00017696307,-0.72056890,0.00028238295,0.028425176,0.35249592,0.00042266708
0.091253000,0.091253000,0.091253000,0.091253000,0.091253000,0.091253000,0.091253000,0.091253000,0.091253000,2.2584272e-06,-0.038667443,2.6598416,4.5931346e-05,-0.71959857,0.00028160839,-0.077900935,0.76439034,-0.0024541183
0.092253000,0.092253000,0.092253000,0.092253000,0.092253000,0.092253000,0.092253000,0.092253000,0.092253000,2.2770923e-06,-0.039386248,2.6598419,-1.4463107e-05,-0.71821838,0.00027746871,-0.066313038,1.1749254,-0.0058792855
0.093253000,0.093253000,0.093253000,0.093253000,0.093253000,0.093253000,0.093253000,0.093253000,0.093253000,2.2450348e-06,-0.040103472,2.6598422,-5.7461019e-05,-0.71643196,0.00027169853,-0.050897121,1.5825928,-0.0083441890
0.094253000,0.094253000,0.094253000,0.094253000,0.094253000,0.094253000,0.094253000,0.094253000,0.094253000,1.9965213e-06,-0.040818704,2.6598425,-0.00035679006,-0.71423676,0.00025673365,-0.21664545,1.9910036,-0.015547347
0.095253000,0.095253000,0.095253000,0.095253000,0.095253000,0.095253000,0.095253000,0.095253000,0.095253000,1.6575325e-06,-0.041531532,2.6598427,-0.00038423441,-0.71162597,0.00022753247,-0.090495142,2.4041977,-0.027702841
0.096253000,0.096253000,0.096253000,0.096253000,0.096253000,0.096253000,0.096253000,0.096253000,0.096253000,1.2983483e-06,-0.042241558,2.6598429,-0.00036926201,-0.70862559,0.00019459143,-0.020105011,2.8016584,-0.034526328
0.097253000,0.097253000,0.097253000,0.097253000,0.097253000,0.097253000,0.097253000,0.097253000,0.097253000,9.5747470e-07,-0.042948402,2.6598431,-0.00033167725,-0.70525195,0.00014968973,0.018479218,3.1829887,-0.045071716
0.098253000,0.098253000,0.098253000,0.098253000,0.098253000,0.098253000,0.098253000,0.098253000,0.098253000,6.5261859e-07,-0.043651682,2.6598432,-0.00028678826,-0.70149803,0.00011654275,0.036248940,3.5636213,-0.041056447
0.099253000,0.099253000,0.099253000,0.099253000,0.099253000,0.099253000,0.099253000,0.099253000,0.099253000,5.0362514e-07,-0.044351168,2.6598435,-7.1060422e-05,-0.69758945,0.00030274450,0.15585642,3.7936003,0.10621628
0.10025300,0.10025300,0.10025300,0.10025300,0.10025300,0.10025300,0.10025300,0.10025300,0.10025300,4.9313247e-07,-0.045048029,2.6598439,5.8717623e-05,-0.69554910,0.00059885961,0.13833098,2.6247829,0.22853634
0.10125300,0.10125300,0.10125300,0.10125300,0.10125300,0.10125300,0.10125300,0.10125300,0.10125300,4.8143445e-07,-0.045742811,2.6598448,-1.2350685e-05,-0.69374191,0.00097514378,-0.0014063289,2.0797344,0.32260767
0.10225300,0.10225300,0.10225300,0.10225300,0.10225300,0.10225300,0.10225300,0.10225300,0.10225300,3.4605187e-07,-0.046435570,2.6598458,-0.00019722976,-0.69174799,0.0011201457,-0.12369917,2.0225391,0.20005860
0.10325300,0.10325300,0.10325300,0.10325300,0.10325300,0.10325300,0.10325300,0.10325300,0.10325300,1.0591376e-08,-0.047126312,2.6598469,-0.00043546801,-0.68973263,0.0011309549,-0.19994848,2.0177621,0.069766289
0.10425300,0.10425300,0.10425300,0.10425300,0.10425300,0.10425300,0.10425300,0.10425300,0.10425300,-5.1279251e-07,-0.047816205,2.6598481,-0.00061730318,-0.68946905,0.0013613852,-0.18775491,0.84832526,0.17269624
0.10525300,0.10525300,0.10525300,0.10525300,0.10525300,0.10525300,0.10525300,0.10525300,0.10525300,-1.2204362e-06,-0.048505746,2.6598496,-0.00079972221,-0.68936406,0.0016037049,-0.18406089,0.35278840,0.21479368
0.10625300,0.10625300,0.10625300,0.10625300,0.10625300,0.10625300,0.10625300,0.10625300,0.10625300,-1.6277689e-06,-0.049195115,2.6598514,-0.00025715487,-0.68928440,0.0018808658,0.30038874,0.17072522,0.25188391
0.10725300,0.10725300,0.10725300,0.10725300,0.10725300,0.10725300,0.10725300,0.10725300,0.10725300,-1.6679452e-06,-0.049884421,2.6598537,0.00014337466,-0.68927344,0.0025697861,0.36703651,0.064233864,0.53874661
0.10825300,0.10825300,0.10825300,0.10825300,0.10825300,0.10825300,0.10825300,0.10825300,0.10825300,-1.3298354e-06,-0.050573648,2.6598567,0.00052719865,-0.68918709,0.0032943571,0.37806250,0.078999709,0.65801525
0.10925300,0.10925300,0.10925300,0.10925300,0.10925300,0.10925300,0.10925300,0.10925300,0.10925300,-6.8518515e-07,-0.051262713,2.6598603,0.00079786660,-0.68898472,0.0040184816,0.30632473,0.16127193,0.69731755
0.11025300,0.11025300,0.11025300,0.11025300,0.11025300,0.11025300,0.11025300,0.11025300,0.11025300,1.0719082e-07,-0.051951436,2.6598642,0.00086623832,-0.68855263,0.0040018741,0.14772764,0.34184683,0.21681299
0.11125300,0.11125300,0.11125300,0.11125300,0.11125300,0.11125300,0.11125300,0.11125300,0.11125300,9.2419572e-07,-0.052639663,2.6598681,0.00082935574,-0.68797820,0.0038023724,0.024777137,0.49693012,-0.065280998
0.11225300,0.11225300,0.11225300,0.11225300,0.11225300,0.11225300,0.11225300,0.11225300,0.11225300,1.6726679e-06,-0.053327318,2.6598716,0.00071427700,-0.68736891,0.0034322932,-0.068249815,0.57186417,-0.27309070
0.11325300,0.11325300,0.11325300,0.11325300,0.11325300,0.11325300,0.11325300,0.11325300,0.11325300,2.0309902e-06,-0.054014365,2.6598748,0.00016330650,-0.68674327,0.0029579628,-0.38992061,0.60774758,-0.41194065
0.11425300,0.11425300,0.11425300,0.11425300,0.11425300,0.11425300,0.11425300,0.11425300,0.11425300,1.9004922e-06,-0.054701071,2.6598771,-0.00037489555,-0.68653521,0.0018886507,-0.48878110,0.34132185,-0.85491433
0.11525300,0.11525300,0.11525300,0.11525300,0.11525300,0.11525300,0.11525300,0.11525300,0.11525300,1.2560476e-06,-0.055387546,2.6598783,-0.00090143219,-0.68635936,0.00060849563,-0.51401408,0.23104754,-1.1432144
0.11625300,0.11625300,0.11625300,0.11625300,0.11625300,0.11625300,0.11625300,0.11625300,0.11625300,1.7251111e-07,-0.056073850,2.6598781,-0.0013031118,-0.68621844,-0.00078369812,-0.43921839,0.17099950,-1.3141200
0.11725300,0.11725300,0.11725300,0.11725300,0.11725300,0.11725300,0.11725300,0.11725300,0.11725300,-1.1656793e-06,-0.056760045,2.6598766,-0.0014655663,-0.68614094,-0.0023141011,-0.25485508,0.10870925,-1.4633320
0.11825300,0.11825300,0.11825300,0.11825300,0.11825300,0.11825300,0.11825300,0.11825300,0.11825300,-2.5977431e-06,-0.057446148,2.6598735,-0.0014790585,-0.68605688,-0.0038571346,-0.094106277,0.092321764,-1.5216114
0.11925300,0.11925300,0.11925300,0.11925300,0.11925300,0.11925300,0.11925300,0.11925300,0.11925300,-3.8685789e-06,-0.058132166,2.6598688,-0.0011902725,-0.68597542,-0.0054292990,0.16102833,0.085128271,-1.5605769
0.12025300,0.12025300,0.12025300,0.12025300,0.12025300,0.12025300,0.12025300,0.12025300,0.12025300,-4.2220591e-06,-0.058818296,2.6598628,0.00010523515,-0.68618663,-0.0067111698,0.91751149,-0.11238104,-1.3801342
0.12125300,0.12125300,0.12125300,0.12125300,0.12125300,0.12125300,0.12125300,0.12125300,0.12125300,-3.6862009e-06,-0.059505113,2.6598559,0.00098054887,-0.68715891,-0.0073323300,0.88942687,-0.68559439,-0.87957838
0.12225300,0.12225300,0.12225300,0.12225300,0.12225300,0.12225300,0.12225300,0.12225300,0.12225300,-2.5114413e-06,-0.060192931,2.6598484,0.0014942322,-0.68831979,-0.0078443673,0.63898985,-1.0023938,-0.64007379
0.12325300,0.12325300,0.12325300,0.12325300,0.12325300,0.12325300,0.12325300,0.12325300,0.12325300,-1.0495867e-06,-0.060881924,2.6598404,0.0016054112,-0.68957941,-0.0082323811,0.28713097,-1.1738172,-0.47767452
0.12425300,0.12425300,0.12425300,0.12425300,0.12425300,0.12425300,0.12425300,0.12425300,0.12425300,4.9395917e-07,-0.061572181,2.6598320,0.0015843923,-0.69089032,-0.0085591234,0.081693572,-1.2651496,-0.38280397
0.12525300,0.12525300,0.12525300,0.12525300,0.12525300,0.12525300,0.12525300,0.12525300,0.12525300,1.7170249e-06,-0.062263775,2.6598233,0.0010628439,-0.69226210,-0.0088162736,-0.32040833,-1.3361745,-0.30489498
0.12625300,0.12625300,0.12625300,0.12625300,0.12625300,0.12625300,0.12625300,0.12625300,0.12625300,2.4383318e-06,-0.062956741,2.6598144,0.00047043960,-0.69365168,-0.0091010962,-0.50171317,-1.3717031,-0.29746075
0.12725300,0.12725300,0.12725300,0.12725300,0.12725300,0.12725300,0.12725300,0.12725300,0.12725300,2.5348782e-06,-0.063651252,2.6598052,-0.00021582950,-0.69528287,-0.0093830236,-0.62474546,-1.5446237,-0.29301847
0.12825300,0.12825300,0.12825300,0.12825300,0.12825300,0.12825300,0.12825300,0.12825300,0.12825300,2.0698669e-06,-0.064347384,2.6597956,-0.00074580846,-0.69694337,-0.0096679841,-0.56163392,-1.6217984,-0.29361430
0.12925300,0.12925300,0.12925300,0.12925300,0.12925300,0.12925300,0.12925300,0.12925300,0.12925300,1.1249556e-06,-0.065045181,2.6597858,-0.0011848886,-0.69862861,-0.0099581821,-0.48001026,-1.6640153,-0.29737504
0.13025300,0.13025300,0.13025300,0.13025300,0.13025300,0.13025300,0.13025300,0.13025300,0.13025300,-1.9784550e-07,-0.065744682,2.6597757,-0.0015117736,-0.70035383,-0.010221333,-0.37799958,-1.7047342,-0.28067406
0.13125300,0.13125300,0.13125300,0.13125300,0.13125300,0.13125300,0.13125300,0.13125300,0.13125300,-1.6324193e-06,-0.066445893,2.6597654,-0.0014904818,-0.70206565,-0.010533468,-0.11185717,-1.7093689,-0.30782321
0.13225300,0.13225300,0.13225300,0.13225300,0.13225300,0.13225300,0.13225300,0.13225300,0.13225300,-2.9724624e-06,-0.067148806,2.6597546,-0.0012927832,-0.70376432,-0.010887339,0.094511482,-1.7021414,-0.34477107
0.13325300,0.13325300,0.13325300,0.13325300,0.13325300,0.13325300,0.13325300,0.13325300,0.13325300,-3.9771799e-06,-0.067853413,2.6597436,-0.00083703725,-0.70545391,-0.011271083,0.33539867,-1.6936804,-0.37707100
0.13425300,0.13425300,0.13425300,0.13425300,0.13425300,0.13425300,0.13425300,0.13425300,0.13425300,-4.4931618e-06,-0.068559720,2.6597321,-0.00027157777,-0.70715612,-0.011652233,0.48888225,-1.6992674,-0.38619509
0.13525300,0.13525300,0.13525300,0.13525300,0.13525300,0.13525300,0.13525300,0.13525300,0.13525300,-4.4353370e-06,-0.069267732,2.6597202,0.00034477723,-0.70886532,-0.012081077,0.57400208,-1.7057827,-0.42111528
0.13625300,0.13625300,0.13625300,0.13625300,0.13625300,0.13625300,0.13625300,0.13625300,0.13625300,-3.8311835e-06,-0.069976775,2.6597073,0.00087734577,-0.70955752,-0.013519209,0.54643718,-1.0299475,-1.1057894
0.13725300,0.13725300,0.13725300,0.13725300,0.13725300,0.13725300,0.13725300,0.13725300,0.13725300,-2.8821082e-06,-0.070686561,2.6596929,0.0011215344,-0.71015878,-0.015096783,0.34491021,-0.74403845,-1.4270756
0.13825300,0.13825300,0.13825300,0.13825300,0.13825300,0.13825300,0.13825300,0.13825300,0.13825300,-1.7495164e-06,-0.071396961,2.6596769,0.0012243241,-0.71070601,-0.016781652,0.18340928,-0.61271152,-1.6057798
0.13925300,0.13925300,0.13925300,0.13925300,0.13925300,0.13925300,0.13925300,0.13925300,0.13925300,-5.8977415e-07,-0.072107885,2.6596592,0.0011732871,-0.71118536,-0.018520243,0.027026582,-0.52367957,-1.7012451
0.14025300,0.14025300,0.14025300,0.14025300,0.14025300,0.14025300,0.14025300,0.14025300,0.14025300,3.4094892e-07,-0.072819132,2.6596399,0.00081618761,-0.71140885,-0.020136037,-0.22912300,-0.32341974,-1.6514431
0.14125300,0.14125300,0.14125300,0.14125300,0.14125300,0.14125300,0.14125300,0.14125300,0.14125300,8.8717119e-07,-0.073530584,2.6596190,0.00035394549,-0.71155428,-0.021662966,-0.38460529,-0.20462065,-1.5757398
0.14225300,0.14225300,0.14225300,0.14225300,0.14225300,0.14225300,0.14225300,0.14225300,0.14225300,9.4054532e-07,-0.074242152,2.6595966,-0.00019306443,-0.71162637,-0.023136662,-0.49290396,-0.11612591,-1.5151319
0.14325300,0.14325300,0.14325300,0.14325300,0.14325300,0.14325300,0.14325300,0.14325300,0.14325300,4.7722740e-07,-0.074953827,2.6595729,-0.00072167904,-0.71172774,-0.024435327,-0.51674955,-0.10613749,-1.3783669
0.14425300,0.14425300,0.14425300,0.14425300,0.14425300,0.14425300,0.14425300,0.14425300,0.14425300,-4.6309704e-07,-0.075665292,2.6595482,-0.0011788374,-0.71136017,-0.025140884,-0.47704186,0.20982691,-0.93760237
0.14525300,0.14525300,0.14525300,0.14525300,0.14525300,0.14525300,0.14525300,0.14525300,0.14525300,-1.5116951e-06,-0.076376559,2.6595233,-0.0011027217,-0.71116810,-0.025025404,-0.10821732,0.19816653,-0.24415357
0.14625300,0.14625300,0.14625300,0.14625300,0.14625300,0.14625300,0.14625300,0.14625300,0.14625300,-2.5560727e-06,-0.077087672,2.6594985,-0.0010422358,-0.71103669,-0.024750728,0.0043497355,0.15384329,0.092805908
0.14725300,0.14725300,0.14725300,0.14725300,0.14725300,0.14725300,0.14725300,0.14725300,0.14725300,-3.3453719e-06,-0.077798732,2.6594740,-0.00066175489,-0.71103342,-0.024419835,0.25510039,0.053655399,0.24244507
0.14825300,0.14825300,0.14825300,0.14825300,0.14825300,0.14825300,0.14825300,0.14825300,0.14825300,-3.7621127e-06,-0.078509777,2.6594495,-0.00023045756,-0.71103608,-0.024397745,0.37257520,0.016319859,0.086027219
0.14925300,0.14925300,0.14925300,0.14925300,0.14925300,0.14925300,0.14925300,0.14925300,0.14925300,-3.8698837e-06,-0.079220866,2.6594251,4.6722770e-05,-0.71111129,-0.024436880,0.30900632,-0.044488401,-0.0071105451
0.15025300,0.15025300,0.15025300,0.15025300,0.15025300,0.15025300,0.15025300,0.15025300,0.15025300,-3.7196723e-06,-0.079932090,2.6594006,0.00027920641,-0.71129163,-0.024538139,0.25799765,-0.13483160,-0.079648980
0.15125300,0.15125300,0.15125300,0.15125300,0.15125300,0.15125300,0.15125300,0.15125300,0.15125300,-3.4089990e-06,-0.080643550,2.6593760,0.00039091517,-0.71157790,-0.024645541,0.16050553,-0.23556160,-0.10795958
0.15225300,0.15225300,0.15225300,0.15225300,0.15225300,0.15225300,0.15225300,0.15225300,0.15225300,-3.0319771e-06,-0.081355348,2.6593513,0.00041018511,-0.71196663,-0.024788484,0.066303896,-0.33743901,-0.14106056
0.15325300,0.15325300,0.15325300,0.15325300,0.15325300,0.15325300,0.15325300,0.15325300,0.15325300,-2.6766446e-06,-0.082067095,2.6593262,0.00034444440,-0.71172258,-0.025195690,-0.021862407,0.050492012,-0.32967564
0.15425300,0.15425300,0.15425300,0.15425300,0.15425300,0.15425300,0.15425300,0.15425300,0.15425300,-2.4279846e-06,-0.082778048,2.6593010,0.00019528550,-0.71055418,-0.025328761,-0.10682207,0.79604623,-0.21041899
0.15525300,0.15525300,0.15525300,0.15525300,0.15525300,0.15525300,0.15525300,0.15525300,0.15525300,-2.3733236e-06,-0.083487993,2.6592757,-4.2349048e-05,-0.70944212,-0.025414153,-0.19403622,1.0070328,-0.13968201
0.15625300,0.15625300,0.15625300,0.15625300,0.15625300,0.15625300,0.15625300,0.15625300,0.15625300,-2.5408667e-06,-0.084196856,2.6592502,-0.00027864941,-0.70832128,-0.025521772,-0.22221533,1.0832283,-0.13132385
0.15725300,0.15725300,0.15725300,0.15725300,0.15725300,0.15725300,0.15725300,0.15725300,0.15725300,-2.9287674e-06,-0.084904596,2.6592246,-0.00049805380,-0.70717785,-0.025661787,-0.22024969,1.1236958,-0.15031583
0.15825300,0.15825300,0.15825300,0.15825300,0.15825300,0.15825300,0.15825300,0.15825300,0.15825300,-3.5382523e-06,-0.085610163,2.6591988,-0.00072021534,-0.70448052,-0.025972577,-0.22133522,2.1731371,-0.27054036
0.15925300,0.15925300,0.15925300,0.15925300,0.15925300,0.15925300,0.15925300,0.15925300,0.15925300,-4.3613703e-06,-0.086313215,2.6591726,-0.00092985474,-0.70179476,-0.026332871,-0.21331460,2.5152426,-0.34354781
0.16025300,0.16025300,0.16025300,0.16025300,0.16025300,0.16025300,0.16025300,0.16025300,0.16025300,-5.4080176e-06,-0.087013768,2.6591461,-0.0011583215,-0.69930263,-0.026705073,-0.22317355,2.5001982,-0.37568419
0.16125300,0.16125300,0.16125300,0.16125300,0.16125300,0.16125300,0.16125300,0.16125300,0.16125300,-6.5658124e-06,-0.087711946,2.6591191,-0.0012132248,-0.69699144,-0.027254496,-0.11058272,2.3745678,-0.50443272
0.16225300,0.16225300,0.16225300,0.16225300,0.16225300,0.16225300,0.16225300,0.16225300,0.16225300,-7.5469076e-06,-0.088408017,2.6590915,-0.00089268350,-0.69501696,-0.027885929,0.17693032,2.1082299,-0.60180922
0.16325300,0.16325300,0.16325300,0.16325300,0.16325300,0.16325300,0.16325300,0.16325300,0.16325300,-8.1995462e-06,-0.089102334,2.6590633,-0.00048841773,-0.69343915,-0.028528112,0.32840959,1.7550067,-0.64121417
0.16425300,0.16425300,0.16425300,0.16425300,0.16425300,0.16425300,0.16425300,0.16425300,0.16425300,-8.4727797e-06,-0.089795268,2.6590345,-8.3593684e-05,-0.69224301,-0.029159935,0.37913863,1.3828203,-0.64716434
0.16525300,0.16525300,0.16525300,0.16525300,0.16525300,0.16525300,0.16525300,0.16525300,0.16525300,-8.3670525e-06,-0.090487219,2.6590050,0.00029511799,-0.69145935,-0.029805300,0.37859134,0.98378062,-0.65787957
0.16625300,0.16625300,0.16625300,0.16625300,0.16625300,0.16625300,0.16625300,0.16625300,0.16625300,-7.9119399e-06,-0.091178601,2.6589748,0.00062970973,-0.69109688,-0.030476949,0.34899699,0.56997713,-0.67862626
0.16725300,0.16725300,0.16725300,0.16725300,0.16725300,0.16725300,0.16725300,0.16725300,0.16725300,-7.0820916e-06,-0.091869744,2.6589440,0.0010171332,-0.69102370,-0.031159052,0.37440142,0.23918429,-0.69228566
0.16825300,0.16825300,0.16825300,0.16825300,0.16825300,0.16825300,0.16825300,0.16825300,0.16825300,-5.9539121e-06,-0.092560922,2.6589126,0.0012773124,-0.69119455,-0.031803139,0.29820077,-0.033763141,-0.67118388
0.16925300,0.16925300,0.16925300,0.16925300,0.16925300,0.16925300,0.16925300,0.16925300,0.16925300,-4.6324417e-06,-0.093252467,2.6588804,0.0014181804,-0.69172851,-0.032446541,0.19355050,-0.36681171,-0.66335445
0.17025300,0.17025300,0.17025300,0.17025300,0.17025300,0.17025300,0.17025300,0.17025300,0.17025300,-3.1687810e-06,-0.093944762,2.6588477,0.0015348680,-0.69267086,-0.033093645,0.14263667,-0.75008684,-0.66282797
0.17125300,0.17125300,0.17125300,0.17125300,0.17125300,0.17125300,0.17125300,0.17125300,0.17125300,-1.5879870e-06,-0.094638217,2.6588143,0.0016394959,-0.69403447,-0.033745580,0.11766876,-1.1586849,-0.66547706
0.17225300,0.17225300,0.17225300,0.17225300,0.17225300,0.17225300,0.17225300,0.17225300,0.17225300,5.6668985e-08,-0.095333264,2.6587802,0.0016766796,-0.69584168,-0.034403083,0.064223343,-1.5906227,-0.66966595
0.17325300,0.17325300,0.17325300,0.17325300,0.17325300,0.17325300,0.17325300,0.17325300,0.17325300,1.7062545e-06,-0.096030299,2.6587455,0.0016520960,-0.69802909,-0.035053480,0.0051015266,-1.9880628,-0.66590239
0.17425300,0.17425300,0.17425300,0.17425300,0.17425300,0.17425300,0.17425300,0.17425300,0.17425300,3.2905486e-06,-0.096729728,2.6587101,0.0015516515,-0.70062669,-0.035711797,-0.065289871,-2.3940133,-0.66952215
0.17525300,0.17525300,0.17525300,0.17525300,0.17525300,0.17525300,0.17525300,0.17525300,0.17525300,4.7740512e-06,-0.097431855,2.6586740,0.0014330809,-0.70347492,-0.036392702,-0.10090562,-2.6964078,-0.68549790
0.17625300,0.17625300,0.17625300,0.17625300,0.17625300,0.17625300,0.17625300,0.17625300,0.17625300,6.1256948e-06,-0.098137043,2.6586373,0.0012856724,-0.70671940,-0.037078935,-0.13203408,-3.0613832,-0.69398965
0.17725300,0.17725300,0.17725300,0.17725300,0.17725300,0.17725300,0.17725300,0.17725300,0.17725300,7.3324821e-06,-0.098845677,2.6585999,0.0011343099,-0.71035630,-0.037776518,-0.14506057,-3.4446499,-0.70396633
0.17825300,0.17825300,0.17825300,0.17825300,0.17825300,0.17825300,0.17825300,0.17825300,0.17825300,8.3900895e-06,-0.099558140,2.6585617,0.00098296656,-0.71437760,-0.038479732,-0.14938902,-3.8286784,-0.71061631
0.17925300,0.17925300,0.17925300,0.17925300,0.17925300,0.17925300,0.17925300,0.17925300,0.17925300,9.3017011e-06,-0.10027481,2.6585229,0.00083856321,-0.71877683,-0.039189685,-0.14620150,-4.2086501,-0.71689660
0.18025300,0.18025300,0.18025300,0.18025300,0.18025300,0.18025300,0.18025300,0.18025300,0.18025300,1.0064850e-05,-0.10099606,2.6584834,0.00068887204,-0.72353877,-0.039912588,-0.14864798,-4.5771146,-0.72720766
0.18125300,0.18125300,0.18125300,0.18125300,0.18125300,0.18125300,0.18125300,0.18125300,0.18125300,1.0689233e-05,-0.10172221,2.6584431,0.00055495725,-0.72858935,-0.040644274,-0.13893955,-4.8923625,-0.73616581
0.18225300,0.18225300,0.18225300,0.18225300,0.18225300,0.18225300,0.18225300,0.18225300,0.18225300,1.1158419e-05,-0.10245356,2.6584021,0.00039156618,-0.73395246,-0.041361827,-0.15528194,-5.2058083,-0.72934354
0.18325300,0.18325300,0.18325300,0.18325300,0.18325300,0.18325300,0.18325300,0.18325300,0.18325300,1.1477769e-05,-0.10319043,2.6583604,0.00024442455,-0.73963965,-0.042081015,-0.14986558,-5.5263484,-0.72776263
0.18425300,0.18425300,0.18425300,0.18425300,0.18425300,0.18425300,0.18425300,0.18425300,0.18425300,1.1658230e-05,-0.10393315,2.6583179,0.00011101497,-0.74564011,-0.042803546,-0.13889609,-5.8420521,-0.72907195
0.18525300,0.18525300,0.18525300,0.18525300,0.18525300,0.18525300,0.18525300,0.18525300,0.18525300,1.1716249e-05,-0.10468202,2.6582748,-3.1884955e-06,-0.75194214,-0.043521118,-0.12238768,-6.1483365,-0.72582872
0.18625300,0.18625300,0.18625300,0.18625300,0.18625300,0.18625300,0.18625300,0.18625300,0.18625300,1.1691970e-05,-0.10543731,2.6582308,-6.5406773e-05,-0.75850260,-0.044328422,-0.082214672,-6.4227274,-0.78422334
0.18725300,0.18725300,0.18725300,0.18725300,0.18725300,0.18725300,0.18725300,0.18725300,0.18725300,1.1627617e-05,-0.10619925,2.6581861,-8.4352209e-05,-0.76525899,-0.045083107,-0.039922459,-6.6448143,-0.76824404
0.18825300,0.18825300,0.18825300,0.18825300,0.18825300,0.18825300,0.18825300,0.18825300,0.18825300,1.1549536e-05,-0.10696804,2.6581407,-8.4896783e-05,-0.77222406,-0.045837732,-0.013537118,-6.8579711,-0.76257592
0.18925300,0.18925300,0.18925300,0.18925300,0.18925300,0.18925300,0.18925300,0.18925300,0.18925300,1.1469257e-05,-0.10774393,2.6580945,-8.1327284e-05,-0.77943111,-0.046591443,-0.0019975086,-7.0903486,-0.75976285
0.19025300,0.19025300,0.19025300,0.19025300,0.19025300,0.19025300,0.19025300,0.19025300,0.19025300,1.1390346e-05,-0.10852714,2.6580475,-7.8177263e-05,-0.78687455,-0.047342503,0.0015653582,-7.3254056,-0.75675614
0.19125300,0.19125300,0.19125300,0.19125300,0.19125300,0.19125300,0.19125300,0.19125300,0.19125300,1.1305022e-05,-0.10931790,2.6579998,-8.8483994e-05,-0.79453318,-0.048068776,-0.0062269652,-7.5472284,-0.73894442
0.19225300,0.19225300,0.19225300,0.19225300,0.19225300,0.19225300,0.19225300,0.19225300,0.19225300,1.1199393e-05,-0.11011641,2.6579514,-0.00011574271,-0.80238717,-0.048791902,-0.020151683,-7.7514106,-0.73066147
0.19325300,0.19325300,0.19325300,0.19325300,0.19325300,0.19325300,0.19325300,0.19325300,0.19325300,1.1067608e-05,-0.11092284,2.6579022,-0.00014483330,-0.81039290,-0.049516403,-0.026039330,-7.9206410,-0.72861180
0.19425300,0.19425300,0.19425300,0.19425300,0.19425300,0.19425300,0.19425300,0.19425300,0.19425300,1.0899467e-05,-0.11173738,2.6578523,-0.00018630397,-0.81859075,-0.050243035,-0.036301004,-8.1051364,-0.72911720
0.19525300,0.19525300,0.19525300,0.19525300,0.19525300,0.19525300,0.19525300,0.19525300,0.19525300,1.0693069e-05,-0.11256021,2.6578017,-0.00022552063,-0.82697387,-0.050970713,-0.038234350,-8.2901563,-0.72975558
0.19625300,0.19625300,0.19625300,0.19625300,0.19625300,0.19625300,0.19625300,0.19625300,0.19625300,1.0450126e-05,-0.11339150,2.6577504,-0.00026121291,-0.83552786,-0.051699894,-0.036536788,-8.4657435,-0.73075571
0.19725300,0.19725300,0.19725300,0.19725300,0.19725300,0.19725300,0.19725300,0.19725300,0.19725300,1.0173387e-05,-0.11423143,2.6576983,-0.00029363725,-0.84424393,-0.052429690,-0.033796597,-8.6323375,-0.73129670
0.19825300,0.19825300,0.19825300,0.19825300,0.19825300,0.19825300,0.19825300,0.19825300,0.19825300,9.8668528e-06,-0.11508015,2.6576455,-0.00032143256,-0.85311286,-0.053160483,-0.029800419,-8.7897772,-0.73195624
0.19925300,0.19925300,0.19925300,0.19925300,0.19925300,0.19925300,0.19925300,0.19925300,0.19925300,9.5338513e-06,-0.11593777,2.6575920,-0.00034623720,-0.86206574,-0.053893568,-0.026476111,-8.8982267,-0.73357513
0.20025300,0.20025300,0.20025300,0.20025300,0.20025300,0.20025300,0.20025300,0.20025300,0.20025300,9.1790445e-06,-0.11680440,2.6575377,-0.00036571188,-0.87113739,-0.054626294,-0.021815577,-9.0135659,-0.73373490
0.20125300,0.20125300,0.20125300,0.20125300,0.20125300,0.20125300,0.20125300,0.20125300,0.20125300,8.8078808e-06,-0.11768015,2.6574828,-0.00037934516,-0.88032007,-0.055358545,-0.016369958,-9.1260346,-0.73333970
0.20225300,0.20225300,0.20225300,0.20225300,0.20225300,0.20225300,0.20225300,0.20225300,0.20225300,8.4250571e-06,-0.11856514,2.6574270,-0.00038865718,-0.88959328,-0.056091876,-0.011674470,-9.2238810,-0.73381458
0.20325300,0.20325300,0.20325300,0.20325300,0.20325300,0.20325300,0.20325300,0.20325300,0.20325300,8.0335641e-06,-0.11945944,2.6573706,-0.00039583097,-0.89896371,-0.056824255,-0.0086828631,-9.3213071,-0.73323046
0.20425300,0.20425300,0.20425300,0.20425300,0.20425300,0.20425300,0.20425300,0.20425300,0.20425300,7.6364932e-06,-0.12036314,2.6573134,-0.00039986333,-0.90840769,-0.057556478,-0.0055919911,-9.4028274,-0.73284332
0.20525300,0.20525300,0.20525300,0.20525300,0.20525300,0.20525300,0.20525300,0.20525300,0.20525300,7.2356677e-06,-0.12127633,2.6572555,-0.00040270573,-0.91792871,-0.058284530,-0.0037665655,-9.4813617,-0.72985845
0.20625300,0.20625300,0.20625300,0.20625300,0.20625300,0.20625300,0.20625300,0.20625300,0.20625300,6.8329449e-06,-0.12219906,2.6571968,-0.00040367435,-0.92749877,-0.059010417,-0.0019090882,-9.5402346,-0.72736880
0.20725300,0.20725300,0.20725300,0.20725300,0.20725300,0.20725300,0.20725300,0.20725300,0.20725300,6.4294580e-06,-0.12313138,2.6571374,-0.00040387158,-0.93711522,-0.059733806,-0.00077504662,-9.5907860,-0.72483253
0.20825300,0.20825300,0.20825300,0.20825300,0.20825300,0.20825300,0.20825300,0.20825300,0.20825300,6.0256448e-06,-0.12407334,2.6570774,-0.00040397914,-0.94678036,-0.060453975,-0.00033723861,-9.6400995,-0.72180371
0.20925300,0.20925300,0.20925300,0.20925300,0.20925300,0.20925300,0.20925300,0.20925300,0.20925300,5.6219079e-06,-0.12502498,2.6570165,-0.00040370115,-0.95647775,-0.061171824,6.6458780e-05,-9.6780379,-0.71922067
0.21025300,0.21025300,0.21025300,0.21025300,0.21025300,0.21025300,0.21025300,0.21025300,0.21025300,5.2187186e-06,-0.12598633,2.6569550,-0.00040291741,-0.96620245,-0.061887283,0.00053983079,-9.7088896,-0.71674475
0.21125300,0.21125300,0.21125300,0.21125300,0.21125300,0.21125300,0.21125300,0.21125300,0.21125300,4.8165031e-06,-0.12695740,2.6568928,-0.00040172999,-0.97594216,-0.062601410,0.00096827947,-9.7291841,-0.71501822
0.21225300,0.21225300,0.21225300,0.21225300,0.21225300,0.21225300,0.21225300,0.21225300,0.21225300,4.4155392e-06,-0.12793823,2.6568298,-0.00040033910,-0.98569224,-0.063314595,0.0012475432,-9.7428606,-0.71380524
0.21325300,0.21325300,0.21325300,0.21325300,0.21325300,0.21325300,0.21325300,0.21325300,0.21325300,4.0160366e-06,-0.12892880,2.6567661,-0.00039877273,-0.99545102,-0.064026907,0.0014583028,-9.7532198,-0.71281199
0.21425300,0.21425300,0.21425300,0.21425300,0.21425300,0.21425300,0.21425300,0.21425300,0.21425300,3.6181469e-06,-0.12992914,2.6567018,-0.00039708372,-1.0052154,-0.064738594,0.0016108026,-9.7604315,-0.71205902
0.21525300,0.21525300,0.21525300,0.21525300,0.21525300,0.21525300,0.21525300,0.21525300,0.21525300,3.2219828e-06,-0.13093924,2.6566367,-0.00039530171,-1.0149839,-0.065449818,0.0017240236,-9.7655427,-0.71149591
0.21625300,0.21625300,0.21625300,0.21625300,0.21625300,0.21625300,0.21625300,0.21625300,0.21625300,2.8276403e-06,-0.13195911,2.6565709,-0.00039343201,-1.0247551,-0.066160693,0.0018206186,-9.7690430,-0.71107334
0.21725300,0.21725300,0.21725300,0.21725300,0.21725300,0.21725300,0.21725300,0.21725300,0.21725300,2.4351953e-06,-0.13298875,2.6565043,-0.00039149633,-1.0345274,-0.066871386,0.0018971037,-9.7710050,-0.71080938
0.21825300,0.21825300,0.21825300,0.21825300,0.21825300,0.21825300,0.21825300,0.21825300,0.21825300,2.0446868e-06,-0.13402816,2.6564371,-0.00038954026,-1.0443000,-0.067582000,0.0019363162,-9.7718015,-0.71066790
0.21925300,0.21925300,0.21925300,0.21925300,0.21925300,0.21925300,0.21925300,0.21925300,0.21925300,1.6561343e-06,-0.13507735,2.6563692,-0.00038757447,-1.0540725,-0.068292566,0.0019559341,-9.7720142,-0.71058802
0.22025300,0.22025300,0.22025300,0.22025300,0.22025300,0.22025300,0.22025300,0.22025300,0.22025300,1.2695476e-06,-0.13613631,2.6563005,-0.00038560379,-1.0638448,-0.069003098,0.0019657613,-9.7719349,-0.71053893
0.22125300,0.22125300,0.22125300,0.22125300,0.22125300,0.22125300,0.22125300,0.22125300,0.22125300,8.8493165e-07,-0.13720504,2.6562312,-0.00038363065,-1.0736168,-0.069713605,0.0019706962,-9.7717097,-0.71050520
0.22225300,0.22225300,0.22225300,0.22225300,0.22225300,0.22225300,0.22225300,0.22225300,0.22225300,5.0228882e-07,-0.13828354,2.6561611,-0.00038165624,-1.0833884,-0.070424090,0.0019731865,-9.7714114,-0.71047908
0.22325300,0.22325300,0.22325300,0.22325300,0.22325300,0.22325300,0.22325300,0.22325300,0.22325300,1.2162041e-07,-0.13937182,2.6560903,-0.00037968119,-1.0931597,-0.071134554,0.0019744548,-9.7710767,-0.71045667
0.22425300,0.22425300,0.22425300,0.22425300,0.22425300,0.22425300,0.22425300,0.22425300,0.22425300,-2.5707293e-07,-0.14046986,2.6560188,-0.00037770578,-1.1029306,-0.071844999,0.0019751123,-9.7707237,-0.71043603
0.22525300,0.22525300,0.22525300,0.22525300,0.22525300,0.22525300,0.22525300,0.22525300,0.22525300,-6.3379083e-07,-0.14157768,2.6559466,-0.00037573018,-1.1127012,-0.072555424,0.0019754642,-9.7703616,-0.71041618
0.22625300,0.22625300,0.22625300,0.22625300,0.22625300,0.22625300,0.22625300,0.22625300,0.22625300,-1.0085331e-06,-0.14269526,2.6558737,-0.00037375445,-1.1224714,-0.073265831,0.0019756630,-9.7699950,-0.71039663
0.22725300,0.22725300,0.22725300,0.22725300,0.22725300,0.22725300,0.22725300,0.22725300,0.22725300,-1.3812996e-06,-0.14382262,2.6558001,-0.00037177865,-1.1322412,-0.073976218,0.0019757850,-9.7696261,-0.71037713
0.22825300,0.22825300,0.22825300,0.22825300,0.22825300,0.22825300,0.22825300,0.22825300,0.22825300,-1.7520903e-06,-0.14495975,2.6557258,-0.00036980277,-1.1420107,-0.074686585,0.0019758683,-9.7692561,-0.71035756
0.22925300,0.22925300,0.22925300,0.22925300,0.22925300,0.22925300,0.22925300,0.22925300,0.22925300,-2.1209051e-06,-0.14610664,2.6556507,-0.00036782684,-1.1517797,-0.075396933,0.0019759317,-9.7688855,-0.71033787
0.23025300,0.23025300,0.23025300,0.23025300,0.23025300,0.23025300,0.23025300,0.23025300,0.23025300,-2.4877440e-06,-0.14726330,2.6555750,-0.00036585087,-1.1615484,-0.076107262,0.0019759849,-9.7685146,-0.71031800
0.23125300,0.23125300,0.23125300,0.23125300,0.23125300,0.23125300,0.23125300,0.23125300,0.23125300,-2.8526068e-06,-0.14842974,2.6554985,-0.00036387484,-1.1713168,-0.076817570,0.0019760327,-9.7681436,-0.71029797
0.23225300,0.23225300,0.23225300,0.23225300,0.23225300,0.23225300,0.23225300,0.23225300,0.23225300,-3.2154937e-06,-0.14960594,2.6554213,-0.00036189878,-1.1810847,-0.077527858,0.0019760773,-9.7677725,-0.71027774
0.23325300,0.23325300,0.23325300,0.23325300,0.23325300,0.23325300,0.23325300,0.23325300,0.23325300,-3.5764044e-06,-0.15079191,2.6553435,-0.00035992267,-1.1908523,-0.078238126,0.0019761200,-9.7674014,-0.71025733
0.23425300,0.23425300,0.23425300,0.23425300,0.23425300,0.23425300,0.23425300,0.23425300,0.23425300,-3.9353390e-06,-0.15198764,2.6552649,-0.00035794652,-1.2006196,-0.078948374,0.0019761613,-9.7670303,-0.71023672
0.23525300,0.23525300,0.23525300,0.23525300,0.23525300,0.23525300,0.23525300,0.23525300,0.23525300,-4.2922974e-06,-0.15319315,2.6551856,-0.00035597033,-1.2103864,-0.079658600,0.0019762016,-9.7666592,-0.71021592
0.23625300,0.23625300,0.23625300,0.23625300,0.23625300,0.23625300,0.23625300,0.23625300,0.23625300,-4.6472796e-06,-0.15440842,2.6551055,-0.00035399410,-1.2201529,-0.080368806,0.0019762410,-9.7662882,-0.71019492
0.23725300,0.23725300,0.23725300,0.23725300,0.23725300,0.23725300,0.23725300,0.23725300,0.23725300,-5.0002856e-06,-0.15563345,2.6550248,-0.00035201783,-1.2299190,-0.081078991,0.0019762796,-9.7659171,-0.71017374
0.23825300,0.23825300,0.23825300,0.23825300,0.23825300,0.23825300,0.23825300,0.23825300,0.23825300,-5.3513153e-06,-0.15686825,2.6549434,-0.00035004152,-1.2396847,-0.081789155,0.0019763173,-9.7655460,-0.71015236
0.23925300,0.23925300,0.23925300,0.23925300,0.23925300,0.23925300,0.23925300,0.23925300,0.23925300,-5.7003686e-06,-0.15811282,2.6548612,-0.00034806518,-1.2494501,-0.082499297,0.0019763544,-9.7651749,-0.71013078
0.24025300,0.24025300,0.24025300,0.24025300,0.24025300,0.24025300,0.24025300,0.24025300,0.24025300,-6.0474456e-06,-0.15936715,2.6547784,-0.00034608880,-1.2592151,-0.083209417,0.0019763906,-9.7648039,-0.71010901
0.24125300,0.24125300,0.24125300,0.24125300,0.24125300,0.24125300,0.24125300,0.24125300,0.24125300,-6.3925462e-06,-0.16063125,2.6546948,-0.00034411238,-1.2689797,-0.083919516,0.0019764261,-9.7644329,-0.71008705
0.24225300,0.24225300,0.24225300,0.24225300,0.24225300,0.24225300,0.24225300,0.24225300,0.24225300,-6.7356703e-06,-0.16190511,2.6546105,-0.00034213593,-1.2787440,-0.084629592,0.0019764609,-9.7640618,-0.71006490
0.24325300,0.24325300,0.24325300,0.24325300,0.24325300,0.24325300,0.24325300,0.24325300,0.24325300,-7.0768180e-06,-0.16318874,2.6545256,-0.00034015945,-1.2885079,-0.085339646,0.0019764949,-9.7636908,-0.71004255
0.24425300,0.24425300,0.24425300,0.24425300,0.24425300,0.24425300,0.24425300,0.24425300,0.24425300,-7.4159892e-06,-0.16448213,2.6544399,-0.00033818293,-1.2982714,-0.086049678,0.0019765281,-9.7633198,-0.71002000
0.24525300,0.24525300,0.24525300,0.24525300,0.24525300,0.24525300,0.24525300,0.24525300,0.24525300,-7.7531839e-06,-0.16578528,2.6543535,-0.00033620637,-1.3080345,-0.086759687,0.0019765606,-9.7629488,-0.70999726
0.24625300,0.24625300,0.24625300,0.24625300,0.24625300,0.24625300,0.24625300,0.24625300,0.24625300,-8.0884019e-06,-0.16709820,2.6542664,-0.00033422979,-1.3177973,-0.087469673,0.0019765923,-9.7625778,-0.70997433
0.24725300,0.24725300,0.24725300,0.24725300,0.24725300,0.24725300,0.24725300,0.24725300,0.24725300,-8.4216434e-06,-0.16842088,2.6541785,-0.00033225317,-1.3275597,-0.088179637,0.0019766233,-9.7622069,-0.70995121
0.24825300,0.24825300,0.24825300,0.24825300,0.24825300,0.24825300,0.24825300,0.24825300,0.24825300,-8.7529083e-06,-0.16975332,2.6540900,-0.00033027653,-1.3373217,-0.088889577,0.0019766536,-9.7618359,-0.70992789
0.24925300,0.24925300,0.24925300,0.24925300,0.24925300,0.24925300,0.24925300,0.24925300,0.24925300,-9.0821965e-06,-0.17109552,2.6540007,-0.00032829985,-1.3470834,-0.089599493,0.0019766831,-9.7614650,-0.70990437
0.25025300,0.25025300,0.25025300,0.25025300,0.25025300,0.25025300,0.25025300,0.25025300,0.25025300,-9.4095080e-06,-0.17244748,2.6539108,-0.00032632315,-1.3568447,-0.090309386,0.0019767118,-9.7610940,-0.70988067
0.25125300,0.25125300,0.25125300,0.25125300,0.25125300,0.25125300,0.25125300,0.25125300,0.25125300,-9.7348427e-06,-0.17380921,2.6538201,-0.00032434641,-1.3666056,-0.091019256,0.0019767398,-9.7607231,-0.70985677
0.25225300,0.25225300,0.25225300,0.25225300,0.25225300,0.25225300,0.25225300,0.25225300,0.25225300,-1.0058201e-05,-0.17518069,2.6537288,-0.00032236965,-1.3763661,-0.091729101,0.0019767670,-9.7603522,-0.70983267
0.25325300,0.25325300,0.25325300,0.25325300,0.25325300,0.25325300,0.25325300,0.25325300,0.25325300,-1.0379582e-05,-0.17656194,2.6536367,-0.00032039286,-1.3861263,-0.092438922,0.0019767935,-9.7599813,-0.70980838
0.25425300,0.25425300,0.25425300,0.25425300,0.25425300,0.25425300,0.25425300,0.25425300,0.25425300,-1.0698986e-05,-0.17795295,2.6535439,-0.00031841605,-1.3958861,-0.093148719,0.0019768193,-9.7596105,-0.70978390
0.25525300,0.25525300,0.25525300,0.25525300,0.25525300,0.25525300,0.25525300,0.25525300,0.25525300,-1.1016414e-05,-0.17935371,2.6534504,-0.00031643921,-1.4056456,-0.093858491,0.0019768443,-9.7592396,-0.70975923
0.25625300,0.25625300,0.25625300,0.25625300,0.25625300,0.25625300,0.25625300,0.25625300,0.25625300,-1.1331865e-05,-0.18076424,2.6533562,-0.00031446235,-1.4154046,-0.094568238,0.0019768685,-9.7588687,-0.70973436
0.25725300,0.25725300,0.25725300,0.25725300,0.25725300,0.25725300,0.25725300,0.25725300,0.25725300,-1.1645339e-05,-0.18218452,2.6532612,-0.00031248546,-1.4251633,-0.095277960,0.0019768920,-9.7584979,-0.70970929
0.25825300,0.25825300,0.25825300,0.25825300,0.25825300,0.25825300,0.25825300,0.25825300,0.25825300,-1.1956836e-05,-0.18361456,2.6531656,-0.00031050855,-1.4349216,-0.095987657,0.0019769147,-9.7581271,-0.70968404
0.25925300,0.25925300,0.25925300,0.25925300,0.25925300,0.25925300,0.25925300,0.25925300,0.25925300,-1.2266356e-05,-0.18505436,2.6530693,-0.00030853162,-1.4446796,-0.096697329,0.0019769367,-9.7577562,-0.70965858
0.26025300,0.26025300,0.26025300,0.26025300,0.26025300,0.26025300,0.26025300,0.26025300,0.26025300,-1.2573899e-05,-0.18650392,2.6529722,-0.00030655466,-1.4544372,-0.097406976,0.0019769580,-9.7573854,-0.70963294
0.26125300,0.26125300,0.26125300,0.26125300,0.26125300,0.26125300,0.26125300,0.26125300,0.26125300,-1.2879465e-05,-0.18796324,2.6528744,-0.00030457769,-1.4641944,-0.098116596,0.0019769785,-9.7570147,-0.70960710
0.26225300,0.26225300,0.26225300,0.26225300,0.26225300,0.26225300,0.26225300,0.26225300,0.26225300,-1.3183054e-05,-0.18943231,2.6527760,-0.00030260069,-1.4739512,-0.098826191,0.0019769982,-9.7566439,-0.70958107
0.26325300,0.26325300,0.26325300,0.26325300,0.26325300,0.26325300,0.26325300,0.26325300,0.26325300,-1.3484667e-05,-0.19091114,2.6526768,-0.00030062368,-1.4837077,-0.099535759,0.0019770172,-9.7562731,-0.70955484
0.26425300,0.26425300,0.26425300,0.26425300,0.26425300,0.26425300,0.26425300,0.26425300,0.26425300,-1.3784302e-05,-0.19239973,2.6525769,-0.00029864664,-1.4934638,-0.10024530,0.0019770354,-9.7559024,-0.70952842
0.26525300,0.26525300,0.26525300,0.26525300,0.26525300,0.26525300,0.26525300,0.26525300,0.26525300,-1.4081960e-05,-0.19389807,2.6524763,-0.00029666959,-1.5032195,-0.10095482,0.0019770529,-9.7555316,-0.70950181
0.26625300,0.26625300,0.26625300,0.26625300,0.26625300,0.26625300,0.26625300,0.26625300,0.26625300,-1.4377641e-05,-0.19540617,2.6523750,-0.00029469252,-1.5129748,-0.10166431,0.0019770696,-9.7551609,-0.70947500
0.26725300,0.26725300,0.26725300,0.26725300,0.26725300,0.26725300,0.26725300,0.26725300,0.26725300,-1.4671345e-05,-0.19692402,2.6522730,-0.00029271544,-1.5227298,-0.10237377,0.0019770856,-9.7547902,-0.70944800
0.26825300,0.26825300,0.26825300,0.26825300,0.26825300,0.26825300,0.26825300,0.26825300,0.26825300,-1.4963072e-05,-0.19845163,2.6521702,-0.00029073834,-1.5324844,-0.10308320,0.0019771009,-9.7544195,-0.70942081
0.26925300,0.26925300,0.26925300,0.26925300,0.26925300,0.26925300,0.26925300,0.26925300,0.26925300,-1.5252822e-05,-0.19998899,2.6520668,-0.00028876122,-1.5422387,-0.10379261,0.0019771153,-9.7540489,-0.70939342
0.27025300,0.27025300,0.27025300,0.27025300,0.27025300,0.27025300,0.27025300,0.27025300,0.27025300,-1.5540594e-05,-0.20153610,2.6519627,-0.00028678410,-1.5519925,-0.10450199,0.0019771291,-9.7536782,-0.70936584
0.27125300,0.27125300,0.27125300,0.27125300,0.27125300,0.27125300,0.27125300,0.27125300,0.27125300,-1.5826390e-05,-0.20309297,2.6518578,-0.00028480695,-1.5617460,-0.10521134,0.0019771421,-9.7533075,-0.70933806
0.27225300,0.27225300,0.27225300,0.27225300,0.27225300,0.27225300,0.27225300,0.27225300,0.27225300,-1.6110208e-05,-0.20465959,2.6517522,-0.00028282980,-1.5714992,-0.10592067,0.0019771543,-9.7529369,-0.70931009
0.27325300,0.27325300,0.27325300,0.27325300,0.27325300,0.27325300,0.27325300,0.27325300,0.27325300,-1.6392049e-05,-0.20623597,2.6516460,-0.00028085263,-1.5812519,-0.10662997,0.0019771658,-9.7525663,-0.70928193
0.27425300,0.27425300,0.27425300,0.27425300,0.27425300,0.27425300,0.27425300,0.27425300,0.27425300,-1.6671913e-05,-0.20782210,2.6515390,-0.00027887545,-1.5910043,-0.10733923,0.0019771765,-9.7521957,-0.70925357
0.27525300,0.27525300,0.27525300,0.27525300,0.27525300,0.27525300,0.27525300,0.27525300,0.27525300,-1.6949800e-05,-0.20941798,2.6514313,-0.00027689827,-1.6007563,-0.10804847,0.0019771865,-9.7518251,-0.70922502
0.27625300,0.27625300,0.27625300,0.27625300,0.27625300,0.27625300,0.27625300,0.27625300,0.27625300,-1.7225710e-05,-0.21102361,2.6513229,-0.00027492107,-1.6105080,-0.10875768,0.0019771957,-9.7514545,-0.70919628
0.27725300,0.27725300,0.27725300,0.27725300,0.27725300,0.27725300,0.27725300,0.27725300,0.27725300,-1.7499642e-05,-0.21263899,2.6512138,-0.00027294386,-1.6202593,-0.10946687,0.0019772042,-9.7510840,-0.70916734
0.27825300,0.27825300,0.27825300,0.27825300,0.27825300,0.27825300,0.27825300,0.27825300,0.27825300,-1.7771598e-05,-0.21426413,2.6511039,-0.00027096665,-1.6300102,-0.11017602,0.0019772119,-9.7507134,-0.70913821
0.27925300,0.27925300,0.27925300,0.27925300,0.27925300,0.27925300,0.27925300,0.27925300,0.27925300,-1.8041576e-05,-0.21589901,2.6509934,-0.00026898943,-1.6397607,-0.11088514,0.0019772189,-9.7503429,-0.70910889
0.28025300,0.28025300,0.28025300,0.28025300,0.28025300,0.28025300,0.28025300,0.28025300,0.28025300,-1.8309576e-05,-0.21754365,2.6508822,-0.00026701220,-1.6495109,-0.11159424,0.0019772251,-9.7499724,-0.70907937
0.28125300,0.28125300,0.28125300,0.28125300,0.28125300,0.28125300,0.28125300,0.28125300,0.28125300,-1.8575600e-05,-0.21919804,2.6507702,-0.00026503496,-1.6592607,-0.11230330,0.0019772306,-9.7496019,-0.70904966
0.28225300,0.28225300,0.28225300,0.28225300,0.28225300,0.28225300,0.28225300,0.28225300,0.28225300,-1.8839646e-05,-0.22086217,2.6506576,-0.00026305773,-1.6690101,-0.11301234,0.0019772353,-9.7492314,-0.70901975
0.28325300,0.28325300,0.28325300,0.28325300,0.28325300,0.28325300,0.28325300,0.28325300,0.28325300,-1.9101715e-05,-0.22253606,2.6505442,-0.00026108048,-1.6787591,-0.11372135,0.0019772393,-9.7488609,-0.70898965
0.28425300,0.28425300,0.28425300,0.28425300,0.28425300,0.28425300,0.28425300,0.28425300,0.28425300,-1.9361807e-05,-0.22421969,2.6504301,-0.00025910324,-1.6885078,-0.11443032,0.0019772425,-9.7484905,-0.70895936
0.28525300,0.28525300,0.28525300,0.28525300,0.28525300,0.28525300,0.28525300,0.28525300,0.28525300,-1.9619922e-05,-0.22591307,2.6503153,-0.00025712599,-1.6982561,-0.11513927,0.0019772450,-9.7481201,-0.70892887
0.28625300,0.28625300,0.28625300,0.28625300,0.28625300,0.28625300,0.28625300,0.28625300,0.28625300,-1.9876059e-05,-0.22761620,2.6501999,-0.00025514873,-1.7080041,-0.11584818,0.0019772467,-9.7477496,-0.70889819
0.28725300,0.28725300,0.28725300,0.28725300,0.28725300,0.28725300,0.28725300,0.28725300,0.28725300,-2.0130219e-05,-0.22932908,2.6500836,-0.00025317148,-1.7177517,-0.11655706,0.0019772477,-9.7473792,-0.70886732
0.28825300,0.28825300,0.28825300,0.28825300,0.28825300,0.28825300,0.28825300,0.28825300,0.28825300,-2.0395727e-05,-0.23105165,2.6499667,-0.00027123970,-1.7274113,-0.11726598,-0.011578339,-9.6886296,-0.70896292
0.28925300,0.28925300,0.28925300,0.28925300,0.28925300,0.28925300,0.28925300,0.28925300,0.28925300,-2.0668155e-05,-0.23278387,2.6498491,-0.00027591970,-1.7370536,-0.11797469,-0.0070474114,-9.6574628,-0.70888947
0.29025300,0.29025300,0.29025300,0.29025300,0.29025300,0.29025300,0.29025300,0.29025300,0.29025300,-2.0945110e-05,-0.23452574,2.6497308,-0.00027924412,-1.7466822,-0.11868056,-0.0046331561,-9.6380021,-0.70699449
0.29125300,0.29125300,0.29125300,0.29125300,0.29125300,0.29125300,0.29125300,0.29125300,0.29125300,-2.1224495e-05,-0.23627722,2.6496118,-0.00028061804,-1.7562973,-0.11938892,-0.0024982969,-9.6224548,-0.70804040
0.29225300,0.29225300,0.29225300,0.29225300,0.29225300,0.29225300,0.29225300,0.29225300,0.29225300,-2.1506408e-05,-0.23803831,2.6494920,-0.00028318765,-1.7658923,-0.12009758,-0.0025745420,-9.6038923,-0.70860983
0.29325300,0.29325300,0.29325300,0.29325300,0.29325300,0.29325300,0.29325300,0.29325300,0.29325300,-2.1792263e-05,-0.23980899,2.6493716,-0.00028783745,-1.7754796,-0.12080793,-0.0039844499,-9.5925448,-0.70994098
0.29425300,0.29425300,0.29425300,0.29425300,0.29425300,0.29425300,0.29425300,0.29425300,0.29425300,-2.2083182e-05,-0.24158925,2.6492504,-0.00029346011,-1.7850432,-0.12151867,-0.0051033229,-9.5729916,-0.71067853
0.29525300,0.29525300,0.29525300,0.29525300,0.29525300,0.29525300,0.29525300,0.29525300,0.29525300,-2.2381335e-05,-0.24337906,2.6491285,-0.00030178092,-1.7945790,-0.12223054,-0.0072776578,-9.5478824,-0.71171032
0.29625300,0.29625300,0.29625300,0.29625300,0.29625300,0.29625300,0.29625300,0.29625300,0.29625300,-2.2687290e-05,-0.24517838,2.6490059,-0.00030986824,-1.8040796,-0.12294250,-0.0078502470,-9.5160805,-0.71216084
0.29725300,0.29725300,0.29725300,0.29725300,0.29725300,0.29725300,0.29725300,0.29725300,0.29725300,-2.3002898e-05,-0.24698720,2.6488826,-0.00032044779,-1.8135656,-0.12365553,-0.0097061140,-9.4957700,-0.71305216
0.29825300,0.29825300,0.29825300,0.29825300,0.29825300,0.29825300,0.29825300,0.29825300,0.29825300,-2.3330044e-05,-0.24880549,2.6487586,-0.00033292989,-1.8230292,-0.12436974,-0.011598317,-9.4740481,-0.71416398
0.29925300,0.29925300,0.29925300,0.29925300,0.29925300,0.29925300,0.29925300,0.29925300,0.29925300,-2.3671058e-05,-0.25063322,2.6486339,-0.00034796403,-1.8324549,-0.12508595,-0.013929676,-9.4415269,-0.71591846
0.30025300,0.30025300,0.30025300,0.30025300,0.30025300,0.30025300,0.30025300,0.30025300,0.30025300,-2.4026967e-05,-0.25247036,2.6485084,-0.00036337216,-1.8418437,-0.12580394,-0.014958871,-9.4060505,-0.71773561
0.30125300,0.30125300,0.30125300,0.30125300,0.30125300,0.30125300,0.30125300,0.30125300,0.30125300,-2.4400789e-05,-0.25431686,2.6483823,-0.00038279647,-1.8511736,-0.12652417,-0.017985362,-9.3550022,-0.71990673
0.30225300,0.30225300,0.30225300,0.30225300,0.30225300,0.30225300,0.30225300,0.30225300,0.30225300,-2.4792940e-05,-0.25617265,2.6482554,-0.00040133521,-1.8604454,-0.12725083,-0.018409515,-9.2991991,-0.72499659
0.30325300,0.30325300,0.30325300,0.30325300,0.30325300,0.30325300,0.30325300,0.30325300,0.30325300,-2.5205363e-05,-0.25803771,2.6481278,-0.00042258110,-1.8696846,-0.12797777,-0.020357575,-9.2588654,-0.72693601
0.30425300,0.30425300,0.30425300,0.30425300,0.30425300,0.30425300,0.30425300,0.30425300,0.30425300,-2.5641873e-05,-0.25991196,2.6479994,-0.00044857567,-1.8788495,-0.12870861,-0.024179716,-9.1959348,-0.73026973
0.30525300,0.30525300,0.30525300,0.30525300,0.30525300,0.30525300,0.30525300,0.30525300,0.30525300,-2.6105286e-05,-0.26179534,2.6478704,-0.00047689183,-1.8879379,-0.12944817,-0.027007911,-9.1239297,-0.73729543
0.30625300,0.30625300,0.30625300,0.30625300,0.30625300,0.30625300,0.30625300,0.30625300,0.30625300,-2.6598372e-05,-0.26368775,2.6477405,-0.00050795085,-1.8969317,-0.13019481,-0.029787643,-9.0368150,-0.74447947
0.30725300,0.30725300,0.30725300,0.30725300,0.30725300,0.30725300,0.30725300,0.30725300,0.30725300,-2.7125973e-05,-0.26558911,2.6476100,-0.00054489007,-1.9058339,-0.13094434,-0.034642675,-8.9466680,-0.74893692
0.30825300,0.30825300,0.30825300,0.30825300,0.30825300,0.30825300,0.30825300,0.30825300,0.30825300,-2.7692504e-05,-0.26749931,2.6474786,-0.00058603217,-1.9146175,-0.13170231,-0.039072623,-8.8376200,-0.75619840
0.30925300,0.30925300,0.30925300,0.30925300,0.30925300,0.30925300,0.30925300,0.30925300,0.30925300,-2.8305101e-05,-0.26941822,2.6473466,-0.00063566926,-1.9232720,-0.13246999,-0.046224546,-8.7151107,-0.76526795
0.31025300,0.31025300,0.31025300,0.31025300,0.31025300,0.31025300,0.31025300,0.31025300,0.31025300,-2.8964058e-05,-0.27134573,2.6472137,-0.00068217935,-1.9318054,-0.13325468,-0.046529469,-8.5935845,-0.77979515
0.31125300,0.31125300,0.31125300,0.31125300,0.31125300,0.31125300,0.31125300,0.31125300,0.31125300,-2.9673051e-05,-0.27328169,2.6470800,-0.00073405762,-1.9401888,-0.13405104,-0.050221646,-8.4530413,-0.79261288
0.31225300,0.31225300,0.31225300,0.31225300,0.31225300,0.31225300,0.31225300,0.31225300,0.31225300,-3.0434409e-05,-0.27522597,2.6469456,-0.00078758897,-1.9484267,-0.13486150,-0.052555269,-8.3091228,-0.80649651
0.31325300,0.31325300,0.31325300,0.31325300,0.31325300,0.31325300,0.31325300,0.31325300,0.31325300,-3.1248589e-05,-0.27717842,2.6468103,-0.00084063868,-1.9565488,-0.13567975,-0.053010420,-8.1839865,-0.81648177
0.31425300,0.31425300,0.31425300,0.31425300,0.31425300,0.31425300,0.31425300,0.31425300,0.31425300,-3.2118944e-05,-0.27913891,2.6466742,-0.00089848869,-1.9645096,-0.13649243,-0.056360803,-8.0347008,-0.81633899
0.31525300,0.31525300,0.31525300,0.31525300,0.31525300,0.31525300,0.31525300,0.31525300,0.31525300,-3.3055605e-05,-0.28110728,2.6465373,-0.00096986170,-1.9723005,-0.13734024,-0.066492522,-7.8716454,-0.83991630
0.31625300,0.31625300,0.31625300,0.31625300,0.31625300,0.31625300,0.31625300,0.31625300,0.31625300,-3.4068062e-05,-0.28308335,2.6463995,-0.0010504041,-1.9799308,-0.13821075,-0.075988241,-7.7102093,-0.86311940
0.31725300,0.31725300,0.31725300,0.31725300,0.31725300,0.31725300,0.31725300,0.31725300,0.31725300,-3.5162014e-05,-0.28506696,2.6462609,-0.0011347445,-1.9873735,-0.13910527,-0.081672669,-7.5312669,-0.88710555
0.31825300,0.31825300,0.31825300,0.31825300,0.31825300,0.31825300,0.31825300,0.31825300,0.31825300,-3.6340957e-05,-0.28705790,2.6461213,-0.0012214773,-1.9945980,-0.14002318,-0.085141412,-7.3261619,-0.91097790
0.31925300,0.31925300,0.31925300,0.31925300,0.31925300,0.31925300,0.31925300,0.31925300,0.31925300,-3.7603713e-05,-0.28905593,2.6459808,-0.0013046984,-2.0015839,-0.14096501,-0.083948446,-7.0986707,-0.93520049
0.32025300,0.32025300,0.32025300,0.32025300,0.32025300,0.32025300,0.32025300,0.32025300,0.32025300,-3.8957885e-05,-0.29106082,2.6458393,-0.0013998831,-2.0083118,-0.14193463,-0.091427381,-6.8507978,-0.96215854
0.32125300,0.32125300,0.32125300,0.32125300,0.32125300,0.32125300,0.32125300,0.32125300,0.32125300,-4.0405345e-05,-0.29307227,2.6456969,-0.0014940909,-2.0147379,-0.14294354,-0.093228264,-6.5669974,-0.99774395
0.32225300,0.32225300,0.32225300,0.32225300,0.32225300,0.32225300,0.32225300,0.32225300,0.32225300,-4.1945892e-05,-0.29508997,2.6455534,-0.0015870634,-2.0208178,-0.14400362,-0.092971454,-6.2414474,-1.0441687
0.32325300,0.32325300,0.32325300,0.32325300,0.32325300,0.32325300,0.32325300,0.32325300,0.32325300,-4.3579796e-05,-0.29711365,2.6454088,-0.0016805462,-2.0266714,-0.14509106,-0.093201117,-5.9820851,-1.0782432
0.32425300,0.32425300,0.32425300,0.32425300,0.32425300,0.32425300,0.32425300,0.32425300,0.32425300,-4.5314825e-05,-0.29914302,2.6452632,-0.0017855459,-2.0322182,-0.14621601,-0.10093937,-5.6910429,-1.1150386
0.32525300,0.32525300,0.32525300,0.32525300,0.32525300,0.32525300,0.32525300,0.32525300,0.32525300,-4.7171517e-05,-0.30117784,2.6451164,-0.0019174764,-2.0375413,-0.14731244,-0.12146659,-5.4448132,-1.1086467
0.32625300,0.32625300,0.32625300,0.32625300,0.32625300,0.32625300,0.32625300,0.32625300,0.32625300,-4.9158941e-05,-0.30321781,2.6449686,-0.0020527362,-2.0425489,-0.14844120,-0.13051128,-5.1523989,-1.1284999
0.32725300,0.32725300,0.32725300,0.32725300,0.32725300,0.32725300,0.32725300,0.32725300,0.32725300,-5.1281123e-05,-0.30526261,2.6448195,-0.0021895012,-2.0472151,-0.14960429,-0.13451172,-4.8271971,-1.1584917
0.32825300,0.32825300,0.32825300,0.32825300,0.32825300,0.32825300,0.32825300,0.32825300,0.32825300,-5.3565180e-05,-0.30731196,2.6446694,-0.0023649277,-2.0516199,-0.15071803,-0.16160772,-4.5445309,-1.1361957
0.32925300,0.32925300,0.32925300,0.32925300,0.32925300,0.32925300,0.32925300,0.32925300,0.32925300,-5.6001496e-05,-0.30936542,2.6445180,-0.0025123722,-2.0555135,-0.15200738,-0.15195810,-4.1094291,-1.2462248
0.33025300,0.33025300,0.33025300,0.33025300,0.33025300,0.33025300,0.33025300,0.33025300,0.33025300,-5.8581132e-05,-0.31142276,2.6443653,-0.0026512112,-2.0592824,-0.15334709,-0.14298294,-3.8812035,-1.3166821
0.33125300,0.33125300,0.33125300,0.33125300,0.33125300,0.33125300,0.33125300,0.33125300,0.33125300,-6.1274798e-05,-0.31348367,2.6442112,-0.0027505829,-2.0626965,-0.15473558,-0.11363493,-3.5685989,-1.3731063
0.33225300,0.33225300,0.33225300,0.33225300,0.33225300,0.33225300,0.33225300,0.33225300,0.33225300,-6.4074745e-05,-0.31554780,2.6440558,-0.0028529776,-2.0657378,-0.15617669,-0.10584170,-3.2157929,-1.4274999
0.33325300,0.33325300,0.33325300,0.33325300,0.33325300,0.33325300,0.33325300,0.33325300,0.33325300,-6.6974763e-05,-0.31761479,2.6438988,-0.0029499332,-2.0684117,-0.15768827,-0.099595260,-2.8531484,-1.4931508
0.33425300,0.33425300,0.33425300,0.33425300,0.33425300,0.33425300,0.33425300,0.33425300,0.33425300,-6.9968299e-05,-0.31968424,2.6437404,-0.0030401642,-2.0706921,-0.15926025,-0.093001701,-2.4698876,-1.5558933
0.33525300,0.33525300,0.33525300,0.33525300,0.33525300,0.33525300,0.33525300,0.33525300,0.33525300,-7.3074985e-05,-0.32175579,2.6435803,-0.0031631271,-2.0725937,-0.16089002,-0.11262472,-2.0894706,-1.6159358
0.33625300,0.33625300,0.33625300,0.33625300,0.33625300,0.33625300,0.33625300,0.33625300,0.33625300,-7.6334098e-05,-0.32382913,2.6434185,-0.0033351993,-2.0742353,-0.16257633,-0.15193643,-1.7893568,-1.6741462
0.33725300,0.33725300,0.33725300,0.33725300,0.33725300,0.33725300,0.33725300,0.33725300,0.33725300,-7.9738272e-05,-0.32590393,2.6432551,-0.0034765717,-2.0755208,-0.16433126,-0.14454743,-1.4517329,-1.7399265
0.33825300,0.33825300,0.33825300,0.33825300,0.33825300,0.33825300,0.33825300,0.33825300,0.33825300,-8.3280534e-05,-0.32797981,2.6430898,-0.0036111620,-2.0764220,-0.16615214,-0.13753197,-1.0829830,-1.8064651
0.33925300,0.33925300,0.33925300,0.33925300,0.33925300,0.33925300,0.33925300,0.33925300,0.33925300,-8.6926595e-05,-0.33005643,2.6429227,-0.0036978332,-2.0769946,-0.16807549,-0.10331859,-0.74087687,-1.8976807
0.34025300,0.34025300,0.34025300,0.34025300,0.34025300,0.34025300,0.34025300,0.34025300,0.34025300,-9.0671495e-05,-0.33213343,2.6427536,-0.0037942022,-2.0771869,-0.17008003,-0.098401487,-0.37320370,-1.9829084
0.34125300,0.34125300,0.34125300,0.34125300,0.34125300,0.34125300,0.34125300,0.34125300,0.34125300,-9.4494823e-05,-0.33421047,2.6425825,-0.0038624204,-2.0770577,-0.17203776,-0.077975655,-0.036226042,-1.9807740
0.34225300,0.34225300,0.34225300,0.34225300,0.34225300,0.34225300,0.34225300,0.34225300,0.34225300,-9.8381464e-05,-0.33628718,2.6424095,-0.0039181643,-2.0765438,-0.17405967,-0.062822653,0.33267078,-2.0235443
0.34325300,0.34325300,0.34325300,0.34325300,0.34325300,0.34325300,0.34325300,0.34325300,0.34325300,-0.00010230388,-0.33836317,2.6422344,-0.0039401507,-2.0756323,-0.17613259,-0.035229654,0.72078612,-2.0725290
0.34425300,0.34425300,0.34425300,0.34425300,0.34425300,0.34425300,0.34425300,0.34425300,0.34425300,-0.00010626594,-0.34043807,2.6420572,-0.0039817306,-2.0743427,-0.17828491,-0.039081380,1.1023125,-2.1425195
0.34525300,0.34525300,0.34525300,0.34525300,0.34525300,0.34525300,0.34525300,0.34525300,0.34525300,-0.00011028871,-0.34251149,2.6418778,-0.0040530139,-2.0726946,-0.18050511,-0.060289052,1.4686070,-2.2118458
0.34625300,0.34625300,0.34625300,0.34625300,0.34625300,0.34625300,0.34625300,0.34625300,0.34625300,-0.00011432344,-0.34458311,2.6416961,-0.0040406540,-2.0707059,-0.18282607,-0.011823091,1.8178935,-2.3028577
0.34725300,0.34725300,0.34725300,0.34725300,0.34725300,0.34725300,0.34725300,0.34725300,0.34725300,-0.00011832033,-0.34665255,2.6415120,-0.0039779766,-2.0683581,-0.18522856,0.037745176,2.1738601,-2.3882697
0.34825300,0.34825300,0.34825300,0.34825300,0.34825300,0.34825300,0.34825300,0.34825300,0.34825300,-0.00012211947,-0.34871978,2.6413257,-0.0037001729,-2.0661216,-0.18747224,0.19807208,2.2183938,-2.3114647
0.34925300,0.34925300,0.34925300,0.34925300,0.34925300,0.34925300,0.34925300,0.34925300,0.34925300,-0.00012569734,-0.35078471,2.6411371,-0.0034672842,-2.0637825,-0.18975220,0.22103161,2.3016625,-2.3102288
0.35025300,0.35025300,0.35025300,0.35025300,0.35025300,0.35025300,0.35025300,0.35025300,0.35025300,-0.00012922539,-0.35284710,2.6409463,-0.0035031965,-2.0611157,-0.19189707,0.049511437,2.5478241,-2.2192240
0.35125300,0.35125300,0.35125300,0.35125300,0.35125300,0.35125300,0.35125300,0.35125300,0.35125300,-0.00013252408,-0.35490642,2.6407531,-0.0031840396,-2.0577857,-0.19448565,0.22919856,3.0719854,-2.4837310
0.35225300,0.35225300,0.35225300,0.35225300,0.35225300,0.35225300,0.35225300,0.35225300,0.35225300,-0.00013549788,-0.35696232,2.6405572,-0.0028113570,-2.0541866,-0.19718587,0.32482645,3.4260290,-2.6460949
0.35325300,0.35325300,0.35325300,0.35325300,0.35325300,0.35325300,0.35325300,0.35325300,0.35325300,-0.00013806286,-0.35901453,2.6403586,-0.0023605546,-2.0503583,-0.19998487,0.40885849,3.6969526,-2.7660842
0.35425300,0.35425300,0.35425300,0.35425300,0.35425300,0.35425300,0.35425300,0.35425300,0.35425300,-0.00014013733,-0.36106283,2.6401572,-0.0018291763,-2.0463479,-0.20283492,0.49060261,3.9086098,-2.8402564
0.35525300,0.35525300,0.35525300,0.35525300,0.35525300,0.35525300,0.35525300,0.35525300,0.35525300,-0.00014165575,-0.36310706,2.6399529,-0.0012403194,-2.0421914,-0.20576840,0.55630433,4.0766946,-2.9207939
0.35625300,0.35625300,0.35625300,0.35625300,0.35625300,0.35625300,0.35625300,0.35625300,0.35625300,-0.00014225028,-0.36514709,2.6397457,-0.00013236827,-2.0379240,-0.20868134,0.92473354,4.2066631,-2.9339978
0.35725300,0.35725300,0.35725300,0.35725300,0.35725300,0.35725300,0.35725300,0.35725300,0.35725300,-0.00014172205,-0.36718282,2.6395358,0.0010899185,-2.0335873,-0.21119877,1.1239134,4.2961690,-2.6742303
0.35825300,0.35825300,0.35825300,0.35825300,0.35825300,0.35825300,0.35825300,0.35825300,0.35825300,-0.00014002318,-0.36921435,2.6393235,0.0022845390,-2.0294242,-0.21351443,1.1720007,4.2101790,-2.4527886
0.35925300,0.35925300,0.35925300,0.35925300,0.35925300,0.35925300,0.35925300,0.35925300,0.35925300,-0.00013748376,-0.37124186,2.6391087,0.0029601910,-2.0254960,-0.21604562,0.84243620,4.0249447,-2.5222204
0.36025300,0.36025300,0.36025300,0.36025300,0.36025300,0.36025300,0.36025300,0.36025300,0.36025300,-0.00013404763,-0.37326563,2.6388913,0.0038851315,-2.0219095,-0.21873661,0.89923436,3.7354013,-2.6513788
0.36125300,0.36125300,0.36125300,0.36125300,0.36125300,0.36125300,0.36125300,0.36125300,0.36125300,-0.00012969295,-0.37528612,2.6386711,0.0048145043,-2.0188385,-0.22157822,0.92063954,3.2950933,-2.7943215
0.36225300,0.36225300,0.36225300,0.36225300,0.36225300,0.36225300,0.36225300,0.36225300,0.36225300,-0.00012453730,-0.37730365,2.6384480,0.0055566365,-2.0160512,-0.22454176,0.80288300,2.9592246,-2.9229469
0.36325300,0.36325300,0.36325300,0.36325300,0.36325300,0.36325300,0.36325300,0.36325300,0.36325300,-0.00011861187,-0.37931845,2.6382219,0.0063106872,-2.0134383,-0.22761863,0.77115222,2.7310122,-3.0411997
0.36425300,0.36425300,0.36425300,0.36425300,0.36425300,0.36425300,0.36425300,0.36425300,0.36425300,-0.00011203408,-0.38133060,2.6379927,0.0069041962,-2.0108234,-0.23078125,0.65317365,2.6562890,-3.1377674
0.36525300,0.36525300,0.36525300,0.36525300,0.36525300,0.36525300,0.36525300,0.36525300,0.36525300,-0.00010483949,-0.38334012,2.6377603,0.0075031193,-2.0081929,-0.23402305,0.61721861,2.6418083,-3.2228099
0.36625300,0.36625300,0.36625300,0.36625300,0.36625300,0.36625300,0.36625300,0.36625300,0.36625300,-9.7066399e-05,-0.38534705,2.6375246,0.0080623932,-2.0056412,-0.23727912,0.57857180,2.5844370,-3.2607610
0.36725300,0.36725300,0.36725300,0.36725300,0.36725300,0.36725300,0.36725300,0.36725300,0.36725300,-8.8776024e-05,-0.38735139,2.6372857,0.0085489969,-2.0030401,-0.24062288,0.51709711,2.5983395,-3.3319898
0.36825300,0.36825300,0.36825300,0.36825300,0.36825300,0.36825300,0.36825300,0.36825300,0.36825300,-7.9970542e-05,-0.38935313,2.6370434,0.0090630131,-2.0004381,-0.24396931,0.51491307,2.6035843,-3.3576143
0.36925300,0.36925300,0.36925300,0.36925300,0.36925300,0.36925300,0.36925300,0.36925300,0.36925300,-7.0417052e-05,-0.39135240,2.6367978,0.0099275875,-1.9980436,-0.24725956,0.74827125,2.4670293,-3.3288881
0.37025300,0.37025300,0.37025300,0.37025300,0.37025300,0.37025300,0.37025300,0.37025300,0.37025300,-5.9842839e-05,-0.39334942,2.6365489,0.011084786,-1.9958854,-0.25049188,1.0214646,2.2640840,-3.2809074
0.37125300,0.37125300,0.37125300,0.37125300,0.37125300,0.37125300,0.37125300,0.37125300,0.37125300,-4.8191128e-05,-0.39534443,2.6362969,0.012190732,-1.9939971,-0.25361769,1.0784745,2.0165087,-3.1941209
0.37225300,0.37225300,0.37225300,0.37225300,0.37225300,0.37225300,0.37225300,0.37225300,0.37225300,-3.5439905e-05,-0.39733760,2.6360417,0.013301288,-1.9922521,-0.25675898,1.1006289,1.8385581,-3.1756357
0.37325300,0.37325300,0.37325300,0.37325300,0.37325300,0.37325300,0.37325300,0.37325300,0.37325300,-2.1615316e-05,-0.39932905,2.6357834,0.014361590,-1.9905949,-0.25988364,1.0745148,1.7207025,-3.1584363
0.37425300,0.37425300,0.37425300,0.37425300,0.37425300,0.37425300,0.37425300,0.37425300,0.37425300,-6.6616737e-06,-0.40131871,2.6355219,0.015518453,-1.9887568,-0.26312723,1.1300657,1.8020595,-3.2321213
0.37525300,0.37525300,0.37525300,0.37525300,0.37525300,0.37525300,0.37525300,0.37525300,0.37525300,9.3339230e-06,-0.40330641,2.6352571,0.016516866,-1.9867284,-0.26651596,1.0429941,1.9560668,-3.3535384
0.37625300,0.37625300,0.37625300,0.37625300,0.37625300,0.37625300,0.37625300,0.37625300,0.37625300,2.6148822e-05,-0.40529216,2.6349888,0.017224842,-1.9847645,-0.26990587,0.82033448,1.9644535,-3.3948739
0.37725300,0.37725300,0.37725300,0.37725300,0.37725300,0.37725300,0.37725300,0.37725300,0.37725300,4.3657508e-05,-0.40727607,2.6347173,0.017855860,-1.9829852,-0.27328702,0.69476998,1.8442334,-3.4028181
0.37825300,0.37825300,0.37825300,0.37825300,0.37825300,0.37825300,0.37825300,0.37825300,0.37825300,6.1818308e-05,-0.40925817,2.6344423,0.018487124,-1.9812065,-0.27667527,0.65304449,1.8037948,-3.4102475
0.37925300,0.37925300,0.37925300,0.37925300,0.37925300,0.37925300,0.37925300,0.37925300,0.37925300,8.0589770e-05,-0.41123853,2.6341639,0.019077074,-1.9794840,-0.28007321,0.61164121,1.7528625,-3.4191697
0.38025300,0.38025300,0.38025300,0.38025300,0.38025300,0.38025300,0.38025300,0.38025300,0.38025300,9.9978883e-05,-0.41321717,2.6338821,0.019698207,-1.9777799,-0.28347672,0.61858204,1.7235985,-3.4259111
0.38125300,0.38125300,0.38125300,0.38125300,0.38125300,0.38125300,0.38125300,0.38125300,0.38125300,0.00012001209,-0.41519403,2.6335969,0.020355530,-1.9759665,-0.28694361,0.64504325,1.7868217,-3.4704093
0.38225300,0.38225300,0.38225300,0.38225300,0.38225300,0.38225300,0.38225300,0.38225300,0.38225300,0.00014054217,-0.41716901,2.6333083,0.020778858,-1.9740342,-0.29042044,0.49810477,1.8871449,-3.4920175
0.38325300,0.38325300,0.38325300,0.38325300,0.38325300,0.38325300,0.38325300,0.38325300,0.38325300,0.00016133225,-0.41914191,2.6330161,0.020920646,-1.9718675,-0.29388239,0.26207675,2.0769671,-3.4896028
0.38425300,0.38425300,0.38425300,0.38425300,0.38425300,0.38425300,0.38425300,0.38425300,0.38425300,0.00018221859,-0.42111255,2.6327205,0.020935303,-1.9694957,-0.29735914,0.099423894,2.2770676,-3.4991399
0.38525300,0.38525300,0.38525300,0.38525300,0.38525300,0.38525300,0.38525300,0.38525300,0.38525300,0.00020296290,-0.42308063,2.6324214,0.020674201,-1.9667993,-0.30085513,-0.13859615,2.5602434,-3.5155830
0.38625300,0.38625300,0.38625300,0.38625300,0.38625300,0.38625300,0.38625300,0.38625300,0.38625300,0.00022330781,-0.42504594,2.6321188,0.020145979,-1.9639243,-0.30431079,-0.39650542,2.7737660,-3.4946631
0.38725300,0.38725300,0.38725300,0.38725300,0.38725300,0.38725300,0.38725300,0.38725300,0.38725300,0.00024330400,-0.42700835,2.6318128,0.019822439,-1.9609591,-0.30777636,-0.34654619,2.9052321,-3.4948700
0.38825300,0.38825300,0.38825300,0.38825300,0.38825300,0.38825300,0.38825300,0.38825300,0.38825300,0.00026334606,-0.42896766,2.6315033,0.020065558,-1.9577665,-0.31130030,0.047904656,3.1007648,-3.5343986
0.38925300,0.38925300,0.38925300,0.38925300,0.38925300,0.38925300,0.38925300,0.38925300,0.38925300,0.00028377193,-0.43092361,2.6311901,0.020618433,-1.9542575,-0.31497532,0.38617886,3.3769902,-3.6487394
0.39025300,0.39025300,0.39025300,0.39025300,0.39025300,0.39025300,0.39025300,0.39025300,0.39025300,0.00030464307,-0.43287587,2.6308732,0.021094527,-1.9504116,-0.31881507,0.44800815,3.6937604,-3.7970225
0.39125300,0.39125300,0.39125300,0.39125300,0.39125300,0.39125300,0.39125300,0.39125300,0.39125300,0.00032585506,-0.43482414,2.6305523,0.021383167,-1.9462748,-0.32283340,0.34354273,3.9934066,-3.9658548
0.39225300,0.39225300,0.39225300,0.39225300,0.39225300,0.39225300,0.39225300,0.39225300,0.39225300,0.00034735119,-0.43676814,2.6302275,0.021638949,-1.9418713,-0.32686279,0.28685102,4.2711067,-4.0298186
0.39325300,0.39325300,0.39325300,0.39325300,0.39325300,0.39325300,0.39325300,0.39325300,0.39325300,0.00036904952,-0.43870766,2.6298985,0.021800273,-1.9372701,-0.33103623,0.20524201,4.4956757,-4.1480514
0.39425300,0.39425300,0.39425300,0.39425300,0.39425300,0.39425300,0.39425300,0.39425300,0.39425300,0.00039082471,-0.44064258,2.6295653,0.021814440,-1.9326254,-0.33529892,0.079769171,4.5996799,-4.2477913
0.39525300,0.39525300,0.39525300,0.39525300,0.39525300,0.39525300,0.39525300,0.39525300,0.39525300,0.00041258890,-0.44257298,2.6292278,0.021759392,-1.9281297,-0.33963966,-0.0085678543,4.5351934,-4.3343019
0.39625300,0.39625300,0.39625300,0.39625300,0.39625300,0.39625300,0.39625300,0.39625300,0.39625300,0.00043419416,-0.44449905,2.6288860,0.021526089,-1.9239086,-0.34403706,-0.15816097,4.3309390,-4.4020737
0.39725300,0.39725300,0.39725300,0.39725300,0.39725300,0.39725300,0.39725300,0.39725300,0.39725300,0.00045540398,-0.44642107,2.6285397,0.021011961,-1.9199839,-0.34848674,-0.39637807,4.0652794,-4.4602166
0.39825300,0.39825300,0.39825300,0.39825300,0.39825300,0.39825300,0.39825300,0.39825300,0.39825300,0.00047601850,-0.44833935,2.6281890,0.020316320,-1.9164150,-0.35296693,-0.59794242,3.7397102,-4.5003139
0.39925300,0.39925300,0.39925300,0.39925300,0.39925300,0.39925300,0.39925300,0.39925300,0.39925300,0.00049593952,-0.45025425,2.6278338,0.019573463,-1.9132029,-0.35745172,-0.69706749,3.3932700,-4.5166272
0.40025300,0.40025300,0.40025300,0.40025300,0.40025300,0.40025300,0.40025300,0.40025300,0.40025300,0.00051512715,-0.45216614,2.6274742,0.018820005,-1.9103915,-0.36190005,-0.73746619,3.0107005,-4.4973835
0.40125300,0.40125300,0.40125300,0.40125300,0.40125300,0.40125300,0.40125300,0.40125300,0.40125300,0.00053355014,-0.45407542,2.6271100,0.018039640,-1.9079602,-0.36634352,-0.76902081,2.6297223,-4.4872087
0.40225300,0.40225300,0.40225300,0.40225300,0.40225300,0.40225300,0.40225300,0.40225300,0.40225300,0.00055119655,-0.45598245,2.6267415,0.017257056,-1.9059155,-0.37075567,-0.78113604,2.2449434,-4.4623379
0.40325300,0.40325300,0.40325300,0.40325300,0.40325300,0.40325300,0.40325300,0.40325300,0.40325300,0.00056805036,-0.45788765,2.6263686,0.016456397,-1.9042753,-0.37505082,-0.79726255,1.8469327,-4.3750704
0.40425300,0.40425300,0.40425300,0.40425300,0.40425300,0.40425300,0.40425300,0.40425300,0.40425300,0.00058410189,-0.45979138,2.6259915,0.015649273,-1.9029860,-0.37928386,-0.80692801,1.4802308,-4.3037282
0.40525300,0.40525300,0.40525300,0.40525300,0.40525300,0.40525300,0.40525300,0.40525300,0.40525300,0.00059935226,-0.46169403,2.6256102,0.014848676,-1.9021089,-0.38347367,-0.80577112,1.0830640,-4.2503329
0.40625300,0.40625300,0.40625300,0.40625300,0.40625300,0.40625300,0.40625300,0.40625300,0.40625300,0.00061381084,-0.46359598,2.6252246,0.014061569,-1.9016023,-0.38761276,-0.79637148,0.70368473,-4.1979556
0.40725300,0.40725300,0.40725300,0.40725300,0.40725300,0.40725300,0.40725300,0.40725300,0.40725300,0.00062748254,-0.46549758,2.6248350,0.013277138,-1.9014176,-0.39172447,-0.79144241,0.36247178,-4.1615961
0.40825300,0.40825300,0.40825300,0.40825300,0.40825300,0.40825300,0.40825300,0.40825300,0.40825300,0.00064038241,-0.46739919,2.6244412,0.012512836,-1.9016108,-0.39581609,-0.77638130,-0.0032014265,-4.1353949
0.40925300,0.40925300,0.40925300,0.40925300,0.40925300,0.40925300,0.40925300,0.40925300,0.40925300,0.00065251598,-0.46930118,2.6240434,0.011749322,-1.9021806,-0.39985909,-0.77075220,-0.37627483,-4.0935102
0.41025300,0.41025300,0.41025300,0.41025300,0.41025300,0.41025300,0.41025300,0.41025300,0.41025300,0.00066389918,-0.47120395,2.6236416,0.011006915,-1.9031579,-0.40384969,-0.75475177,-0.77232521,-4.0438038
0.41125300,0.41125300,0.41125300,0.41125300,0.41125300,0.41125300,0.41125300,0.41125300,0.41125300,0.00067454765,-0.47310790,2.6232358,0.010280050,-1.9045391,-0.40777932,-0.73897684,-1.1738026,-3.9857660
0.41225300,0.41225300,0.41225300,0.41225300,0.41225300,0.41225300,0.41225300,0.41225300,0.41225300,0.00068447521,-0.47501339,2.6228261,0.0095660529,-1.9062612,-0.41167638,-0.72508295,-1.5349221,-3.9440006
0.41325300,0.41325300,0.41325300,0.41325300,0.41325300,0.41325300,0.41325300,0.41325300,0.41325300,0.00069367030,-0.47692075,2.6224125,0.0088277961,-1.9082864,-0.41555304,-0.73671791,-1.8574482,-3.9158723
0.41425300,0.41425300,0.41425300,0.41425300,0.41425300,0.41425300,0.41425300,0.41425300,0.41425300,0.00070217452,-0.47883018,2.6219951,0.0081577536,-1.9104663,-0.41935111,-0.69495093,-2.0681780,-3.8532495
0.41525300,0.41525300,0.41525300,0.41525300,0.41525300,0.41525300,0.41525300,0.41525300,0.41525300,0.00071000979,-0.48074200,2.6215739,0.0074997874,-1.9130153,-0.42308517,-0.67290790,-2.3846368,-3.7888579
0.41625300,0.41625300,0.41625300,0.41625300,0.41625300,0.41625300,0.41625300,0.41625300,0.41625300,0.00071720523,-0.48265659,2.6211490,0.0068745666,-1.9159663,-0.42676955,-0.64361441,-2.7582066,-3.7334603
0.41725300,0.41725300,0.41725300,0.41725300,0.41725300,0.41725300,0.41725300,0.41725300,0.41725300,0.00072378105,-0.48457432,2.6207204,0.0062650806,-1.9193100,-0.43040441,-0.62323752,-3.1445786,-3.6811896
0.41825300,0.41825300,0.41825300,0.41825300,0.41825300,0.41825300,0.41825300,0.41825300,0.41825300,0.00072975707,-0.48649557,2.6202882,0.0056752475,-1.9230046,-0.43398466,-0.60323814,-3.5074975,-3.6265697
0.41925300,0.41925300,0.41925300,0.41925300,0.41925300,0.41925300,0.41925300,0.41925300,0.41925300,0.00073515056,-0.48842068,2.6198525,0.0051013914,-1.9270390,-0.43751288,-0.58581392,-3.8550815,-3.5729123
0.42025300,0.42025300,0.42025300,0.42025300,0.42025300,0.42025300,0.42025300,0.42025300,0.42025300,0.00073998473,-0.49035000,2.6194133,0.0045536959,-1.9314176,-0.44098402,-0.56245040,-4.2005198,-3.5162346
0.42125300,0.42125300,0.42125300,0.42125300,0.42125300,0.42125300,0.42125300,0.42125300,0.42125300,0.00074428571,-0.49228386,2.6189706,0.0040336302,-1.9361344,-0.44440867,-0.53613064,-4.5412306,-3.4656267
0.42225300,0.42225300,0.42225300,0.42225300,0.42225300,0.42225300,0.42225300,0.42225300,0.42225300,0.00074806901,-0.49422260,2.6185245,0.0035237497,-1.9411751,-0.44778981,-0.52048182,-4.8708704,-3.4190700
0.42325300,0.42325300,0.42325300,0.42325300,0.42325300,0.42325300,0.42325300,0.42325300,0.42325300,0.00075134979,-0.49616653,2.6180751,0.0030288237,-1.9465193,-0.45112317,-0.50521554,-5.1831702,-3.3710124
0.42425300,0.42425300,0.42425300,0.42425300,0.42425300,0.42425300,0.42425300,0.42425300,0.42425300,0.00075414065,-0.49811594,2.6176223,0.0025452496,-1.9521591,-0.45439722,-0.49241567,-5.4844230,-3.3147403
0.42525300,0.42525300,0.42525300,0.42525300,0.42525300,0.42525300,0.42525300,0.42525300,0.42525300,0.00075645842,-0.50007113,2.6171663,0.0020806388,-1.9580693,-0.45761669,-0.47539329,-5.7652503,-3.2589277
0.42625300,0.42625300,0.42625300,0.42625300,0.42625300,0.42625300,0.42625300,0.42625300,0.42625300,0.00075832424,-0.50203233,2.6167071,0.0016392785,-1.9642106,-0.46079617,-0.45412693,-6.0129990,-3.2130740
