W-Moorer/sdf-nsc/assets/rev_joint_clearance/data/body2_ideal.csv
X:Pos_TX-Body2-rev_clearance_joint_ideal(m),X:Pos_TY-Body2-rev_clearance_joint_ideal(m),X:Pos_TZ-Body2-rev_clearance_joint_ideal(m),X:Vel_TX-Body2-rev_clearance_joint_ideal(m/s),X:Vel_TY-Body2-rev_clearance_joint_ideal(m/s),X:Vel_TZ-Body2-rev_clearance_joint_ideal(m/s),X:Acc_TX-Body2-rev_clearance_joint_ideal(m/s^2),X:Acc_TY-Body2-rev_clearance_joint_ideal(m/s^2),X:Acc_TZ-Body2-rev_clearance_joint_ideal(m/s^2),Y:Pos_TX-Body2-rev_clearance_joint_ideal(m),Y:Pos_TY-Body2-rev_clearance_joint_ideal(m),Y:Pos_TZ-Body2-rev_clearance_joint_ideal(m),Y:Vel_TX-Body2-rev_clearance_joint_ideal(m/s),Y:Vel_TY-Body2-rev_clearance_joint_ideal(m/s),Y:Vel_TZ-Body2-rev_clearance_joint_ideal(m/s),Y:Acc_TX-Body2-rev_clearance_joint_ideal(m/s^2),Y:Acc_TY-Body2-rev_clearance_joint_ideal(m/s^2),Y:Acc_TZ-Body2-rev_clearance_joint_ideal(m/s^2)
0.0000000,0.0000000,0.0000000,0.0000000,0.0000000,0.0000000,0.0000000,0.0000000,0.0000000,1.6438863e-06,8.3558826e-05,2.6598360,0.0000000,0.0000000,0.0000000,1.9117636e-14,-5.4753366,0.00017200786
0.00010100000,0.00010100000,0.00010100000,0.00010100000,0.00010100000,0.00010100000,0.00010100000,0.00010100000,0.00010100000,1.6438863e-06,8.3530899e-05,2.6598360,1.9308812e-18,-0.00055300900,1.7366988e-08,1.9117636e-14,-5.4753366,0.00017183540
0.00021300000,0.00021300000,0.00021300000,0.00021300000,0.00021300000,0.00021300000,0.00021300000,0.00021300000,0.00021300000,1.6438863e-06,8.3434620e-05,2.6598360,4.0720563e-18,-0.0011662467,3.6583215e-08,1.9117633e-14,-5.4753366,0.00017124082
0.00030900000,0.00030900000,0.00030900000,0.00030900000,0.00030900000,0.00030900000,0.00030900000,0.00030900000,0.00030900000,1.6438863e-06,8.3297430e-05,2.6598360,5.9073490e-18,-0.0016918790,5.2984160e-08,1.9117631e-14,-5.4753366,0.00017039360
0.00040500000,0.00040500000,0.00040500000,0.00040500000,0.00040500000,0.00040500000,0.00040500000,0.00040500000,0.00040500000,1.6438863e-06,8.3109780e-05,2.6598360,7.7426413e-18,-0.0022175113,6.9288813e-08,1.9117626e-14,-5.4753366,0.00016923474
0.00050100000,0.00050100000,0.00050100000,0.00050100000,0.00050100000,0.00050100000,0.00050100000,0.00050100000,0.00050100000,1.6438863e-06,8.2871668e-05,2.6598360,9.5779332e-18,-0.0027431436,8.5467259e-08,1.9117621e-14,-5.4753366,0.00016776427
0.00062900000,0.00062900000,0.00062900000,0.00062900000,0.00062900000,0.00062900000,0.00062900000,0.00062900000,0.00062900000,1.6438863e-06,8.2475692e-05,2.6598360,1.2024988e-17,-0.0034439867,1.0679049e-07,1.9117613e-14,-5.4753366,0.00016531889
0.00075700000,0.00075700000,0.00075700000,0.00075700000,0.00075700000,0.00075700000,0.00075700000,0.00075700000,0.00075700000,1.6438863e-06,8.1990008e-05,2.6598360,1.4472042e-17,-0.0041448298,1.2776526e-07,1.9117602e-14,-5.4753366,0.00016231951
0.00082100000,0.00082100000,0.00082100000,0.00082100000,0.00082100000,0.00082100000,0.00082100000,0.00082100000,0.00082100000,1.6438863e-06,8.1713525e-05,2.6598360,1.5695568e-17,-0.0044952514,1.3809981e-07,1.9117596e-14,-5.4753366,0.00016061207
0.00094900000,0.00094900000,0.00094900000,0.00094900000,0.00094900000,0.00094900000,0.00094900000,0.00094900000,0.00094900000,1.6438863e-06,8.1093279e-05,2.6598360,1.8142620e-17,-0.0051960944,1.5841892e-07,1.9117583e-14,-5.4753366,0.00015678170
0.0010130000,0.0010130000,0.0010130000,0.0010130000,0.0010130000,0.0010130000,0.0010130000,0.0010130000,0.0010130000,1.6438863e-06,8.0749515e-05,2.6598360,1.9366145e-17,-0.0055465160,1.6838575e-07,1.9117576e-14,-5.4753366,0.00015465876
0.0011410000,0.0011410000,0.0011410000,0.0011410000,0.0011410000,0.0011410000,0.0011410000,0.0011410000,0.0011410000,1.6438863e-06,7.9994707e-05,2.6598360,2.1813194e-17,-0.0062473591,1.8788965e-07,1.9117559e-14,-5.4753366,0.00014999739
0.0012050000,0.0012050000,0.0012050000,0.0012050000,0.0012050000,0.0012050000,0.0012050000,0.0012050000,0.0012050000,1.6438863e-06,7.9583663e-05,2.6598360,2.3036717e-17,-0.0065977806,1.9740899e-07,1.9117550e-14,-5.4753366,0.00014745895
0.0013330000,0.0013330000,0.0013330000,0.0013330000,0.0013330000,0.0013330000,0.0013330000,0.0013330000,0.0013330000,1.6438863e-06,7.8694293e-05,2.6598360,2.5483762e-17,-0.0072986237,2.1593814e-07,1.9117531e-14,-5.4753366,0.00014196659
0.0015250000,0.0015250000,0.0015250000,0.0015250000,0.0015250000,0.0015250000,0.0015250000,0.0015250000,0.0015250000,1.6438863e-06,7.7192036e-05,2.6598360,2.9154325e-17,-0.0083498883,2.4232505e-07,1.9117499e-14,-5.4753366,0.00013268929
0.0016530000,0.0016530000,0.0016530000,0.0016530000,0.0016530000,0.0016530000,0.0016530000,0.0016530000,0.0016530000,1.6438863e-06,7.6078396e-05,2.6598360,3.1601364e-17,-0.0090507314,2.5887503e-07,1.9117475e-14,-5.4753366,0.00012581193
0.0017810000,0.0017810000,0.0017810000,0.0017810000,0.0017810000,0.0017810000,0.0017810000,0.0017810000,0.0017810000,1.6438863e-06,7.4875049e-05,2.6598360,3.4048399e-17,-0.0097515745,2.7450926e-07,1.9117449e-14,-5.4753366,0.00011838057
0.0019090000,0.0019090000,0.0019090000,0.0019090000,0.0019090000,0.0019090000,0.0019090000,0.0019090000,0.0019090000,1.6438863e-06,7.3581993e-05,2.6598360,3.6495431e-17,-0.010452418,2.8915682e-07,1.9117421e-14,-5.4753366,0.00011039521
0.0020370000,0.0020370000,0.0020370000,0.0020370000,0.0020370000,0.0020370000,0.0020370000,0.0020370000,0.0020370000,1.6438863e-06,7.2199230e-05,2.6598360,3.8942459e-17,-0.011153261,3.0274680e-07,1.9117391e-14,-5.4753366,0.00010185585
0.0021650000,0.0021650000,0.0021650000,0.0021650000,0.0021650000,0.0021650000,0.0021650000,0.0021650000,0.0021650000,1.6438863e-06,7.0726758e-05,2.6598360,4.1389483e-17,-0.011854104,3.1520828e-07,1.9117359e-14,-5.4753366,9.2762499e-05
0.0022930000,0.0022930000,0.0022930000,0.0022930000,0.0022930000,0.0022930000,0.0022930000,0.0022930000,0.0022930000,1.6438863e-06,6.9164579e-05,2.6598360,4.3836503e-17,-0.012554947,3.2647036e-07,1.9117326e-14,-5.4753366,8.3115148e-05
0.0024210000,0.0024210000,0.0024210000,0.0024210000,0.0024210000,0.0024210000,0.0024210000,0.0024210000,0.0024210000,1.6438863e-06,6.7512692e-05,2.6598360,4.6283518e-17,-0.013255790,3.3646212e-07,1.9117290e-14,-5.4753366,7.2913799e-05
0.0025490000,0.0025490000,0.0025490000,0.0025490000,0.0025490000,0.0025490000,0.0025490000,0.0025490000,0.0025490000,1.6438863e-06,6.5771097e-05,2.6598360,4.8730529e-17,-0.013956633,3.4511266e-07,1.9117253e-14,-5.4753366,6.2158453e-05
0.0026770000,0.0026770000,0.0026770000,0.0026770000,0.0026770000,0.0026770000,0.0026770000,0.0026770000,0.0026770000,1.6438863e-06,6.3939794e-05,2.6598360,5.1177535e-17,-0.014657476,3.5235105e-07,1.9117213e-14,-5.4753366,5.0849109e-05
0.0028050000,0.0028050000,0.0028050000,0.0028050000,0.0028050000,0.0028050000,0.0028050000,0.0028050000,0.0028050000,1.6438863e-06,6.2018783e-05,2.6598360,5.3624535e-17,-0.015358319,3.5810639e-07,1.9117172e-14,-5.4753366,3.8985767e-05
0.0030610000,0.0030610000,0.0030610000,0.0030610000,0.0030610000,0.0030610000,0.0030610000,0.0030610000,0.0030610000,1.6438863e-06,5.7907637e-05,2.6598360,5.8518520e-17,-0.016760005,3.6488427e-07,1.9117083e-14,-5.4753366,1.3597089e-05
0.0033170000,0.0033170000,0.0033170000,0.0033170000,0.0033170000,0.0033170000,0.0033170000,0.0033170000,0.0033170000,1.6438863e-06,5.3437660e-05,2.6598360,6.3412481e-17,-0.018161692,3.6487900e-07,1.9116987e-14,-5.4753366,-1.4007579e-05
0.0035730000,0.0035730000,0.0035730000,0.0035730000,0.0035730000,0.0035730000,0.0035730000,0.0035730000,0.0035730000,1.6438863e-06,4.8608851e-05,2.6598360,6.8306417e-17,-0.019563378,3.5752329e-07,1.9116883e-14,-5.4753366,-4.3828238e-05
0.0038290000,0.0038290000,0.0038290000,0.0038290000,0.0038290000,0.0038290000,0.0038290000,0.0038290000,0.0038290000,1.6438863e-06,4.3421211e-05,2.6598360,7.3200324e-17,-0.020965064,3.4224985e-07,1.9116771e-14,-5.4753366,-7.5864888e-05
0.0040850000,0.0040850000,0.0040850000,0.0040850000,0.0040850000,0.0040850000,0.0040850000,0.0040850000,0.0040850000,1.6438863e-06,3.7874739e-05,2.6598360,7.8094202e-17,-0.022366750,3.1849137e-07,1.9116651e-14,-5.4753366,-0.00011011753
0.0043410000,0.0043410000,0.0043410000,0.0043410000,0.0043410000,0.0043410000,0.0043410000,0.0043410000,0.0043410000,1.6438863e-06,3.1969435e-05,2.6598360,8.2988049e-17,-0.023768436,2.8568058e-07,1.9116524e-14,-5.4753366,-0.00014658616
0.0045970000,0.0045970000,0.0045970000,0.0045970000,0.0045970000,0.0045970000,0.0045970000,0.0045970000,0.0045970000,1.6438863e-06,2.5705299e-05,2.6598360,8.7881862e-17,-0.025170122,2.4325016e-07,1.9116389e-14,-5.4753366,-0.00018527078
0.0048530000,0.0048530000,0.0048530000,0.0048530000,0.0048530000,0.0048530000,0.0048530000,0.0048530000,0.0048530000,1.6438863e-06,1.9082332e-05,2.6598360,9.2775639e-17,-0.026571809,1.9063284e-07,1.9116246e-14,-5.4753366,-0.00022617140
0.0051090000,0.0051090000,0.0051090000,0.0051090000,0.0051090000,0.0051090000,0.0051090000,0.0051090000,0.0051090000,1.6438863e-06,1.2100533e-05,2.6598360,9.7669379e-17,-0.027973495,1.2726131e-07,1.9116095e-14,-5.4753366,-0.00026928800
0.0053650000,0.0053650000,0.0053650000,0.0053650000,0.0053650000,0.0053650000,0.0053650000,0.0053650000,0.0053650000,1.6438863e-06,4.7599028e-06,2.6598360,1.0256308e-16,-0.029375181,5.2568282e-08,1.9115937e-14,-5.4753366,-0.00031462060
0.0056210000,0.0056210000,0.0056210000,0.0056210000,0.0056210000,0.0056210000,0.0056210000,0.0056210000,0.0056210000,1.6438863e-06,-2.9395593e-06,2.6598360,1.0745674e-16,-0.030776867,-3.4013536e-08,1.9115771e-14,-5.4753366,-0.00036216918
0.0061330000,0.0061330000,0.0061330000,0.0061330000,0.0061330000,0.0061330000,0.0061330000,0.0061330000,0.0061330000,1.6438863e-06,-1.9414979e-05,2.6598360,1.1724392e-16,-0.033580239,-2.4511272e-07,1.9115416e-14,-5.4753366,-0.00046391433
0.0066450000,0.0066450000,0.0066450000,0.0066450000,0.0066450000,0.0066450000,0.0066450000,0.0066450000,0.0066450000,1.6438863e-06,-3.7325725e-05,2.6598360,1.2703092e-16,-0.036383612,-5.1057459e-07,1.9115030e-14,-5.4753366,-0.00057452344
0.0071570000,0.0071570000,0.0071570000,0.0071570000,0.0071570000,0.0071570000,0.0071570000,0.0071570000,0.0071570000,1.6438863e-06,-5.6671797e-05,2.6598360,1.3681771e-16,-0.039186984,-8.3493750e-07,1.9114612e-14,-5.4753366,-0.00069399651
0.0076690000,0.0076690000,0.0076690000,0.0076690000,0.0076690000,0.0076690000,0.0076690000,0.0076690000,0.0076690000,1.6438863e-06,-7.7453196e-05,2.6598360,1.4660428e-16,-0.041990356,-1.2227398e-06,1.9114164e-14,-5.4753366,-0.00082233355
0.0081810000,0.0081810000,0.0081810000,0.0081810000,0.0081810000,0.0081810000,0.0081810000,0.0081810000,0.0081810000,1.6438863e-06,-9.9669922e-05,2.6598360,1.5639061e-16,-0.044793729,-1.6785198e-06,1.9113685e-14,-5.4753366,-0.00095953455
0.0086930000,0.0086930000,0.0086930000,0.0086930000,0.0086930000,0.0086930000,0.0086930000,0.0086930000,0.0086930000,1.6438863e-06,-0.00012332197,2.6598360,1.6617669e-16,-0.047597101,-2.2068160e-06,1.9113175e-14,-5.4753366,-0.0011055995
0.0092050000,0.0092050000,0.0092050000,0.0092050000,0.0092050000,0.0092050000,0.0092050000,0.0092050000,0.0092050000,1.6438863e-06,-0.00014840935,2.6598360,1.7596249e-16,-0.050400473,-2.8121665e-06,1.9112634e-14,-5.4753365,-0.0012605284
0.0097170000,0.0097170000,0.0097170000,0.0097170000,0.0097170000,0.0097170000,0.0097170000,0.0097170000,0.0097170000,1.6438863e-06,-0.00017493206,2.6598360,1.8574802e-16,-0.053203846,-3.4991099e-06,1.9112062e-14,-5.4753365,-0.0014243213
0.010229000,0.010229000,0.010229000,0.010229000,0.010229000,0.010229000,0.010229000,0.010229000,0.010229000,1.6438863e-06,-0.00020289009,2.6598360,1.9553324e-16,-0.056007218,-4.2721843e-06,1.9111459e-14,-5.4753365,-0.0015969782
0.010741000,0.010741000,0.010741000,0.010741000,0.010741000,0.010741000,0.010741000,0.010741000,0.010741000,1.6438863e-06,-0.00023228345,2.6598360,2.0531815e-16,-0.058810590,-5.1359283e-06,1.9110825e-14,-5.4753365,-0.0017784990
0.011253000,0.011253000,0.011253000,0.011253000,0.011253000,0.011253000,0.011253000,0.011253000,0.011253000,1.6438863e-06,-0.00026311214,2.6598360,2.1510272e-16,-0.061613963,-6.0948801e-06,1.9110161e-14,-5.4753364,-0.0019688838
0.012253000,0.012253000,0.012253000,0.012253000,0.012253000,0.012253000,0.012253000,0.012253000,0.012253000,1.6438863e-06,-0.00032746377,2.6598360,2.3421220e-16,-0.067089299,-8.2596502e-06,1.9108773e-14,-5.4753363,-0.0023662919
0.013253000,0.013253000,0.013253000,0.013253000,0.013253000,0.013253000,0.013253000,0.013253000,0.013253000,1.6438863e-06,-0.00039729073,2.6598360,2.5332023e-16,-0.072564635,-1.0838735e-05,1.9107267e-14,-5.4753362,-0.0027975134
0.014253000,0.014253000,0.014253000,0.014253000,0.014253000,0.014253000,0.014253000,0.014253000,0.014253000,1.6438863e-06,-0.00047259304,2.6598359,2.7242669e-16,-0.078039971,-1.3865948e-05,1.9105643e-14,-5.4753361,-0.0032625482
0.015253000,0.015253000,0.015253000,0.015253000,0.015253000,0.015253000,0.015253000,0.015253000,0.015253000,1.6438863e-06,-0.00055337068,2.6598359,2.9153147e-16,-0.083515307,-1.7375103e-05,1.9103900e-14,-5.4753359,-0.0037613964
0.016253000,0.016253000,0.016253000,0.016253000,0.016253000,0.016253000,0.016253000,0.016253000,0.016253000,1.6438863e-06,-0.00063962365,2.6598359,3.1063445e-16,-0.088990643,-2.1400012e-05,1.9102040e-14,-5.4753356,-0.0042940578
0.017253000,0.017253000,0.017253000,0.017253000,0.017253000,0.017253000,0.017253000,0.017253000,0.017253000,1.6438863e-06,-0.00073135196,2.6598359,3.2973551e-16,-0.094465978,-2.5974489e-05,1.9100061e-14,-5.4753353,-0.0048605326
0.018253000,0.018253000,0.018253000,0.018253000,0.018253000,0.018253000,0.018253000,0.018253000,0.018253000,1.6438863e-06,-0.00082855561,2.6598359,3.4883453e-16,-0.099941314,-3.1132348e-05,1.9097964e-14,-5.4753350,-0.0054608207
0.019253000,0.019253000,0.019253000,0.019253000,0.019253000,0.019253000,0.019253000,0.019253000,0.019253000,1.6438863e-06,-0.00093123459,2.6598358,3.6793140e-16,-0.10541665,-3.6907402e-05,1.9095748e-14,-5.4753345,-0.0060949220
0.020253000,0.020253000,0.020253000,0.020253000,0.020253000,0.020253000,0.020253000,0.020253000,0.020253000,1.6438863e-06,-0.0010393889,2.6598358,3.8702599e-16,-0.11089198,-4.3333463e-05,1.9093414e-14,-5.4753340,-0.0067628367
0.021253000,0.021253000,0.021253000,0.021253000,0.021253000,0.021253000,0.021253000,0.021253000,0.021253000,1.6438863e-06,-0.0011530186,2.6598357,4.0611819e-16,-0.11636732,-5.0444346e-05,1.9090962e-14,-5.4753335,-0.0074645647
0.022253000,0.022253000,0.022253000,0.022253000,0.022253000,0.022253000,0.022253000,0.022253000,0.022253000,1.6438863e-06,-0.0012721235,2.6598357,4.2520787e-16,-0.12184265,-5.8273864e-05,1.9088392e-14,-5.4753328,-0.0082001059
0.023253000,0.023253000,0.023253000,0.023253000,0.023253000,0.023253000,0.023253000,0.023253000,0.023253000,1.6438863e-06,-0.0013967039,2.6598356,4.4429493e-16,-0.12731798,-6.6855829e-05,1.9085703e-14,-5.4753320,-0.0089694604
0.024253000,0.024253000,0.024253000,0.024253000,0.024253000,0.024253000,0.024253000,0.024253000,0.024253000,1.6438863e-06,-0.0015267595,2.6598355,4.6337924e-16,-0.13279331,-7.6224055e-05,1.9082896e-14,-5.4753311,-0.0097726281
0.025253000,0.025253000,0.025253000,0.025253000,0.025253000,0.025253000,0.025253000,0.025253000,0.025253000,1.6438863e-06,-0.0016622905,2.6598355,4.8246068e-16,-0.13826864,-8.6412356e-05,1.9079970e-14,-5.4753301,-0.010609609
0.026253000,0.026253000,0.026253000,0.026253000,0.026253000,0.026253000,0.026253000,0.026253000,0.026253000,1.6438863e-06,-0.0018032968,2.6598354,5.0153914e-16,-0.14374397,-9.7454544e-05,1.9076925e-14,-5.4753290,-0.011480403
0.027253000,0.027253000,0.027253000,0.027253000,0.027253000,0.027253000,0.027253000,0.027253000,0.027253000,1.6438863e-06,-0.0019497784,2.6598353,5.2061449e-16,-0.14921930,-0.00010938443,1.9073763e-14,-5.4753277,-0.012385010
0.028253000,0.028253000,0.028253000,0.028253000,0.028253000,0.028253000,0.028253000,0.028253000,0.028253000,1.6438863e-06,-0.0021017354,2.6598352,5.3968662e-16,-0.15469463,-0.00012223584,1.9070481e-14,-5.4753263,-0.013323431
0.029253000,0.029253000,0.029253000,0.029253000,0.029253000,0.029253000,0.029253000,0.029253000,0.029253000,1.6438863e-06,-0.0022591677,2.6598350,5.5875541e-16,-0.16016995,-0.00013604257,1.9067081e-14,-5.4753247,-0.014295664
0.030253000,0.030253000,0.030253000,0.030253000,0.030253000,0.030253000,0.030253000,0.030253000,0.030253000,1.6438863e-06,-0.0024220753,2.6598349,5.7782074e-16,-0.16564528,-0.00015083844,1.9063562e-14,-5.4753229,-0.015301711
0.031253000,0.031253000,0.031253000,0.031253000,0.031253000,0.031253000,0.031253000,0.031253000,0.031253000,1.6438863e-06,-0.0025904582,2.6598347,5.9688250e-16,-0.17112060,-0.00016665726,1.9059925e-14,-5.4753210,-0.016341571
0.032253000,0.032253000,0.032253000,0.032253000,0.032253000,0.032253000,0.032253000,0.032253000,0.032253000,1.6438863e-06,-0.0027643165,2.6598345,6.1594055e-16,-0.17659592,-0.00018353285,1.9056169e-14,-5.4753188,-0.017415243
0.033253000,0.033253000,0.033253000,0.033253000,0.033253000,0.033253000,0.033253000,0.033253000,0.033253000,1.6438863e-06,-0.0029436501,2.6598344,6.3499479e-16,-0.18207124,-0.00020149902,1.9052294e-14,-5.4753165,-0.018522729
0.034253000,0.034253000,0.034253000,0.034253000,0.034253000,0.034253000,0.034253000,0.034253000,0.034253000,1.6438863e-06,-0.0031284590,2.6598341,6.5404510e-16,-0.18754655,-0.00022058958,1.9048300e-14,-5.4753139,-0.019664028
0.035253000,0.035253000,0.035253000,0.035253000,0.035253000,0.035253000,0.035253000,0.035253000,0.035253000,1.6438863e-06,-0.0033187432,2.6598339,6.7309135e-16,-0.19302186,-0.00024083834,1.9044187e-14,-5.4753111,-0.020839139
0.036253000,0.036253000,0.036253000,0.036253000,0.036253000,0.036253000,0.036253000,0.036253000,0.036253000,1.6438863e-06,-0.0035145027,2.6598337,6.9213343e-16,-0.19849717,-0.00026227912,1.9039955e-14,-5.4753080,-0.022048063
0.037253000,0.037253000,0.037253000,0.037253000,0.037253000,0.037253000,0.037253000,0.037253000,0.037253000,1.6438863e-06,-0.0037157375,2.6598334,7.1117121e-16,-0.20397248,-0.00028494574,1.9035604e-14,-5.4753046,-0.023290800
0.038253000,0.038253000,0.038253000,0.038253000,0.038253000,0.038253000,0.038253000,0.038253000,0.038253000,1.6438863e-06,-0.0039224476,2.6598331,7.3020459e-16,-0.20944778,-0.00030887199,1.9031135e-14,-5.4753010,-0.024567349
0.039253000,0.039253000,0.039253000,0.039253000,0.039253000,0.039253000,0.039253000,0.039253000,0.039253000,1.6438863e-06,-0.0041346331,2.6598328,7.4923344e-16,-0.21492308,-0.00033409170,1.9026546e-14,-5.4752970,-0.025877711
0.040253000,0.040253000,0.040253000,0.040253000,0.040253000,0.040253000,0.040253000,0.040253000,0.040253000,1.6438863e-06,-0.0043522938,2.6598324,7.6825764e-16,-0.22039837,-0.00036063868,1.9021838e-14,-5.4752927,-0.027221886
0.041253000,0.041253000,0.041253000,0.041253000,0.041253000,0.041253000,0.041253000,0.041253000,0.041253000,1.6438863e-06,-0.0045754298,2.6598320,7.8727707e-16,-0.22587366,-0.00038854674,1.9017010e-14,-5.4752881,-0.028599873
0.042253000,0.042253000,0.042253000,0.042253000,0.042253000,0.042253000,0.042253000,0.042253000,0.042253000,1.6438863e-06,-0.0048040411,2.6598316,8.0629161e-16,-0.23134895,-0.00041784970,1.9012064e-14,-5.4752832,-0.030011672
0.043253000,0.043253000,0.043253000,0.043253000,0.043253000,0.043253000,0.043253000,0.043253000,0.043253000,1.6438863e-06,-0.0050381277,2.6598312,8.2530115e-16,-0.23682423,-0.00044858136,1.9006998e-14,-5.4752779,-0.031457283
0.044253000,0.044253000,0.044253000,0.044253000,0.044253000,0.044253000,0.044253000,0.044253000,0.044253000,1.6438863e-06,-0.0052776896,2.6598307,8.4430556e-16,-0.24229950,-0.00048077553,1.9001813e-14,-5.4752722,-0.032936707
0.045253000,0.045253000,0.045253000,0.045253000,0.045253000,0.045253000,0.045253000,0.045253000,0.045253000,1.6438863e-06,-0.0055227267,2.6598303,8.6330473e-16,-0.24777477,-0.00051446604,1.8996508e-14,-5.4752660,-0.034449942
0.046253000,0.046253000,0.046253000,0.046253000,0.046253000,0.046253000,0.046253000,0.046253000,0.046253000,1.6438863e-06,-0.0057732391,2.6598297,8.8229853e-16,-0.25325003,-0.00054968668,1.8991084e-14,-5.4752595,-0.035996989
0.047253000,0.047253000,0.047253000,0.047253000,0.047253000,0.047253000,0.047253000,0.047253000,0.047253000,1.6438863e-06,-0.0060292267,2.6598292,9.0128685e-16,-0.25872529,-0.00058647128,1.8985540e-14,-5.4752525,-0.037577848
0.048253000,0.048253000,0.048253000,0.048253000,0.048253000,0.048253000,0.048253000,0.048253000,0.048253000,1.6438863e-06,-0.0062906897,2.6598285,9.2026957e-16,-0.26420053,-0.00062485364,1.8979876e-14,-5.4752451,-0.039192519
0.049253000,0.049253000,0.049253000,0.049253000,0.049253000,0.049253000,0.049253000,0.049253000,0.049253000,1.6438863e-06,-0.0065576278,2.6598279,9.3924656e-16,-0.26967577,-0.00066486758,1.8974093e-14,-5.4752372,-0.040841000
0.050253000,0.050253000,0.050253000,0.050253000,0.050253000,0.050253000,0.050253000,0.050253000,0.050253000,1.6438863e-06,-0.0068300412,2.6598272,9.5821770e-16,-0.27515100,-0.00070654691,1.8968190e-14,-5.4752288,-0.042523293
0.051253000,0.051253000,0.051253000,0.051253000,0.051253000,0.051253000,0.051253000,0.051253000,0.051253000,1.6438863e-06,-0.0071079298,2.6598265,9.7718289e-16,-0.28062623,-0.00074992543,1.8962167e-14,-5.4752198,-0.044239397
0.052253000,0.052253000,0.052253000,0.052253000,0.052253000,0.052253000,0.052253000,0.052253000,0.052253000,1.6438863e-06,-0.0073912937,2.6598257,9.9614199e-16,-0.28610144,-0.00079503697,1.8956024e-14,-5.4752103,-0.045989312
0.053253000,0.053253000,0.053253000,0.053253000,0.053253000,0.053253000,0.053253000,0.053253000,0.053253000,1.6438863e-06,-0.0076801327,2.6598249,1.0150949e-15,-0.29157664,-0.00084191532,1.8949761e-14,-5.4752003,-0.047773037
0.054253000,0.054253000,0.054253000,0.054253000,0.054253000,0.054253000,0.054253000,0.054253000,0.054253000,1.6438863e-06,-0.0079744469,2.6598240,1.0340415e-15,-0.29705184,-0.00089059430,1.8943378e-14,-5.4751896,-0.049590573
0.055253000,0.055253000,0.055253000,0.055253000,0.055253000,0.055253000,0.055253000,0.055253000,0.055253000,1.6438863e-06,-0.0082742364,2.6598231,1.0529816e-15,-0.30252702,-0.00094110772,1.8936875e-14,-5.4751784,-0.051441918
0.056253000,0.056253000,0.056253000,0.056253000,0.056253000,0.056253000,0.056253000,0.056253000,0.056253000,1.6438863e-06,-0.0085795010,2.6598221,1.0719152e-15,-0.30800219,-0.00099348939,1.8930251e-14,-5.4751665,-0.053327074
0.057253000,0.057253000,0.057253000,0.057253000,0.057253000,0.057253000,0.057253000,0.057253000,0.057253000,1.6438863e-06,-0.0088902407,2.6598211,1.0908420e-15,-0.31347735,-0.0010477731,1.8923507e-14,-5.4751540,-0.055246039
0.058253000,0.058253000,0.058253000,0.058253000,0.058253000,0.058253000,0.058253000,0.058253000,0.058253000,1.6438863e-06,-0.0092064557,2.6598201,1.1097621e-15,-0.31895249,-0.0011039927,1.8916643e-14,-5.4751407,-0.057198814
0.059253000,0.059253000,0.059253000,0.059253000,0.059253000,0.059253000,0.059253000,0.059253000,0.059253000,1.6438863e-06,-0.0095281457,2.6598189,1.1286753e-15,-0.32442763,-0.0011621820,1.8909658e-14,-5.4751268,-0.059185398
0.060253000,0.060253000,0.060253000,0.060253000,0.060253000,0.060253000,0.060253000,0.060253000,0.060253000,1.6438863e-06,-0.0098553109,2.6598177,1.1475814e-15,-0.32990274,-0.0012223748,1.8902553e-14,-5.4751122,-0.061205791
0.061253000,0.061253000,0.061253000,0.061253000,0.061253000,0.061253000,0.061253000,0.061253000,0.061253000,1.6438863e-06,-0.010187951,2.6598165,1.1664803e-15,-0.33537785,-0.0012846048,1.8895327e-14,-5.4750968,-0.063259992
0.062253000,0.062253000,0.062253000,0.062253000,0.062253000,0.062253000,0.062253000,0.062253000,0.062253000,1.6438863e-06,-0.010526067,2.6598152,1.1853720e-15,-0.34085293,-0.0013489060,1.8887980e-14,-5.4750806,-0.065348001
0.063253000,0.063253000,0.063253000,0.063253000,0.063253000,0.063253000,0.063253000,0.063253000,0.063253000,1.6438863e-06,-0.010869657,2.6598138,1.2042562e-15,-0.34632800,-0.0014153121,1.8880513e-14,-5.4750636,-0.067469818
0.064253000,0.064253000,0.064253000,0.064253000,0.064253000,0.064253000,0.064253000,0.064253000,0.064253000,1.6438863e-06,-0.011218723,2.6598123,1.2231329e-15,-0.35180305,-0.0014838569,1.8872924e-14,-5.4750458,-0.069625442
0.065253000,0.065253000,0.065253000,0.065253000,0.065253000,0.065253000,0.065253000,0.065253000,0.065253000,1.6438863e-06,-0.011573263,2.6598108,1.2420020e-15,-0.35727809,-0.0015545742,1.8865215e-14,-5.4750271,-0.071814874
0.066253000,0.066253000,0.066253000,0.066253000,0.066253000,0.066253000,0.066253000,0.066253000,0.066253000,1.6438863e-06,-0.011933279,2.6598092,1.2608633e-15,-0.36275310,-0.0016274979,1.8857384e-14,-5.4750076,-0.074038112
0.067253000,0.067253000,0.067253000,0.067253000,0.067253000,0.067253000,0.067253000,0.067253000,0.067253000,1.6438863e-06,-0.012298769,2.6598076,1.2797167e-15,-0.36822809,-0.0017026617,1.8849432e-14,-5.4749871,-0.076295156
0.068253000,0.068253000,0.068253000,0.068253000,0.068253000,0.068253000,0.068253000,0.068253000,0.068253000,1.6438863e-06,-0.012669735,2.6598058,1.2985621e-15,-0.37370307,-0.0017800994,1.8841359e-14,-5.4749657,-0.078586006
0.069253000,0.069253000,0.069253000,0.069253000,0.069253000,0.069253000,0.069253000,0.069253000,0.069253000,1.6438863e-06,-0.013046175,2.6598040,1.3173994e-15,-0.37917802,-0.0018598449,1.8833164e-14,-5.4749433,-0.080910662
0.070253000,0.070253000,0.070253000,0.070253000,0.070253000,0.070253000,0.070253000,0.070253000,0.070253000,1.6438863e-06,-0.013428091,2.6598021,1.3362284e-15,-0.38465295,-0.0019419320,1.8824848e-14,-5.4749200,-0.083269122
0.071253000,0.071253000,0.071253000,0.071253000,0.071253000,0.071253000,0.071253000,0.071253000,0.071253000,1.6438863e-06,-0.013815481,2.6598001,1.3550490e-15,-0.39012785,-0.0020263944,1.8816411e-14,-5.4748956,-0.085661386
0.072253000,0.072253000,0.072253000,0.072253000,0.072253000,0.072253000,0.072253000,0.072253000,0.072253000,1.6438863e-06,-0.014208347,2.6597980,1.3738611e-15,-0.39560273,-0.0021132660,1.8807851e-14,-5.4748702,-0.088087455
0.073253000,0.073253000,0.073253000,0.073253000,0.073253000,0.073253000,0.073253000,0.073253000,0.073253000,1.6438863e-06,-0.014606687,2.6597959,1.3926646e-15,-0.40107758,-0.0022025805,1.8799170e-14,-5.4748436,-0.090547326
0.074253000,0.074253000,0.074253000,0.074253000,0.074253000,0.074253000,0.074253000,0.074253000,0.074253000,1.6438863e-06,-0.015010502,2.6597936,1.4114594e-15,-0.40655241,-0.0022943719,1.8790367e-14,-5.4748160,-0.093041000
0.075253000,0.075253000,0.075253000,0.075253000,0.075253000,0.075253000,0.075253000,0.075253000,0.075253000,1.6438863e-06,-0.015419792,2.6597913,1.4302453e-15,-0.41202720,-0.0023886738,1.8781442e-14,-5.4747872,-0.095568476
0.076253000,0.076253000,0.076253000,0.076253000,0.076253000,0.076253000,0.076253000,0.076253000,0.076253000,1.6438863e-06,-0.015834556,2.6597889,1.4490222e-15,-0.41750197,-0.0024855200,1.8772395e-14,-5.4747572,-0.098129754
0.077253000,0.077253000,0.077253000,0.077253000,0.077253000,0.077253000,0.077253000,0.077253000,0.077253000,1.6438863e-06,-0.016254796,2.6597863,1.4677900e-15,-0.42297671,-0.0025849445,1.8763225e-14,-5.4747261,-0.10072483
0.078253000,0.078253000,0.078253000,0.078253000,0.078253000,0.078253000,0.078253000,0.078253000,0.078253000,1.6438863e-06,-0.016680510,2.6597837,1.4865486e-15,-0.42845141,-0.0026869809,1.8753933e-14,-5.4746937,-0.10335371
0.079253000,0.079253000,0.079253000,0.079253000,0.079253000,0.079253000,0.079253000,0.079253000,0.079253000,1.6438863e-06,-0.017111698,2.6597809,1.5052978e-15,-0.43392609,-0.0027916631,1.8744519e-14,-5.4746600,-0.10601639
0.080253000,0.080253000,0.080253000,0.080253000,0.080253000,0.080253000,0.080253000,0.080253000,0.080253000,1.6438863e-06,-0.017548362,2.6597781,1.5240375e-15,-0.43940072,-0.0028990249,1.8734982e-14,-5.4746250,-0.10871287
0.081253000,0.081253000,0.081253000,0.081253000,0.081253000,0.081253000,0.081253000,0.081253000,0.081253000,1.6438863e-06,-0.017990500,2.6597751,1.5427677e-15,-0.44487532,-0.0030091000,1.8725323e-14,-5.4745887,-0.11144314
0.082253000,0.082253000,0.082253000,0.082253000,0.082253000,0.082253000,0.082253000,0.082253000,0.082253000,1.6438863e-06,-0.018438112,2.6597721,1.5614881e-15,-0.45034989,-0.0031219223,1.8715540e-14,-5.4745510,-0.11420721
0.083253000,0.083253000,0.083253000,0.083253000,0.083253000,0.083253000,0.083253000,0.083253000,0.083253000,1.6438863e-06,-0.018891200,2.6597689,1.5801987e-15,-0.45582441,-0.0032375256,1.8705635e-14,-5.4745119,-0.11700508
0.084253000,0.084253000,0.084253000,0.084253000,0.084253000,0.084253000,0.084253000,0.084253000,0.084253000,1.6438863e-06,-0.019349761,2.6597656,1.5988993e-15,-0.46129890,-0.0033559437,1.8695607e-14,-5.4744714,-0.11983674
0.085253000,0.085253000,0.085253000,0.085253000,0.085253000,0.085253000,0.085253000,0.085253000,0.085253000,1.6438863e-06,-0.019813797,2.6597622,1.6175898e-15,-0.46677334,-0.0034772103,1.8685455e-14,-5.4744293,-0.12270220
0.086253000,0.086253000,0.086253000,0.086253000,0.086253000,0.086253000,0.086253000,0.086253000,0.086253000,1.6438863e-06,-0.020283308,2.6597586,1.6362701e-15,-0.47224774,-0.0036013592,1.8675181e-14,-5.4743858,-0.12560145
0.087253000,0.087253000,0.087253000,0.087253000,0.087253000,0.087253000,0.087253000,0.087253000,0.087253000,1.6438863e-06,-0.020758293,2.6597550,1.6549401e-15,-0.47772210,-0.0037284243,1.8664783e-14,-5.4743407,-0.12853450
0.088253000,0.088253000,0.088253000,0.088253000,0.088253000,0.088253000,0.088253000,0.088253000,0.088253000,1.6438863e-06,-0.021238752,2.6597512,1.6735996e-15,-0.48319641,-0.0038584394,1.8654261e-14,-5.4742941,-0.13150133
0.089253000,0.089253000,0.089253000,0.089253000,0.089253000,0.089253000,0.089253000,0.089253000,0.089253000,1.6438863e-06,-0.021724686,2.6597473,1.6922485e-15,-0.48867067,-0.0039914381,1.8643616e-14,-5.4742458,-0.13450196
0.090253000,0.090253000,0.090253000,0.090253000,0.090253000,0.090253000,0.090253000,0.090253000,0.090253000,1.6438863e-06,-0.022216093,2.6597432,1.7108867e-15,-0.49414488,-0.0041274544,1.8632847e-14,-5.4741959,-0.13753638
0.091253000,0.091253000,0.091253000,0.091253000,0.091253000,0.091253000,0.091253000,0.091253000,0.091253000,1.6438863e-06,-0.022712975,2.6597390,1.7295141e-15,-0.49961904,-0.0042665220,1.8621954e-14,-5.4741443,-0.14060458
0.092253000,0.092253000,0.092253000,0.092253000,0.092253000,0.092253000,0.092253000,0.092253000,0.092253000,1.6438863e-06,-0.023215331,2.6597347,1.7481305e-15,-0.50509315,-0.0044086747,1.8610937e-14,-5.4740909,-0.14370658
0.093253000,0.093253000,0.093253000,0.093253000,0.093253000,0.093253000,0.093253000,0.093253000,0.093253000,1.6438863e-06,-0.023723162,2.6597302,1.7667359e-15,-0.51056721,-0.0045539463,1.8599797e-14,-5.4740358,-0.14684236
0.094253000,0.094253000,0.094253000,0.094253000,0.094253000,0.094253000,0.094253000,0.094253000,0.094253000,1.6438863e-06,-0.024236466,2.6597256,1.7853300e-15,-0.51604121,-0.0047023705,1.8588531e-14,-5.4739789,-0.15001192
0.095253000,0.095253000,0.095253000,0.095253000,0.095253000,0.095253000,0.095253000,0.095253000,0.095253000,1.6438863e-06,-0.024755244,2.6597208,1.8039128e-15,-0.52151515,-0.0048539812,1.8577142e-14,-5.4739201,-0.15321527
0.096253000,0.096253000,0.096253000,0.096253000,0.096253000,0.096253000,0.096253000,0.096253000,0.096253000,1.6438863e-06,-0.025279496,2.6597159,1.8224842e-15,-0.52698903,-0.0050088121,1.8565627e-14,-5.4738594,-0.15645240
0.097253000,0.097253000,0.097253000,0.097253000,0.097253000,0.097253000,0.097253000,0.097253000,0.097253000,1.6438863e-06,-0.025809222,2.6597108,1.8410440e-15,-0.53246285,-0.0051668971,1.8553989e-14,-5.4737969,-0.15972331
0.098253000,0.098253000,0.098253000,0.098253000,0.098253000,0.098253000,0.098253000,0.098253000,0.098253000,1.6438863e-06,-0.026344422,2.6597055,1.8595920e-15,-0.53793660,-0.0053282698,1.8542225e-14,-5.4737323,-0.16302801
0.099253000,0.099253000,0.099253000,0.099253000,0.099253000,0.099253000,0.099253000,0.099253000,0.099253000,1.6438863e-06,-0.026885095,2.6597001,1.8781283e-15,-0.54341029,-0.0054929641,1.8530336e-14,-5.4736657,-0.16636648
0.10025300,0.10025300,0.10025300,0.10025300,0.10025300,0.10025300,0.10025300,0.10025300,0.10025300,1.6438863e-06,-0.027431242,2.6596945,1.8966526e-15,-0.54888391,-0.0056610138,1.8518323e-14,-5.4735971,-0.16973873
0.10125300,0.10125300,0.10125300,0.10125300,0.10125300,0.10125300,0.10125300,0.10125300,0.10125300,1.6438863e-06,-0.027982863,2.6596888,1.9151648e-15,-0.55435746,-0.0058324526,1.8506184e-14,-5.4735264,-0.17314475
0.10225300,0.10225300,0.10225300,0.10225300,0.10225300,0.10225300,0.10225300,0.10225300,0.10225300,1.6438863e-06,-0.028539957,2.6596829,1.9336648e-15,-0.55983094,-0.0060073143,1.8493919e-14,-5.4734536,-0.17658455
0.10325300,0.10325300,0.10325300,0.10325300,0.10325300,0.10325300,0.10325300,0.10325300,0.10325300,1.6438863e-06,-0.029102525,2.6596768,1.9521525e-15,-0.56530434,-0.0061856327,1.8481530e-14,-5.4733786,-0.18005812
0.10425300,0.10425300,0.10425300,0.10425300,0.10425300,0.10425300,0.10425300,0.10425300,0.10425300,1.6438863e-06,-0.029670566,2.6596705,1.9706278e-15,-0.57077767,-0.0063674415,1.8469014e-14,-5.4733014,-0.18356546
0.10525300,0.10525300,0.10525300,0.10525300,0.10525300,0.10525300,0.10525300,0.10525300,0.10525300,1.6438863e-06,-0.030244080,2.6596640,1.9890904e-15,-0.57625092,-0.0065527746,1.8456373e-14,-5.4732219,-0.18710657
0.10625300,0.10625300,0.10625300,0.10625300,0.10625300,0.10625300,0.10625300,0.10625300,0.10625300,1.6438863e-06,-0.030823068,2.6596574,2.0075404e-15,-0.58172409,-0.0067416656,1.8443606e-14,-5.4731401,-0.19068145
0.10725300,0.10725300,0.10725300,0.10725300,0.10725300,0.10725300,0.10725300,0.10725300,0.10725300,1.6438863e-06,-0.031407528,2.6596505,2.0259775e-15,-0.58719717,-0.0069341484,1.8430712e-14,-5.4730560,-0.19429010
0.10825300,0.10825300,0.10825300,0.10825300,0.10825300,0.10825300,0.10825300,0.10825300,0.10825300,1.6438863e-06,-0.031997462,2.6596435,2.0444017e-15,-0.59267017,-0.0071302568,1.8417693e-14,-5.4729694,-0.19793250
0.10925300,0.10925300,0.10925300,0.10925300,0.10925300,0.10925300,0.10925300,0.10925300,0.10925300,1.6438863e-06,-0.032592869,2.6596363,2.0628128e-15,-0.59814308,-0.0073300244,1.8404547e-14,-5.4728805,-0.20160867
0.11025300,0.11025300,0.11025300,0.11025300,0.11025300,0.11025300,0.11025300,0.11025300,0.11025300,1.6438863e-06,-0.033193748,2.6596289,2.0812106e-15,-0.60361590,-0.0075334850,1.8391275e-14,-5.4727890,-0.20531861
0.11125300,0.11125300,0.11125300,0.11125300,0.11125300,0.11125300,0.11125300,0.11125300,0.11125300,1.6438863e-06,-0.033800100,2.6596212,2.0995952e-15,-0.60908863,-0.0077406724,1.8377875e-14,-5.4726950,-0.20906229
0.11225300,0.11225300,0.11225300,0.11225300,0.11225300,0.11225300,0.11225300,0.11225300,0.11225300,1.6438863e-06,-0.034411925,2.6596134,2.1179662e-15,-0.61456126,-0.0079516204,1.8364349e-14,-5.4725985,-0.21283974
0.11325300,0.11325300,0.11325300,0.11325300,0.11325300,0.11325300,0.11325300,0.11325300,0.11325300,1.6438863e-06,-0.035029223,2.6596053,2.1363237e-15,-0.62003379,-0.0081663628,1.8350696e-14,-5.4724993,-0.21665094
0.11425300,0.11425300,0.11425300,0.11425300,0.11425300,0.11425300,0.11425300,0.11425300,0.11425300,1.6438863e-06,-0.035651993,2.6595970,2.1546675e-15,-0.62550622,-0.0083849331,1.8336916e-14,-5.4723975,-0.22049589
0.11525300,0.11525300,0.11525300,0.11525300,0.11525300,0.11525300,0.11525300,0.11525300,0.11525300,1.6438863e-06,-0.036280235,2.6595885,2.1729974e-15,-0.63097855,-0.0086073653,1.8323009e-14,-5.4722929,-0.22437459
0.11625300,0.11625300,0.11625300,0.11625300,0.11625300,0.11625300,0.11625300,0.11625300,0.11625300,1.6438863e-06,-0.036913950,2.6595798,2.1913133e-15,-0.63645077,-0.0088336931,1.8308974e-14,-5.4721856,-0.22828704
0.11725300,0.11725300,0.11725300,0.11725300,0.11725300,0.11725300,0.11725300,0.11725300,0.11725300,1.6438863e-06,-0.037553137,2.6595709,2.2096152e-15,-0.64192289,-0.0090639502,1.8294811e-14,-5.4720754,-0.23223323
0.11825300,0.11825300,0.11825300,0.11825300,0.11825300,0.11825300,0.11825300,0.11825300,0.11825300,1.6438863e-06,-0.038197796,2.6595617,2.2279028e-15,-0.64739489,-0.0092981703,1.8280521e-14,-5.4719624,-0.23621317
0.11925300,0.11925300,0.11925300,0.11925300,0.11925300,0.11925300,0.11925300,0.11925300,0.11925300,1.6438863e-06,-0.038847926,2.6595523,2.2461760e-15,-0.65286677,-0.0095363872,1.8266103e-14,-5.4718465,-0.24022685
0.12025300,0.12025300,0.12025300,0.12025300,0.12025300,0.12025300,0.12025300,0.12025300,0.12025300,1.6438863e-06,-0.039503529,2.6595426,2.2644348e-15,-0.65833854,-0.0097786347,1.8251556e-14,-5.4717277,-0.24427426
0.12125300,0.12125300,0.12125300,0.12125300,0.12125300,0.12125300,0.12125300,0.12125300,0.12125300,1.6438863e-06,-0.040164603,2.6595327,2.2826790e-15,-0.66381019,-0.010024946,1.8236881e-14,-5.4716058,-0.24835541
0.12225300,0.12225300,0.12225300,0.12225300,0.12225300,0.12225300,0.12225300,0.12225300,0.12225300,1.6438863e-06,-0.040831149,2.6595226,2.3009084e-15,-0.66928171,-0.010275356,1.8222078e-14,-5.4714809,-0.25247029
0.12325300,0.12325300,0.12325300,0.12325300,0.12325300,0.12325300,0.12325300,0.12325300,0.12325300,1.6438863e-06,-0.041503167,2.6595122,2.3191229e-15,-0.67475311,-0.010529898,1.8207146e-14,-5.4713528,-0.25661891
0.12425300,0.12425300,0.12425300,0.12425300,0.12425300,0.12425300,0.12425300,0.12425300,0.12425300,1.6438863e-06,-0.042180656,2.6595015,2.3373225e-15,-0.68022437,-0.010788605,1.8192086e-14,-5.4712216,-0.26080125
0.12525300,0.12525300,0.12525300,0.12525300,0.12525300,0.12525300,0.12525300,0.12525300,0.12525300,1.6438863e-06,-0.042863615,2.6594906,2.3555069e-15,-0.68569550,-0.011051511,1.8176896e-14,-5.4710872,-0.26501731
0.12625300,0.12625300,0.12625300,0.12625300,0.12625300,0.12625300,0.12625300,0.12625300,0.12625300,1.6438863e-06,-0.043552046,2.6594794,2.3736761e-15,-0.69116650,-0.011318650,1.8161577e-14,-5.4709495,-0.26926710
0.12725300,0.12725300,0.12725300,0.12725300,0.12725300,0.12725300,0.12725300,0.12725300,0.12725300,1.6438863e-06,-0.044245948,2.6594679,2.3918299e-15,-0.69663736,-0.011590055,1.8146129e-14,-5.4708086,-0.27355060
0.12825300,0.12825300,0.12825300,0.12825300,0.12825300,0.12825300,0.12825300,0.12825300,0.12825300,1.6438863e-06,-0.044945321,2.6594562,2.4099681e-15,-0.70210807,-0.011865761,1.8130552e-14,-5.4706642,-0.27786782
0.12925300,0.12925300,0.12925300,0.12925300,0.12925300,0.12925300,0.12925300,0.12925300,0.12925300,1.6438863e-06,-0.045650164,2.6594442,2.4280908e-15,-0.70757864,-0.012145801,1.8114844e-14,-5.4705164,-0.28221875
0.13025300,0.13025300,0.13025300,0.13025300,0.13025300,0.13025300,0.13025300,0.13025300,0.13025300,1.6438863e-06,-0.046360478,2.6594319,2.4461976e-15,-0.71304905,-0.012430209,1.8099007e-14,-5.4703651,-0.28660339
0.13125300,0.13125300,0.13125300,0.13125300,0.13125300,0.13125300,0.13125300,0.13125300,0.13125300,1.6438863e-06,-0.047076263,2.6594194,2.4642886e-15,-0.71851932,-0.012719018,1.8083040e-14,-5.4702103,-0.29102174
0.13225300,0.13225300,0.13225300,0.13225300,0.13225300,0.13225300,0.13225300,0.13225300,0.13225300,1.6438863e-06,-0.047797517,2.6594065,2.4823635e-15,-0.72398942,-0.013012263,1.8066943e-14,-5.4700520,-0.29547379
0.13325300,0.13325300,0.13325300,0.13325300,0.13325300,0.13325300,0.13325300,0.13325300,0.13325300,1.6438863e-06,-0.048524241,2.6593933,2.5004222e-15,-0.72945937,-0.013309976,1.8050716e-14,-5.4698899,-0.29995953
0.13425300,0.13425300,0.13425300,0.13425300,0.13425300,0.13425300,0.13425300,0.13425300,0.13425300,1.6438863e-06,-0.049256436,2.6593799,2.5184647e-15,-0.73492915,-0.013612192,1.8034357e-14,-5.4697242,-0.30447898
0.13525300,0.13525300,0.13525300,0.13525300,0.13525300,0.13525300,0.13525300,0.13525300,0.13525300,1.6438863e-06,-0.049994100,2.6593661,2.5364907e-15,-0.74039876,-0.013918945,1.8017869e-14,-5.4695548,-0.30903211
0.13625300,0.13625300,0.13625300,0.13625300,0.13625300,0.13625300,0.13625300,0.13625300,0.13625300,1.6438863e-06,-0.050737233,2.6593520,2.5545002e-15,-0.74586820,-0.014230267,1.8001249e-14,-5.4693815,-0.31361894
0.13725300,0.13725300,0.13725300,0.13725300,0.13725300,0.13725300,0.13725300,0.13725300,0.13725300,1.6438863e-06,-0.051485836,2.6593376,2.5724930e-15,-0.75133746,-0.014546193,1.7984498e-14,-5.4692044,-0.31823944
0.13825300,0.13825300,0.13825300,0.13825300,0.13825300,0.13825300,0.13825300,0.13825300,0.13825300,1.6438863e-06,-0.052239908,2.6593229,2.5904689e-15,-0.75680655,-0.014866756,1.7967616e-14,-5.4690233,-0.32289363
0.13925300,0.13925300,0.13925300,0.13925300,0.13925300,0.13925300,0.13925300,0.13925300,0.13925300,1.6438863e-06,-0.052999449,2.6593079,2.6084280e-15,-0.76227545,-0.015191990,1.7950602e-14,-5.4688383,-0.32758150
0.14025300,0.14025300,0.14025300,0.14025300,0.14025300,0.14025300,0.14025300,0.14025300,0.14025300,1.6438863e-06,-0.053764459,2.6592925,2.6263699e-15,-0.76774416,-0.015521929,1.7933457e-14,-5.4686492,-0.33230304
0.14125300,0.14125300,0.14125300,0.14125300,0.14125300,0.14125300,0.14125300,0.14125300,0.14125300,1.6438863e-06,-0.054534937,2.6592769,2.6442946e-15,-0.77321268,-0.015856606,1.7916180e-14,-5.4684560,-0.33705824
0.14225300,0.14225300,0.14225300,0.14225300,0.14225300,0.14225300,0.14225300,0.14225300,0.14225300,1.6438863e-06,-0.055310884,2.6592608,2.6622020e-15,-0.77868101,-0.016196055,1.7898770e-14,-5.4682587,-0.34184712
0.14325300,0.14325300,0.14325300,0.14325300,0.14325300,0.14325300,0.14325300,0.14325300,0.14325300,1.6438863e-06,-0.056092299,2.6592445,2.6800919e-15,-0.78414913,-0.016540310,1.7881229e-14,-5.4680572,-0.34666965
0.14425300,0.14425300,0.14425300,0.14425300,0.14425300,0.14425300,0.14425300,0.14425300,0.14425300,1.6438863e-06,-0.056879182,2.6592278,2.6979642e-15,-0.78961705,-0.016889404,1.7863555e-14,-5.4678514,-0.35152584
0.14525300,0.14525300,0.14525300,0.14525300,0.14525300,0.14525300,0.14525300,0.14525300,0.14525300,1.6438863e-06,-0.057671533,2.6592107,2.7158187e-15,-0.79508477,-0.017243371,1.7845749e-14,-5.4676413,-0.35641568
0.14625300,0.14625300,0.14625300,0.14625300,0.14625300,0.14625300,0.14625300,0.14625300,0.14625300,1.6438863e-06,-0.058469352,2.6591933,2.7336554e-15,-0.80055227,-0.017602245,1.7827810e-14,-5.4674268,-0.36133916
0.14725300,0.14725300,0.14725300,0.14725300,0.14725300,0.14725300,0.14725300,0.14725300,0.14725300,1.6438863e-06,-0.059272637,2.6591755,2.7514740e-15,-0.80601955,-0.017966059,1.7809737e-14,-5.4672078,-0.36629629
0.14825300,0.14825300,0.14825300,0.14825300,0.14825300,0.14825300,0.14825300,0.14825300,0.14825300,1.6438863e-06,-0.060081391,2.6591573,2.7692746e-15,-0.81148661,-0.018334847,1.7791532e-14,-5.4669843,-0.37128706
0.14925300,0.14925300,0.14925300,0.14925300,0.14925300,0.14925300,0.14925300,0.14925300,0.14925300,1.6438863e-06,-0.060895611,2.6591388,2.7870568e-15,-0.81695344,-0.018708643,1.7773193e-14,-5.4667563,-0.37631146
0.15025300,0.15025300,0.15025300,0.15025300,0.15025300,0.15025300,0.15025300,0.15025300,0.15025300,1.6438863e-06,-0.061715297,2.6591199,2.8048206e-15,-0.82242004,-0.019087480,1.7754721e-14,-5.4665236,-0.38136948
0.15125300,0.15125300,0.15125300,0.15125300,0.15125300,0.15125300,0.15125300,0.15125300,0.15125300,1.6438863e-06,-0.062540451,2.6591006,2.8225659e-15,-0.82788641,-0.019471391,1.7736114e-14,-5.4662862,-0.38646113
0.15225300,0.15225300,0.15225300,0.15225300,0.15225300,0.15225300,0.15225300,0.15225300,0.15225300,1.6438863e-06,-0.063371070,2.6590810,2.8402926e-15,-0.83335253,-0.019860411,1.7717374e-14,-5.4660441,-0.39158640
0.15325300,0.15325300,0.15325300,0.15325300,0.15325300,0.15325300,0.15325300,0.15325300,0.15325300,1.6438863e-06,-0.064207156,2.6590609,2.8580004e-15,-0.83881841,-0.020254573,1.7698500e-14,-5.4657971,-0.39674528
0.15425300,0.15425300,0.15425300,0.15425300,0.15425300,0.15425300,0.15425300,0.15425300,0.15425300,1.6438863e-06,-0.065048707,2.6590405,2.8756892e-15,-0.84428404,-0.020653911,1.7679491e-14,-5.4655452,-0.40193777
0.15525300,0.15525300,0.15525300,0.15525300,0.15525300,0.15525300,0.15525300,0.15525300,0.15525300,1.6438863e-06,-0.065895723,2.6590196,2.8933590e-15,-0.84974942,-0.021058458,1.7660348e-14,-5.4652884,-0.40716385
0.15625300,0.15625300,0.15625300,0.15625300,0.15625300,0.15625300,0.15625300,0.15625300,0.15625300,1.6438863e-06,-0.066748205,2.6589983,2.9110096e-15,-0.85521453,-0.021468248,1.7641069e-14,-5.4650266,-0.41242354
0.15725300,0.15725300,0.15725300,0.15725300,0.15725300,0.15725300,0.15725300,0.15725300,0.15725300,1.6438863e-06,-0.067606152,2.6589767,2.9286408e-15,-0.86067938,-0.021883314,1.7621656e-14,-5.4647597,-0.41771681
0.15825300,0.15825300,0.15825300,0.15825300,0.15825300,0.15825300,0.15825300,0.15825300,0.15825300,1.6438863e-06,-0.068469564,2.6589546,2.9462526e-15,-0.86614396,-0.022303690,1.7602108e-14,-5.4644877,-0.42304367
0.15925300,0.15925300,0.15925300,0.15925300,0.15925300,0.15925300,0.15925300,0.15925300,0.15925300,1.6438863e-06,-0.069338440,2.6589321,2.9638447e-15,-0.87160827,-0.022729410,1.7582424e-14,-5.4642104,-0.42840411
0.16025300,0.16025300,0.16025300,0.16025300,0.16025300,0.16025300,0.16025300,0.16025300,0.16025300,1.6438863e-06,-0.070212781,2.6589091,2.9814171e-15,-0.87707229,-0.023160507,1.7562604e-14,-5.4639279,-0.43379812
0.16125300,0.16125300,0.16125300,0.16125300,0.16125300,0.16125300,0.16125300,0.16125300,0.16125300,1.6438863e-06,-0.071092585,2.6588857,2.9989695e-15,-0.88253603,-0.023597015,1.7542649e-14,-5.4636400,-0.43922570
0.16225300,0.16225300,0.16225300,0.16225300,0.16225300,0.16225300,0.16225300,0.16225300,0.16225300,1.6438863e-06,-0.071977852,2.6588619,3.0165020e-15,-0.88799947,-0.024038968,1.7522557e-14,-5.4633467,-0.44468684
0.16325300,0.16325300,0.16325300,0.16325300,0.16325300,0.16325300,0.16325300,0.16325300,0.16325300,1.6438863e-06,-0.072868584,2.6588376,3.0340143e-15,-0.89346262,-0.024486398,1.7502329e-14,-5.4630479,-0.45018153
0.16425300,0.16425300,0.16425300,0.16425300,0.16425300,0.16425300,0.16425300,0.16425300,0.16425300,1.6438863e-06,-0.073764778,2.6588129,3.0515063e-15,-0.89892547,-0.024939339,1.7481965e-14,-5.4627436,-0.45570977
0.16525300,0.16525300,0.16525300,0.16525300,0.16525300,0.16525300,0.16525300,0.16525300,0.16525300,1.6438863e-06,-0.074666434,2.6587878,3.0689778e-15,-0.90438801,-0.025397825,1.7461464e-14,-5.4624337,-0.46127155
0.16625300,0.16625300,0.16625300,0.16625300,0.16625300,0.16625300,0.16625300,0.16625300,0.16625300,1.6438863e-06,-0.075573553,2.6587621,3.0864288e-15,-0.90985023,-0.025861890,1.7440826e-14,-5.4621181,-0.46686687
0.16725300,0.16725300,0.16725300,0.16725300,0.16725300,0.16725300,0.16725300,0.16725300,0.16725300,1.6438863e-06,-0.076486135,2.6587360,3.1038591e-15,-0.91531214,-0.026331567,1.7420051e-14,-5.4617967,-0.47249571
0.16825300,0.16825300,0.16825300,0.16825300,0.16825300,0.16825300,0.16825300,0.16825300,0.16825300,1.6438863e-06,-0.077404178,2.6587095,3.1212685e-15,-0.92077372,-0.026806890,1.7399139e-14,-5.4614695,-0.47815808
0.16925300,0.16925300,0.16925300,0.16925300,0.16925300,0.16925300,0.16925300,0.16925300,0.16925300,1.6438863e-06,-0.078327682,2.6586824,3.1386569e-15,-0.92623496,-0.027287892,1.7378089e-14,-5.4611365,-0.48385395
0.17025300,0.17025300,0.17025300,0.17025300,0.17025300,0.17025300,0.17025300,0.17025300,0.17025300,1.6438863e-06,-0.079256647,2.6586549,3.1560242e-15,-0.93169588,-0.027774606,1.7356901e-14,-5.4607975,-0.48958334
0.17125300,0.17125300,0.17125300,0.17125300,0.17125300,0.17125300,0.17125300,0.17125300,0.17125300,1.6438863e-06,-0.080191074,2.6586269,3.1733703e-15,-0.93715645,-0.028267066,1.7335576e-14,-5.4604524,-0.49534622
0.17225300,0.17225300,0.17225300,0.17225300,0.17225300,0.17225300,0.17225300,0.17225300,0.17225300,1.6438863e-06,-0.081130960,2.6585984,3.1906950e-15,-0.94261666,-0.028765306,1.7314112e-14,-5.4601012,-0.50114259
0.17325300,0.17325300,0.17325300,0.17325300,0.17325300,0.17325300,0.17325300,0.17325300,0.17325300,1.6438863e-06,-0.082076307,2.6585693,3.2079981e-15,-0.94807653,-0.029269359,1.7292509e-14,-5.4597439,-0.50697245
0.17425300,0.17425300,0.17425300,0.17425300,0.17425300,0.17425300,0.17425300,0.17425300,0.17425300,1.6438863e-06,-0.083027113,2.6585398,3.2252795e-15,-0.95353603,-0.029779258,1.7270768e-14,-5.4593804,-0.51283579
0.17525300,0.17525300,0.17525300,0.17525300,0.17525300,0.17525300,0.17525300,0.17525300,0.17525300,1.6438863e-06,-0.083983379,2.6585098,3.2425392e-15,-0.95899517,-0.030295038,1.7248888e-14,-5.4590105,-0.51873259
0.17625300,0.17625300,0.17625300,0.17625300,0.17625300,0.17625300,0.17625300,0.17625300,0.17625300,1.6438863e-06,-0.084945103,2.6584792,3.2597769e-15,-0.96445393,-0.030816731,1.7226869e-14,-5.4586342,-0.52466285
0.17725300,0.17725300,0.17725300,0.17725300,0.17725300,0.17725300,0.17725300,0.17725300,0.17725300,1.6438863e-06,-0.085912286,2.6584481,3.2769924e-15,-0.96991231,-0.031344371,1.7204710e-14,-5.4582515,-0.53062657
0.17825300,0.17825300,0.17825300,0.17825300,0.17825300,0.17825300,0.17825300,0.17825300,0.17825300,1.6438863e-06,-0.086884928,2.6584165,3.2941858e-15,-0.97537030,-0.031877991,1.7182412e-14,-5.4578622,-0.53662373
0.17925300,0.17925300,0.17925300,0.17925300,0.17925300,0.17925300,0.17925300,0.17925300,0.17925300,1.6438863e-06,-0.087863027,2.6583844,3.3113568e-15,-0.98082790,-0.032417625,1.7159974e-14,-5.4574663,-0.54265432
0.18025300,0.18025300,0.18025300,0.18025300,0.18025300,0.18025300,0.18025300,0.18025300,0.18025300,1.6438863e-06,-0.088846583,2.6583517,3.3285053e-15,-0.98628510,-0.032963306,1.7137396e-14,-5.4570638,-0.54871835
0.18125300,0.18125300,0.18125300,0.18125300,0.18125300,0.18125300,0.18125300,0.18125300,0.18125300,1.6438863e-06,-0.089835597,2.6583185,3.3456311e-15,-0.99174189,-0.033515068,1.7114678e-14,-5.4566544,-0.55481579
0.18225300,0.18225300,0.18225300,0.18225300,0.18225300,0.18225300,0.18225300,0.18225300,0.18225300,1.6438863e-06,-0.090830067,2.6582847,3.3627341e-15,-0.99719827,-0.034072944,1.7091819e-14,-5.4562383,-0.56094664
0.18325300,0.18325300,0.18325300,0.18325300,0.18325300,0.18325300,0.18325300,0.18325300,0.18325300,1.6438863e-06,-0.091829993,2.6582503,3.3798142e-15,-1.0026542,-0.034636968,1.7068820e-14,-5.4558152,-0.56711089
0.18425300,0.18425300,0.18425300,0.18425300,0.18425300,0.18425300,0.18425300,0.18425300,0.18425300,1.6438863e-06,-0.092835375,2.6582154,3.3968712e-15,-1.0081098,-0.035207172,1.7045680e-14,-5.4553852,-0.57330853
0.18525300,0.18525300,0.18525300,0.18525300,0.18525300,0.18525300,0.18525300,0.18525300,0.18525300,1.6438863e-06,-0.093846212,2.6581799,3.4139050e-15,-1.0135649,-0.035783591,1.7022398e-14,-5.4549481,-0.57953956
0.18625300,0.18625300,0.18625300,0.18625300,0.18625300,0.18625300,0.18625300,0.18625300,0.18625300,1.6438863e-06,-0.094862505,2.6581438,3.4309155e-15,-1.0190195,-0.036366258,1.6998975e-14,-5.4545039,-0.58580395
0.18725300,0.18725300,0.18725300,0.18725300,0.18725300,0.18725300,0.18725300,0.18725300,0.18725300,1.6438863e-06,-0.095884251,2.6581072,3.4479024e-15,-1.0244737,-0.036955205,1.6975410e-14,-5.4540524,-0.59210171
0.18825300,0.18825300,0.18825300,0.18825300,0.18825300,0.18825300,0.18825300,0.18825300,0.18825300,1.6438863e-06,-0.096911452,2.6580699,3.4648658e-15,-1.0299275,-0.037550467,1.6951704e-14,-5.4535937,-0.59843283
0.18925300,0.18925300,0.18925300,0.18925300,0.18925300,0.18925300,0.18925300,0.18925300,0.18925300,1.6438863e-06,-0.097944106,2.6580321,3.4818053e-15,-1.0353807,-0.038152076,1.6927855e-14,-5.4531276,-0.60479729
0.19025300,0.19025300,0.19025300,0.19025300,0.19025300,0.19025300,0.19025300,0.19025300,0.19025300,1.6438863e-06,-0.098982213,2.6579936,3.4987209e-15,-1.0408336,-0.038760067,1.6903864e-14,-5.4526540,-0.61119508
0.19125300,0.19125300,0.19125300,0.19125300,0.19125300,0.19125300,0.19125300,0.19125300,0.19125300,1.6438863e-06,-0.10002577,2.6579545,3.5156124e-15,-1.0462859,-0.039374471,1.6879730e-14,-5.4521730,-0.61762619
0.19225300,0.19225300,0.19225300,0.19225300,0.19225300,0.19225300,0.19225300,0.19225300,0.19225300,1.6438863e-06,-0.10107478,2.6579149,3.5324798e-15,-1.0517377,-0.039995324,1.6855453e-14,-5.4516843,-0.62409062
0.19325300,0.19325300,0.19325300,0.19325300,0.19325300,0.19325300,0.19325300,0.19325300,0.19325300,1.6438863e-06,-0.10212925,2.6578745,3.5493228e-15,-1.0571891,-0.040622658,1.6831033e-14,-5.4511879,-0.63058835
0.19425300,0.19425300,0.19425300,0.19425300,0.19425300,0.19425300,0.19425300,0.19425300,0.19425300,1.6438863e-06,-0.10318916,2.6578336,3.5661412e-15,-1.0626400,-0.041256506,1.6806470e-14,-5.4506838,-0.63711937
0.19525300,0.19525300,0.19525300,0.19525300,0.19525300,0.19525300,0.19525300,0.19525300,0.19525300,1.6438863e-06,-0.10425453,2.6577920,3.5829351e-15,-1.0680903,-0.041896901,1.6781764e-14,-5.4501718,-0.64368367
0.19625300,0.19625300,0.19625300,0.19625300,0.19625300,0.19625300,0.19625300,0.19625300,0.19625300,1.6438863e-06,-0.10532534,2.6577498,3.5997041e-15,-1.0735401,-0.042543877,1.6756913e-14,-5.4496520,-0.65028124
0.19725300,0.19725300,0.19725300,0.19725300,0.19725300,0.19725300,0.19725300,0.19725300,0.19725300,1.6438863e-06,-0.10640161,2.6577069,3.6164483e-15,-1.0789894,-0.043197468,1.6731919e-14,-5.4491241,-0.65691207
0.19825300,0.19825300,0.19825300,0.19825300,0.19825300,0.19825300,0.19825300,0.19825300,0.19825300,1.6438863e-06,-0.10748332,2.6576634,3.6331673e-15,-1.0844382,-0.043857705,1.6706780e-14,-5.4485881,-0.66357614
0.19925300,0.19925300,0.19925300,0.19925300,0.19925300,0.19925300,0.19925300,0.19925300,0.19925300,1.6438863e-06,-0.10857048,2.6576192,3.6498612e-15,-1.0898864,-0.044524624,1.6681496e-14,-5.4480439,-0.67027345
0.20025300,0.20025300,0.20025300,0.20025300,0.20025300,0.20025300,0.20025300,0.20025300,0.20025300,1.6438863e-06,-0.10966309,2.6575744,3.6665297e-15,-1.0953341,-0.045198256,1.6656068e-14,-5.4474915,-0.67700399
0.20125300,0.20125300,0.20125300,0.20125300,0.20125300,0.20125300,0.20125300,0.20125300,0.20125300,1.6438863e-06,-0.11076115,2.6575288,3.6831727e-15,-1.1007812,-0.045878635,1.6630495e-14,-5.4469308,-0.68376774
0.20225300,0.20225300,0.20225300,0.20225300,0.20225300,0.20225300,0.20225300,0.20225300,0.20225300,1.6438863e-06,-0.11186466,2.6574826,3.6997900e-15,-1.1062278,-0.046565795,1.6604776e-14,-5.4463617,-0.69056468
0.20325300,0.20325300,0.20325300,0.20325300,0.20325300,0.20325300,0.20325300,0.20325300,0.20325300,1.6438863e-06,-0.11297361,2.6574357,3.7163815e-15,-1.1116737,-0.047259768,1.6578912e-14,-5.4457840,-0.69739482
0.20425300,0.20425300,0.20425300,0.20425300,0.20425300,0.20425300,0.20425300,0.20425300,0.20425300,1.6438863e-06,-0.11408800,2.6573881,3.7329471e-15,-1.1171191,-0.047960587,1.6552902e-14,-5.4451978,-0.70425812
0.20525300,0.20525300,0.20525300,0.20525300,0.20525300,0.20525300,0.20525300,0.20525300,0.20525300,1.6438863e-06,-0.11520785,2.6573398,3.7494867e-15,-1.1225639,-0.048668287,1.6526746e-14,-5.4446029,-0.71115460
0.20625300,0.20625300,0.20625300,0.20625300,0.20625300,0.20625300,0.20625300,0.20625300,0.20625300,1.6438863e-06,-0.11633313,2.6572907,3.7659999e-15,-1.1280081,-0.049382899,1.6500444e-14,-5.4439993,-0.71808422
0.20725300,0.20725300,0.20725300,0.20725300,0.20725300,0.20725300,0.20725300,0.20725300,0.20725300,1.6438863e-06,-0.11746386,2.6572410,3.7824868e-15,-1.1334517,-0.050104457,1.6473995e-14,-5.4433868,-0.72504697
0.20825300,0.20825300,0.20825300,0.20825300,0.20825300,0.20825300,0.20825300,0.20825300,0.20825300,1.6438863e-06,-0.11860003,2.6571905,3.7989472e-15,-1.1388947,-0.050832995,1.6447400e-14,-5.4427654,-0.73204285
0.20925300,0.20925300,0.20925300,0.20925300,0.20925300,0.20925300,0.20925300,0.20925300,0.20925300,1.6438863e-06,-0.11974165,2.6571393,3.8153809e-15,-1.1443371,-0.051568545,1.6420657e-14,-5.4421350,-0.73907184
0.21025300,0.21025300,0.21025300,0.21025300,0.21025300,0.21025300,0.21025300,0.21025300,0.21025300,1.6438863e-06,-0.12088871,2.6570874,3.8317878e-15,-1.1497788,-0.052311140,1.6393767e-14,-5.4414955,-0.74613393
0.21125300,0.21125300,0.21125300,0.21125300,0.21125300,0.21125300,0.21125300,0.21125300,0.21125300,1.6438863e-06,-0.12204121,2.6570347,3.8481677e-15,-1.1552198,-0.053060814,1.6366730e-14,-5.4408468,-0.75322909
0.21225300,0.21225300,0.21225300,0.21225300,0.21225300,0.21225300,0.21225300,0.21225300,0.21225300,1.6438863e-06,-0.12319915,2.6569813,3.8645205e-15,-1.1606602,-0.053817599,1.6339545e-14,-5.4401889,-0.76035733
0.21325300,0.21325300,0.21325300,0.21325300,0.21325300,0.21325300,0.21325300,0.21325300,0.21325300,1.6438863e-06,-0.12436253,2.6569271,3.8808460e-15,-1.1661000,-0.054581529,1.6312211e-14,-5.4395216,-0.76751862
0.21425300,0.21425300,0.21425300,0.21425300,0.21425300,0.21425300,0.21425300,0.21425300,0.21425300,1.6438863e-06,-0.12553135,2.6568721,3.8971441e-15,-1.1715391,-0.055352637,1.6284729e-14,-5.4388448,-0.77471295
0.21525300,0.21525300,0.21525300,0.21525300,0.21525300,0.21525300,0.21525300,0.21525300,0.21525300,1.6438863e-06,-0.12670561,2.6568164,3.9134146e-15,-1.1769775,-0.056130956,1.6257099e-14,-5.4381586,-0.78194030
0.21625300,0.21625300,0.21625300,0.21625300,0.21625300,0.21625300,0.21625300,0.21625300,0.21625300,1.6438863e-06,-0.12788530,2.6567598,3.9296575e-15,-1.1824152,-0.056916518,1.6229320e-14,-5.4374627,-0.78920067
0.21725300,0.21725300,0.21725300,0.21725300,0.21725300,0.21725300,0.21725300,0.21725300,0.21725300,1.6438863e-06,-0.12907044,2.6567025,3.9458725e-15,-1.1878521,-0.057709357,1.6201392e-14,-5.4367571,-0.79649403
0.21825300,0.21825300,0.21825300,0.21825300,0.21825300,0.21825300,0.21825300,0.21825300,0.21825300,1.6438863e-06,-0.13026101,2.6566444,3.9620594e-15,-1.1932884,-0.058509506,1.6173314e-14,-5.4360417,-0.80382037
0.21925300,0.21925300,0.21925300,0.21925300,0.21925300,0.21925300,0.21925300,0.21925300,0.21925300,1.6438863e-06,-0.13145701,2.6565855,3.9782182e-15,-1.1987240,-0.059316997,1.6145087e-14,-5.4353164,-0.81117968
0.22025300,0.22025300,0.22025300,0.22025300,0.22025300,0.22025300,0.22025300,0.22025300,0.22025300,1.6438863e-06,-0.13265845,2.6565258,3.9943488e-15,-1.2041588,-0.060131864,1.6116710e-14,-5.4345812,-0.81857193
0.22125300,0.22125300,0.22125300,0.22125300,0.22125300,0.22125300,0.22125300,0.22125300,0.22125300,1.6438863e-06,-0.13386533,2.6564652,4.0104508e-15,-1.2095929,-0.060954140,1.6088183e-14,-5.4338359,-0.82599712
0.22225300,0.22225300,0.22225300,0.22225300,0.22225300,0.22225300,0.22225300,0.22225300,0.22225300,1.6438863e-06,-0.13507764,2.6564039,4.0265243e-15,-1.2150262,-0.061783857,1.6059505e-14,-5.4330804,-0.83345522
0.22325300,0.22325300,0.22325300,0.22325300,0.22325300,0.22325300,0.22325300,0.22325300,0.22325300,1.6438863e-06,-0.13629538,2.6563417,4.0425689e-15,-1.2204588,-0.062621048,1.6030677e-14,-5.4323147,-0.84094623
0.22425300,0.22425300,0.22425300,0.22425300,0.22425300,0.22425300,0.22425300,0.22425300,0.22425300,1.6438863e-06,-0.13751856,2.6562786,4.0585847e-15,-1.2258906,-0.063465747,1.6001698e-14,-5.4315386,-0.84847012
0.22525300,0.22525300,0.22525300,0.22525300,0.22525300,0.22525300,0.22525300,0.22525300,0.22525300,1.6438863e-06,-0.13874716,2.6562147,4.0745714e-15,-1.2313216,-0.064317986,1.5972568e-14,-5.4307521,-0.85602687
0.22625300,0.22625300,0.22625300,0.22625300,0.22625300,0.22625300,0.22625300,0.22625300,0.22625300,1.6438863e-06,-0.13998120,2.6561500,4.0905289e-15,-1.2367518,-0.065177798,1.5943286e-14,-5.4299551,-0.86361648
0.22725300,0.22725300,0.22725300,0.22725300,0.22725300,0.22725300,0.22725300,0.22725300,0.22725300,1.6438863e-06,-0.14122067,2.6560844,4.1064571e-15,-1.2421813,-0.066045216,1.5913852e-14,-5.4291474,-0.87123892
0.22825300,0.22825300,0.22825300,0.22825300,0.22825300,0.22825300,0.22825300,0.22825300,0.22825300,1.6438863e-06,-0.14246556,2.6560179,4.1223557e-15,-1.2476099,-0.066920272,1.5884267e-14,-5.4283291,-0.87889418
0.22925300,0.22925300,0.22925300,0.22925300,0.22925300,0.22925300,0.22925300,0.22925300,0.22925300,1.6438863e-06,-0.14371589,2.6559505,4.1382247e-15,-1.2530377,-0.067803001,1.5854529e-14,-5.4274999,-0.88658224
0.23025300,0.23025300,0.23025300,0.23025300,0.23025300,0.23025300,0.23025300,0.23025300,0.23025300,1.6438863e-06,-0.14497164,2.6558823,4.1540638e-15,-1.2584646,-0.068693433,1.5824639e-14,-5.4266599,-0.89430307
0.23125300,0.23125300,0.23125300,0.23125300,0.23125300,0.23125300,0.23125300,0.23125300,0.23125300,1.6438863e-06,-0.14623281,2.6558131,4.1698730e-15,-1.2638907,-0.069591602,1.5794596e-14,-5.4258088,-0.90205667
0.23225300,0.23225300,0.23225300,0.23225300,0.23225300,0.23225300,0.23225300,0.23225300,0.23225300,1.6438863e-06,-0.14749942,2.6557431,4.1856520e-15,-1.2693159,-0.070497542,1.5764400e-14,-5.4249467,-0.90984301
0.23325300,0.23325300,0.23325300,0.23325300,0.23325300,0.23325300,0.23325300,0.23325300,0.23325300,1.6438863e-06,-0.14877145,2.6556721,4.2014008e-15,-1.2747403,-0.071411283,1.5734051e-14,-5.4240734,-0.91766208
0.23425300,0.23425300,0.23425300,0.23425300,0.23425300,0.23425300,0.23425300,0.23425300,0.23425300,1.6438863e-06,-0.15004890,2.6556003,4.2171191e-15,-1.2801638,-0.072332860,1.5703548e-14,-5.4231888,-0.92551385
0.23525300,0.23525300,0.23525300,0.23525300,0.23525300,0.23525300,0.23525300,0.23525300,0.23525300,1.6438863e-06,-0.15133177,2.6555275,4.2328069e-15,-1.2855864,-0.073262305,1.5672891e-14,-5.4222928,-0.93339831
0.23625300,0.23625300,0.23625300,0.23625300,0.23625300,0.23625300,0.23625300,0.23625300,0.23625300,1.6438863e-06,-0.15262007,2.6554537,4.2484639e-15,-1.2910081,-0.074199651,1.5642081e-14,-5.4213854,-0.94131544
0.23725300,0.23725300,0.23725300,0.23725300,0.23725300,0.23725300,0.23725300,0.23725300,0.23725300,1.6438863e-06,-0.15391379,2.6553791,4.2640900e-15,-1.2964288,-0.075144930,1.5611115e-14,-5.4204664,-0.94926522
0.23825300,0.23825300,0.23825300,0.23825300,0.23825300,0.23825300,0.23825300,0.23825300,0.23825300,1.6438863e-06,-0.15521293,2.6553035,4.2796850e-15,-1.3018487,-0.076098174,1.5579996e-14,-5.4195357,-0.95724763
0.23925300,0.23925300,0.23925300,0.23925300,0.23925300,0.23925300,0.23925300,0.23925300,0.23925300,1.6438863e-06,-0.15651749,2.6552269,4.2952489e-15,-1.3072676,-0.077059418,1.5548721e-14,-5.4185933,-0.96526264
0.24025300,0.24025300,0.24025300,0.24025300,0.24025300,0.24025300,0.24025300,0.24025300,0.24025300,1.6438863e-06,-0.15782746,2.6551493,4.3107814e-15,-1.3126856,-0.078028692,1.5517291e-14,-5.4176390,-0.97331025
0.24125300,0.24125300,0.24125300,0.24125300,0.24125300,0.24125300,0.24125300,0.24125300,0.24125300,1.6438863e-06,-0.15914286,2.6550708,4.3262824e-15,-1.3181026,-0.079006030,1.5485706e-14,-5.4166728,-0.98139042
0.24225300,0.24225300,0.24225300,0.24225300,0.24225300,0.24225300,0.24225300,0.24225300,0.24225300,1.6438863e-06,-0.16046367,2.6549913,4.3417517e-15,-1.3235186,-0.079991464,1.5453964e-14,-5.4156945,-0.98950314
0.24325300,0.24325300,0.24325300,0.24325300,0.24325300,0.24325300,0.24325300,0.24325300,0.24325300,1.6438863e-06,-0.16178989,2.6549108,4.3571892e-15,-1.3289336,-0.080985028,1.5422067e-14,-5.4147040,-0.99764839
0.24425300,0.24425300,0.24425300,0.24425300,0.24425300,0.24425300,0.24425300,0.24425300,0.24425300,1.6438863e-06,-0.16312153,2.6548293,4.3725947e-15,-1.3343476,-0.081986752,1.5390014e-14,-5.4137013,-1.0058261
0.24525300,0.24525300,0.24525300,0.24525300,0.24525300,0.24525300,0.24525300,0.24525300,0.24525300,1.6438863e-06,-0.16445859,2.6547469,4.3879681e-15,-1.3397607,-0.082996670,1.5357804e-14,-5.4126863,-1.0140364
0.24625300,0.24625300,0.24625300,0.24625300,0.24625300,0.24625300,0.24625300,0.24625300,0.24625300,1.6438863e-06,-0.16580105,2.6546633,4.4033092e-15,-1.3451727,-0.084014815,1.5325437e-14,-5.4116588,-1.0222791
0.24725300,0.24725300,0.24725300,0.24725300,0.24725300,0.24725300,0.24725300,0.24725300,0.24725300,1.6438863e-06,-0.16714893,2.6545788,4.4186178e-15,-1.3505836,-0.085041218,1.5292914e-14,-5.4106187,-1.0305542
0.24825300,0.24825300,0.24825300,0.24825300,0.24825300,0.24825300,0.24825300,0.24825300,0.24825300,1.6438863e-06,-0.16850222,2.6544933,4.4338938e-15,-1.3559936,-0.086075912,1.5260232e-14,-5.4095660,-1.0388617
0.24925300,0.24925300,0.24925300,0.24925300,0.24925300,0.24925300,0.24925300,0.24925300,0.24925300,1.6438863e-06,-0.16986092,2.6544067,4.4491370e-15,-1.3614024,-0.087118930,1.5227394e-14,-5.4085005,-1.0472017
0.25025300,0.25025300,0.25025300,0.25025300,0.25025300,0.25025300,0.25025300,0.25025300,0.25025300,1.6438863e-06,-0.17122503,2.6543190,4.4643474e-15,-1.3668102,-0.088170303,1.5194397e-14,-5.4074222,-1.0555740
0.25125300,0.25125300,0.25125300,0.25125300,0.25125300,0.25125300,0.25125300,0.25125300,0.25125300,1.6438863e-06,-0.17259454,2.6542303,4.4795246e-15,-1.3722169,-0.089230065,1.5161242e-14,-5.4063309,-1.0639787
0.25225300,0.25225300,0.25225300,0.25225300,0.25225300,0.25225300,0.25225300,0.25225300,0.25225300,1.6438863e-06,-0.17396946,2.6541406,4.4946686e-15,-1.3776225,-0.090298248,1.5127929e-14,-5.4052266,-1.0724157
0.25325300,0.25325300,0.25325300,0.25325300,0.25325300,0.25325300,0.25325300,0.25325300,0.25325300,1.6438863e-06,-0.17534978,2.6540497,4.5097792e-15,-1.3830270,-0.091374883,1.5094456e-14,-5.4041091,-1.0808849
0.25425300,0.25425300,0.25425300,0.25425300,0.25425300,0.25425300,0.25425300,0.25425300,0.25425300,1.6438863e-06,-0.17673551,2.6539578,4.5248563e-15,-1.3884303,-0.092460004,1.5060825e-14,-5.4029783,-1.0893865
0.25525300,0.25525300,0.25525300,0.25525300,0.25525300,0.25525300,0.25525300,0.25525300,0.25525300,1.6438863e-06,-0.17812664,2.6538648,4.5398996e-15,-1.3938326,-0.093553642,1.5027035e-14,-5.4018342,-1.0979203
0.25625300,0.25625300,0.25625300,0.25625300,0.25625300,0.25625300,0.25625300,0.25625300,0.25625300,1.6438863e-06,-0.17952318,2.6537707,4.5549091e-15,-1.3992336,-0.094655830,1.4993085e-14,-5.4006766,-1.1064864
0.25725300,0.25725300,0.25725300,0.25725300,0.25725300,0.25725300,0.25725300,0.25725300,0.25725300,1.6438863e-06,-0.18092511,2.6536755,4.5698845e-15,-1.4046335,-0.095766599,1.4958975e-14,-5.3995054,-1.1150846
0.25825300,0.25825300,0.25825300,0.25825300,0.25825300,0.25825300,0.25825300,0.25825300,0.25825300,1.6438863e-06,-0.18233244,2.6535792,4.5848257e-15,-1.4100322,-0.096885983,1.4924705e-14,-5.3983205,-1.1237150
0.25925300,0.25925300,0.25925300,0.25925300,0.25925300,0.25925300,0.25925300,0.25925300,0.25925300,1.6438863e-06,-0.18374517,2.6534817,4.5997325e-15,-1.4154298,-0.098014013,1.4890275e-14,-5.3971218,-1.1323776
0.26025300,0.26025300,0.26025300,0.26025300,0.26025300,0.26025300,0.26025300,0.26025300,0.26025300,1.6438863e-06,-0.18516330,2.6533831,4.6146049e-15,-1.4208261,-0.099150721,1.4855684e-14,-5.3959093,-1.1410723
0.26125300,0.26125300,0.26125300,0.26125300,0.26125300,0.26125300,0.26125300,0.26125300,0.26125300,1.6438863e-06,-0.18658683,2.6532834,4.6294425e-15,-1.4262212,-0.10029614,1.4820932e-14,-5.3946828,-1.1497991
0.26225300,0.26225300,0.26225300,0.26225300,0.26225300,0.26225300,0.26225300,0.26225300,0.26225300,1.6438863e-06,-0.18801574,2.6531825,4.6442454e-15,-1.4316150,-0.10145030,1.4786019e-14,-5.3934421,-1.1585580
0.26325300,0.26325300,0.26325300,0.26325300,0.26325300,0.26325300,0.26325300,0.26325300,0.26325300,1.6438863e-06,-0.18945006,2.6530805,4.6590132e-15,-1.4370077,-0.10261324,1.4750944e-14,-5.3921873,-1.1673489
0.26425300,0.26425300,0.26425300,0.26425300,0.26425300,0.26425300,0.26425300,0.26425300,0.26425300,1.6438863e-06,-0.19088976,2.6529773,4.6737459e-15,-1.4423990,-0.10378498,1.4715708e-14,-5.3909181,-1.1761719
0.26525300,0.26525300,0.26525300,0.26525300,0.26525300,0.26525300,0.26525300,0.26525300,0.26525300,1.6438863e-06,-0.19233485,2.6528729,4.6884432e-15,-1.4477891,-0.10496556,1.4680309e-14,-5.3896345,-1.1850268
0.26625300,0.26625300,0.26625300,0.26625300,0.26625300,0.26625300,0.26625300,0.26625300,0.26625300,1.6438863e-06,-0.19378534,2.6527674,4.7031050e-15,-1.4531778,-0.10615501,1.4644748e-14,-5.3883364,-1.1939137
0.26725300,0.26725300,0.26725300,0.26725300,0.26725300,0.26725300,0.26725300,0.26725300,0.26725300,1.6438863e-06,-0.19524121,2.6526606,4.7177312e-15,-1.4585653,-0.10735337,1.4609025e-14,-5.3870236,-1.2028325
0.26825300,0.26825300,0.26825300,0.26825300,0.26825300,0.26825300,0.26825300,0.26825300,0.26825300,1.6438863e-06,-0.19670247,2.6525527,4.7323216e-15,-1.4639514,-0.10856066,1.4573139e-14,-5.3856961,-1.2117833
0.26925300,0.26925300,0.26925300,0.26925300,0.26925300,0.26925300,0.26925300,0.26925300,0.26925300,1.6438863e-06,-0.19816911,2.6524435,4.7468760e-15,-1.4693362,-0.10977691,1.4537089e-14,-5.3843537,-1.2207659
0.27025300,0.27025300,0.27025300,0.27025300,0.27025300,0.27025300,0.27025300,0.27025300,0.27025300,1.6438863e-06,-0.19964114,2.6523331,4.7613943e-15,-1.4747197,-0.11100217,1.4500876e-14,-5.3829964,-1.2297804
0.27125300,0.27125300,0.27125300,0.27125300,0.27125300,0.27125300,0.27125300,0.27125300,0.27125300,1.6438863e-06,-0.20111855,2.6522215,4.7758763e-15,-1.4801018,-0.11223645,1.4464500e-14,-5.3816240,-1.2388267
0.27225300,0.27225300,0.27225300,0.27225300,0.27225300,0.27225300,0.27225300,0.27225300,0.27225300,1.6438863e-06,-0.20260134,2.6521086,4.7903218e-15,-1.4854825,-0.11347980,1.4427959e-14,-5.3802364,-1.2479048
0.27325300,0.27325300,0.27325300,0.27325300,0.27325300,0.27325300,0.27325300,0.27325300,0.27325300,1.6438863e-06,-0.20408951,2.6519945,4.8047307e-15,-1.4908618,-0.11473223,1.4391254e-14,-5.3788336,-1.2570146
0.27425300,0.27425300,0.27425300,0.27425300,0.27425300,0.27425300,0.27425300,0.27425300,0.27425300,1.6438863e-06,-0.20558306,2.6518792,4.8191027e-15,-1.4962397,-0.11599380,1.4354384e-14,-5.3774153,-1.2661562
0.27525300,0.27525300,0.27525300,0.27525300,0.27525300,0.27525300,0.27525300,0.27525300,0.27525300,1.6438863e-06,-0.20708199,2.6517625,4.8334378e-15,-1.5016161,-0.11726452,1.4317350e-14,-5.3759815,-1.2753295
0.27625300,0.27625300,0.27625300,0.27625300,0.27625300,0.27625300,0.27625300,0.27625300,0.27625300,1.6438863e-06,-0.20858630,2.6516446,4.8477358e-15,-1.5069912,-0.11854443,1.4280151e-14,-5.3745321,-1.2845345
0.27725300,0.27725300,0.27725300,0.27725300,0.27725300,0.27725300,0.27725300,0.27725300,0.27725300,1.6438863e-06,-0.21009597,2.6515254,4.8619965e-15,-1.5123647,-0.11983356,1.4242786e-14,-5.3730670,-1.2937711
0.27825300,0.27825300,0.27825300,0.27825300,0.27825300,0.27825300,0.27825300,0.27825300,0.27825300,1.6438863e-06,-0.21161102,2.6514050,4.8762198e-15,-1.5177368,-0.12113195,1.4205255e-14,-5.3715860,-1.3030393
0.27925300,0.27925300,0.27925300,0.27925300,0.27925300,0.27925300,0.27925300,0.27925300,0.27925300,1.6438863e-06,-0.21313145,2.6512832,4.8904054e-15,-1.5231074,-0.12243961,1.4167559e-14,-5.3700891,-1.3123391
0.28025300,0.28025300,0.28025300,0.28025300,0.28025300,0.28025300,0.28025300,0.28025300,0.28025300,1.6438863e-06,-0.21465724,2.6511601,4.9045533e-15,-1.5284765,-0.12375659,1.4129696e-14,-5.3685761,-1.3216704
0.28125300,0.28125300,0.28125300,0.28125300,0.28125300,0.28125300,0.28125300,0.28125300,0.28125300,1.6438863e-06,-0.21618840,2.6510357,4.9186631e-15,-1.5338440,-0.12508292,1.4091666e-14,-5.3670469,-1.3310332
0.28225300,0.28225300,0.28225300,0.28225300,0.28225300,0.28225300,0.28225300,0.28225300,0.28225300,1.6438863e-06,-0.21772493,2.6509099,4.9327349e-15,-1.5392101,-0.12641863,1.4053470e-14,-5.3655014,-1.3404275
0.28325300,0.28325300,0.28325300,0.28325300,0.28325300,0.28325300,0.28325300,0.28325300,0.28325300,1.6438863e-06,-0.21926682,2.6507828,4.9467684e-15,-1.5445745,-0.12776375,1.4015107e-14,-5.3639395,-1.3498533
0.28425300,0.28425300,0.28425300,0.28425300,0.28425300,0.28425300,0.28425300,0.28425300,0.28425300,1.6438863e-06,-0.22081407,2.6506544,4.9607634e-15,-1.5499374,-0.12911830,1.3976577e-14,-5.3623611,-1.3593105
0.28525300,0.28525300,0.28525300,0.28525300,0.28525300,0.28525300,0.28525300,0.28525300,0.28525300,1.6438863e-06,-0.22236669,2.6505246,4.9747198e-15,-1.5552987,-0.13048233,1.3937878e-14,-5.3607661,-1.3687991
0.28625300,0.28625300,0.28625300,0.28625300,0.28625300,0.28625300,0.28625300,0.28625300,0.28625300,1.6438863e-06,-0.22392467,2.6503934,4.9886374e-15,-1.5606584,-0.13185587,1.3899012e-14,-5.3591543,-1.3783190
0.28725300,0.28725300,0.28725300,0.28725300,0.28725300,0.28725300,0.28725300,0.28725300,0.28725300,1.6438863e-06,-0.22548801,2.6502609,5.0025161e-15,-1.5660165,-0.13323894,1.3859978e-14,-5.3575256,-1.3878702
0.28825300,0.28825300,0.28825300,0.28825300,0.28825300,0.28825300,0.28825300,0.28825300,0.28825300,1.6438863e-06,-0.22705670,2.6501269,5.0163556e-15,-1.5713729,-0.13463157,1.3820775e-14,-5.3558800,-1.3974527
0.28925300,0.28925300,0.28925300,0.28925300,0.28925300,0.28925300,0.28925300,0.28925300,0.28925300,1.6438863e-06,-0.22863075,2.6499916,5.0301558e-15,-1.5767277,-0.13603380,1.3781404e-14,-5.3542173,-1.4070664
0.29025300,0.29025300,0.29025300,0.29025300,0.29025300,0.29025300,0.29025300,0.29025300,0.29025300,1.6438863e-06,-0.23021016,2.6498549,5.0439166e-15,-1.5820808,-0.13744567,1.3741863e-14,-5.3525373,-1.4167113
0.29125300,0.29125300,0.29125300,0.29125300,0.29125300,0.29125300,0.29125300,0.29125300,0.29125300,1.6438863e-06,-0.23179491,2.6497167,5.0576377e-15,-1.5874322,-0.13886719,1.3702153e-14,-5.3508401,-1.4263874
0.29225300,0.29225300,0.29225300,0.29225300,0.29225300,0.29225300,0.29225300,0.29225300,0.29225300,1.6438863e-06,-0.23338502,2.6495771,5.0713190e-15,-1.5927819,-0.14029840,1.3662274e-14,-5.3491254,-1.4360947
0.29325300,0.29325300,0.29325300,0.29325300,0.29325300,0.29325300,0.29325300,0.29325300,0.29325300,1.6438863e-06,-0.23498048,2.6494361,5.0849604e-15,-1.5981299,-0.14173934,1.3622224e-14,-5.3473931,-1.4458330
0.29425300,0.29425300,0.29425300,0.29425300,0.29425300,0.29425300,0.29425300,0.29425300,0.29425300,1.6438863e-06,-0.23658128,2.6492936,5.0985616e-15,-1.6034761,-0.14319003,1.3582005e-14,-5.3456431,-1.4556024
0.29525300,0.29525300,0.29525300,0.29525300,0.29525300,0.29525300,0.29525300,0.29525300,0.29525300,1.6438863e-06,-0.23818743,2.6491497,5.1121225e-15,-1.6088206,-0.14465050,1.3541615e-14,-5.3438754,-1.4654028
0.29625300,0.29625300,0.29625300,0.29625300,0.29625300,0.29625300,0.29625300,0.29625300,0.29625300,1.6438863e-06,-0.23979892,2.6490043,5.1256429e-15,-1.6141633,-0.14612079,1.3501054e-14,-5.3420898,-1.4752342
0.29725300,0.29725300,0.29725300,0.29725300,0.29725300,0.29725300,0.29725300,0.29725300,0.29725300,1.6438863e-06,-0.24141575,2.6488575,5.1391226e-15,-1.6195041,-0.14760093,1.3460323e-14,-5.3402861,-1.4850965
0.29825300,0.29825300,0.29825300,0.29825300,0.29825300,0.29825300,0.29825300,0.29825300,0.29825300,1.6438863e-06,-0.24303793,2.6487091,5.1525616e-15,-1.6248432,-0.14909094,1.3419420e-14,-5.3384643,-1.4949897
0.29925300,0.29925300,0.29925300,0.29925300,0.29925300,0.29925300,0.29925300,0.29925300,0.29925300,1.6438863e-06,-0.24466544,2.6485593,5.1659595e-15,-1.6301805,-0.15059086,1.3378345e-14,-5.3366242,-1.5049138
0.30025300,0.30025300,0.30025300,0.30025300,0.30025300,0.30025300,0.30025300,0.30025300,0.30025300,1.6438863e-06,-0.24629829,2.6484079,5.1793163e-15,-1.6355159,-0.15210072,1.3337099e-14,-5.3347657,-1.5148687
0.30125300,0.30125300,0.30125300,0.30125300,0.30125300,0.30125300,0.30125300,0.30125300,0.30125300,1.6438863e-06,-0.24793647,2.6482551,5.1926317e-15,-1.6408494,-0.15362055,1.3295681e-14,-5.3328887,-1.5248545
0.30225300,0.30225300,0.30225300,0.30225300,0.30225300,0.30225300,0.30225300,0.30225300,0.30225300,1.6438863e-06,-0.24957999,2.6481007,5.2059056e-15,-1.6461810,-0.15515038,1.3254090e-14,-5.3309931,-1.5348709
0.30325300,0.30325300,0.30325300,0.30325300,0.30325300,0.30325300,0.30325300,0.30325300,0.30325300,1.6438863e-06,-0.25122883,2.6479448,5.2191378e-15,-1.6515107,-0.15669024,1.3212327e-14,-5.3290788,-1.5449181
0.30425300,0.30425300,0.30425300,0.30425300,0.30425300,0.30425300,0.30425300,0.30425300,0.30425300,1.6438863e-06,-0.25288301,2.6477873,5.2323282e-15,-1.6568385,-0.15824017,1.3170390e-14,-5.3271456,-1.5549959
0.30525300,0.30525300,0.30525300,0.30525300,0.30525300,0.30525300,0.30525300,0.30525300,0.30525300,1.6438863e-06,-0.25454251,2.6476283,5.2454765e-15,-1.6621644,-0.15980018,1.3128281e-14,-5.3251934,-1.5651044
0.30625300,0.30625300,0.30625300,0.30625300,0.30625300,0.30625300,0.30625300,0.30625300,0.30625300,1.6438863e-06,-0.25620734,2.6474677,5.2585826e-15,-1.6674882,-0.16137032,1.3085998e-14,-5.3232221,-1.5752434
0.30725300,0.30725300,0.30725300,0.30725300,0.30725300,0.30725300,0.30725300,0.30725300,0.30725300,1.6438863e-06,-0.25787748,2.6473055,5.2716464e-15,-1.6728101,-0.16295062,1.3043541e-14,-5.3212316,-1.5854130
0.30825300,0.30825300,0.30825300,0.30825300,0.30825300,0.30825300,0.30825300,0.30825300,0.30825300,1.6438863e-06,-0.25955295,2.6471418,5.2846676e-15,-1.6781300,-0.16454109,1.3000910e-14,-5.3192218,-1.5956130
0.30925300,0.30925300,0.30925300,0.30925300,0.30925300,0.30925300,0.30925300,0.30925300,0.30925300,1.6438863e-06,-0.26123374,2.6469765,5.2976460e-15,-1.6834479,-0.16614179,1.2958105e-14,-5.3171924,-1.6058435
0.31025300,0.31025300,0.31025300,0.31025300,0.31025300,0.31025300,0.31025300,0.31025300,0.31025300,1.6438863e-06,-0.26291985,2.6468095,5.3105816e-15,-1.6887637,-0.16775273,1.2915126e-14,-5.3151435,-1.6161045
0.31125300,0.31125300,0.31125300,0.31125300,0.31125300,0.31125300,0.31125300,0.31125300,0.31125300,1.6438863e-06,-0.26461127,2.6466410,5.3234741e-15,-1.6940775,-0.16937394,1.2871971e-14,-5.3130749,-1.6263958
0.31225300,0.31225300,0.31225300,0.31225300,0.31225300,0.31225300,0.31225300,0.31225300,0.31225300,1.6438863e-06,-0.26630800,2.6464708,5.3363233e-15,-1.6993892,-0.17100546,1.2828642e-14,-5.3109864,-1.6367174
0.31325300,0.31325300,0.31325300,0.31325300,0.31325300,0.31325300,0.31325300,0.31325300,0.31325300,1.6438863e-06,-0.26801005,2.6462989,5.3491291e-15,-1.7046988,-0.17264731,1.2785137e-14,-5.3088780,-1.6470693
0.31425300,0.31425300,0.31425300,0.31425300,0.31425300,0.31425300,0.31425300,0.31425300,0.31425300,1.6438863e-06,-0.26971740,2.6461255,5.3618913e-15,-1.7100063,-0.17429954,1.2741456e-14,-5.3067495,-1.6574514
0.31525300,0.31525300,0.31525300,0.31525300,0.31525300,0.31525300,0.31525300,0.31525300,0.31525300,1.6438863e-06,-0.27143006,2.6459503,5.3746098e-15,-1.7153116,-0.17596215,1.2697600e-14,-5.3046008,-1.6678637
0.31625300,0.31625300,0.31625300,0.31625300,0.31625300,0.31625300,0.31625300,0.31625300,0.31625300,1.6438863e-06,-0.27314802,2.6457735,5.3872842e-15,-1.7206147,-0.17763520,1.2653567e-14,-5.3024318,-1.6783062
0.31725300,0.31725300,0.31725300,0.31725300,0.31725300,0.31725300,0.31725300,0.31725300,0.31725300,1.6438863e-06,-0.27487129,2.6455951,5.3999146e-15,-1.7259157,-0.17931870,1.2609358e-14,-5.3002423,-1.6887787
0.31825300,0.31825300,0.31825300,0.31825300,0.31825300,0.31825300,0.31825300,0.31825300,0.31825300,1.6438863e-06,-0.27659985,2.6454149,5.4125006e-15,-1.7312145,-0.18101269,1.2564972e-14,-5.2980322,-1.6992813
0.31925300,0.31925300,0.31925300,0.31925300,0.31925300,0.31925300,0.31925300,0.31925300,0.31925300,1.6438863e-06,-0.27833372,2.6452330,5.4250422e-15,-1.7365110,-0.18271720,1.2520409e-14,-5.2958015,-1.7098139
0.32025300,0.32025300,0.32025300,0.32025300,0.32025300,0.32025300,0.32025300,0.32025300,0.32025300,1.6438863e-06,-0.28007287,2.6450495,5.4375391e-15,-1.7418053,-0.18443225,1.2475668e-14,-5.2935499,-1.7203765
0.32125300,0.32125300,0.32125300,0.32125300,0.32125300,0.32125300,0.32125300,0.32125300,0.32125300,1.6438863e-06,-0.28181733,2.6448642,5.4499911e-15,-1.7470974,-0.18615788,1.2430750e-14,-5.2912773,-1.7309689
0.32225300,0.32225300,0.32225300,0.32225300,0.32225300,0.32225300,0.32225300,0.32225300,0.32225300,1.6438863e-06,-0.28356707,2.6446771,5.4623981e-15,-1.7523871,-0.18789412,1.2385655e-14,-5.2889837,-1.7415912
0.32325300,0.32325300,0.32325300,0.32325300,0.32325300,0.32325300,0.32325300,0.32325300,0.32325300,1.6438863e-06,-0.28532210,2.6444884,5.4747600e-15,-1.7576746,-0.18964099,1.2340381e-14,-5.2866689,-1.7522433
0.32425300,0.32425300,0.32425300,0.32425300,0.32425300,0.32425300,0.32425300,0.32425300,0.32425300,1.6438863e-06,-0.28708242,2.6442979,5.4870765e-15,-1.7629597,-0.19139853,1.2294929e-14,-5.2843327,-1.7629252
0.32525300,0.32525300,0.32525300,0.32525300,0.32525300,0.32525300,0.32525300,0.32525300,0.32525300,1.6438863e-06,-0.28884802,2.6441056,5.4993474e-15,-1.7682425,-0.19316677,1.2249298e-14,-5.2819751,-1.7736367
0.32625300,0.32625300,0.32625300,0.32625300,0.32625300,0.32625300,0.32625300,0.32625300,0.32625300,1.6438863e-06,-0.29061890,2.6439115,5.5115726e-15,-1.7735228,-0.19494573,1.2203488e-14,-5.2795959,-1.7843780
0.32725300,0.32725300,0.32725300,0.32725300,0.32725300,0.32725300,0.32725300,0.32725300,0.32725300,1.6438863e-06,-0.29239506,2.6437157,5.5237518e-15,-1.7788008,-0.19673545,1.2157499e-14,-5.2771950,-1.7951488
0.32825300,0.32825300,0.32825300,0.32825300,0.32825300,0.32825300,0.32825300,0.32825300,0.32825300,1.6438863e-06,-0.29417650,2.6435180,5.5358850e-15,-1.7840764,-0.19853595,1.2111331e-14,-5.2747723,-1.8059492
0.32925300,0.32925300,0.32925300,0.32925300,0.32925300,0.32925300,0.32925300,0.32925300,0.32925300,1.6438863e-06,-0.29596321,2.6433186,5.5479719e-15,-1.7893496,-0.20034726,1.2064983e-14,-5.2723276,-1.8167791
0.33025300,0.33025300,0.33025300,0.33025300,0.33025300,0.33025300,0.33025300,0.33025300,0.33025300,1.6438863e-06,-0.29775520,2.6431173,5.5600124e-15,-1.7946203,-0.20216942,1.2018455e-14,-5.2698608,-1.8276384
0.33125300,0.33125300,0.33125300,0.33125300,0.33125300,0.33125300,0.33125300,0.33125300,0.33125300,1.6438863e-06,-0.29955245,2.6429143,5.5720062e-15,-1.7998885,-0.20400246,1.1971747e-14,-5.2673718,-1.8385272
0.33225300,0.33225300,0.33225300,0.33225300,0.33225300,0.33225300,0.33225300,0.33225300,0.33225300,1.6438863e-06,-0.30135497,2.6427093,5.5839533e-15,-1.8051542,-0.20584639,1.1924858e-14,-5.2648604,-1.8494452
0.33325300,0.33325300,0.33325300,0.33325300,0.33325300,0.33325300,0.33325300,0.33325300,0.33325300,1.6438863e-06,-0.30316276,2.6425026,5.5958533e-15,-1.8104174,-0.20770126,1.1877789e-14,-5.2623265,-1.8603926
0.33425300,0.33425300,0.33425300,0.33425300,0.33425300,0.33425300,0.33425300,0.33425300,0.33425300,1.6438863e-06,-0.30497581,2.6422939,5.6077062e-15,-1.8156780,-0.20956709,1.1830538e-14,-5.2597701,-1.8713692
0.33525300,0.33525300,0.33525300,0.33525300,0.33525300,0.33525300,0.33525300,0.33525300,0.33525300,1.6438863e-06,-0.30679411,2.6420834,5.6195117e-15,-1.8209360,-0.21144391,1.1783107e-14,-5.2571909,-1.8823750
0.33625300,0.33625300,0.33625300,0.33625300,0.33625300,0.33625300,0.33625300,0.33625300,0.33625300,1.6438863e-06,-0.30861768,2.6418710,5.6312697e-15,-1.8261915,-0.21333175,1.1735494e-14,-5.2545889,-1.8934099
0.33725300,0.33725300,0.33725300,0.33725300,0.33725300,0.33725300,0.33725300,0.33725300,0.33725300,1.6438863e-06,-0.31044650,2.6416568,5.6429800e-15,-1.8314443,-0.21523064,1.1687699e-14,-5.2519638,-1.9044739
0.33825300,0.33825300,0.33825300,0.33825300,0.33825300,0.33825300,0.33825300,0.33825300,0.33825300,1.6438863e-06,-0.31228057,2.6414406,5.6546423e-15,-1.8366945,-0.21714061,1.1639721e-14,-5.2493156,-1.9155669
0.33925300,0.33925300,0.33925300,0.33925300,0.33925300,0.33925300,0.33925300,0.33925300,0.33925300,1.6438863e-06,-0.31411988,2.6412225,5.6662566e-15,-1.8419421,-0.21906168,1.1591562e-14,-5.2466442,-1.9266889
0.34025300,0.34025300,0.34025300,0.34025300,0.34025300,0.34025300,0.34025300,0.34025300,0.34025300,1.6438863e-06,-0.31596445,2.6410024,5.6778227e-15,-1.8471869,-0.22099389,1.1543220e-14,-5.2439494,-1.9378397
0.34125300,0.34125300,0.34125300,0.34125300,0.34125300,0.34125300,0.34125300,0.34125300,0.34125300,1.6438863e-06,-0.31781426,2.6407805,5.6893403e-15,-1.8524291,-0.22293726,1.1494695e-14,-5.2412311,-1.9490194
0.34225300,0.34225300,0.34225300,0.34225300,0.34225300,0.34225300,0.34225300,0.34225300,0.34225300,1.6438863e-06,-0.31966931,2.6405566,5.7008092e-15,-1.8576685,-0.22489183,1.1445988e-14,-5.2384891,-1.9602279
0.34325300,0.34325300,0.34325300,0.34325300,0.34325300,0.34325300,0.34325300,0.34325300,0.34325300,1.6438863e-06,-0.32152959,2.6403307,5.7122294e-15,-1.8629051,-0.22685762,1.1397097e-14,-5.2357233,-1.9714651
0.34425300,0.34425300,0.34425300,0.34425300,0.34425300,0.34425300,0.34425300,0.34425300,0.34425300,1.6438863e-06,-0.32339512,2.6401029,5.7236005e-15,-1.8681390,-0.22883466,1.1348022e-14,-5.2329337,-1.9827310
0.34525300,0.34525300,0.34525300,0.34525300,0.34525300,0.34525300,0.34525300,0.34525300,0.34525300,1.6438863e-06,-0.32526587,2.6398730,5.7349225e-15,-1.8733701,-0.23082297,1.1298763e-14,-5.2301200,-1.9940255
0.34625300,0.34625300,0.34625300,0.34625300,0.34625300,0.34625300,0.34625300,0.34625300,0.34625300,1.6438863e-06,-0.32714185,2.6396412,5.7461951e-15,-1.8785983,-0.23282260,1.1249321e-14,-5.2272821,-2.0053486
0.34725300,0.34725300,0.34725300,0.34725300,0.34725300,0.34725300,0.34725300,0.34725300,0.34725300,1.6438863e-06,-0.32902306,2.6394074,5.7574182e-15,-1.8838237,-0.23483356,1.1199694e-14,-5.2244199,-2.0167001
0.34825300,0.34825300,0.34825300,0.34825300,0.34825300,0.34825300,0.34825300,0.34825300,0.34825300,1.6438863e-06,-0.33090950,2.6391715,5.7685916e-15,-1.8890462,-0.23685589,1.1149882e-14,-5.2215333,-2.0280801
0.34925300,0.34925300,0.34925300,0.34925300,0.34925300,0.34925300,0.34925300,0.34925300,0.34925300,1.6438863e-06,-0.33280116,2.6389337,5.7797150e-15,-1.8942658,-0.23888961,1.1099886e-14,-5.2186221,-2.0394884
0.35025300,0.35025300,0.35025300,0.35025300,0.35025300,0.35025300,0.35025300,0.35025300,0.35025300,1.6438863e-06,-0.33469803,2.6386937,5.7907883e-15,-1.8994824,-0.24093476,1.1049704e-14,-5.2156861,-2.0509250
0.35125300,0.35125300,0.35125300,0.35125300,0.35125300,0.35125300,0.35125300,0.35125300,0.35125300,1.6438863e-06,-0.33660012,2.6384518,5.8018114e-15,-1.9046962,-0.24299135,1.0999338e-14,-5.2127254,-2.0623899
0.35225300,0.35225300,0.35225300,0.35225300,0.35225300,0.35225300,0.35225300,0.35225300,0.35225300,1.6438863e-06,-0.33850742,2.6382078,5.8127839e-15,-1.9099069,-0.24505942,1.0948785e-14,-5.2097397,-2.0738829
0.35325300,0.35325300,0.35325300,0.35325300,0.35325300,0.35325300,0.35325300,0.35325300,0.35325300,1.6438863e-06,-0.34041993,2.6379617,5.8237058e-15,-1.9151146,-0.24713900,1.0898047e-14,-5.2067289,-2.0854041
0.35425300,0.35425300,0.35425300,0.35425300,0.35425300,0.35425300,0.35425300,0.35425300,0.35425300,1.6438863e-06,-0.34233765,2.6377135,5.8345769e-15,-1.9203194,-0.24923011,1.0847123e-14,-5.2036928,-2.0969533
0.35525300,0.35525300,0.35525300,0.35525300,0.35525300,0.35525300,0.35525300,0.35525300,0.35525300,1.6438863e-06,-0.34426057,2.6374632,5.8453970e-15,-1.9255210,-0.25133278,1.0796012e-14,-5.2006314,-2.1085305
0.35625300,0.35625300,0.35625300,0.35625300,0.35625300,0.35625300,0.35625300,0.35625300,0.35625300,1.6438863e-06,-0.34618869,2.6372108,5.8561658e-15,-1.9307196,-0.25344704,1.0744715e-14,-5.1975444,-2.1201356
0.35725300,0.35725300,0.35725300,0.35725300,0.35725300,0.35725300,0.35725300,0.35725300,0.35725300,1.6438863e-06,-0.34812201,2.6369563,5.8668832e-15,-1.9359151,-0.25557293,1.0693232e-14,-5.1944319,-2.1317686
0.35825300,0.35825300,0.35825300,0.35825300,0.35825300,0.35825300,0.35825300,0.35825300,0.35825300,1.6438863e-06,-0.35006052,2.6366997,5.8775491e-15,-1.9411074,-0.25771045,1.0641561e-14,-5.1912935,-2.1434294
0.35925300,0.35925300,0.35925300,0.35925300,0.35925300,0.35925300,0.35925300,0.35925300,0.35925300,1.6438863e-06,-0.35200422,2.6364409,5.8881631e-15,-1.9462966,-0.25985966,1.0589702e-14,-5.1881292,-2.1551179
0.36025300,0.36025300,0.36025300,0.36025300,0.36025300,0.36025300,0.36025300,0.36025300,0.36025300,1.6438863e-06,-0.35395311,2.6361799,5.8987252e-15,-1.9514826,-0.26202056,1.0537657e-14,-5.1849389,-2.1668340
0.36125300,0.36125300,0.36125300,0.36125300,0.36125300,0.36125300,0.36125300,0.36125300,0.36125300,1.6438863e-06,-0.35590718,2.6359168,5.9092352e-15,-1.9566654,-0.26419319,1.0485423e-14,-5.1817224,-2.1785778
0.36225300,0.36225300,0.36225300,0.36225300,0.36225300,0.36225300,0.36225300,0.36225300,0.36225300,1.6438863e-06,-0.35786644,2.6356515,5.9196928e-15,-1.9618450,-0.26637758,1.0433002e-14,-5.1784796,-2.1903490
0.36325300,0.36325300,0.36325300,0.36325300,0.36325300,0.36325300,0.36325300,0.36325300,0.36325300,1.6438863e-06,-0.35983087,2.6353841,5.9300978e-15,-1.9670213,-0.26857375,1.0380393e-14,-5.1752103,-2.2021477
0.36425300,0.36425300,0.36425300,0.36425300,0.36425300,0.36425300,0.36425300,0.36425300,0.36425300,1.6438863e-06,-0.36180048,2.6351144,5.9404502e-15,-1.9721943,-0.27078173,1.0327594e-14,-5.1719144,-2.2139738
0.36525300,0.36525300,0.36525300,0.36525300,0.36525300,0.36525300,0.36525300,0.36525300,0.36525300,1.6438863e-06,-0.36377526,2.6348425,5.9507497e-15,-1.9773640,-0.27300156,1.0274608e-14,-5.1685918,-2.2258272
0.36625300,0.36625300,0.36625300,0.36625300,0.36625300,0.36625300,0.36625300,0.36625300,0.36625300,1.6438863e-06,-0.36575521,2.6345684,5.9609960e-15,-1.9825304,-0.27523324,1.0221432e-14,-5.1652424,-2.2377078
0.36725300,0.36725300,0.36725300,0.36725300,0.36725300,0.36725300,0.36725300,0.36725300,0.36725300,1.6438863e-06,-0.36774032,2.6342920,5.9711891e-15,-1.9876934,-0.27747683,1.0168067e-14,-5.1618659,-2.2496156
0.36825300,0.36825300,0.36825300,0.36825300,0.36825300,0.36825300,0.36825300,0.36825300,0.36825300,1.6438863e-06,-0.36973059,2.6340134,5.9813287e-15,-1.9928530,-0.27973233,1.0114513e-14,-5.1584623,-2.2615505
0.36925300,0.36925300,0.36925300,0.36925300,0.36925300,0.36925300,0.36925300,0.36925300,0.36925300,1.6438863e-06,-0.37172602,2.6337326,5.9914147e-15,-1.9980091,-0.28199978,1.0060770e-14,-5.1550314,-2.2735124
0.37025300,0.37025300,0.37025300,0.37025300,0.37025300,0.37025300,0.37025300,0.37025300,0.37025300,1.6438863e-06,-0.37372661,2.6334494,6.0014468e-15,-2.0031619,-0.28427920,1.0006836e-14,-5.1515731,-2.2855013
0.37125300,0.37125300,0.37125300,0.37125300,0.37125300,0.37125300,0.37125300,0.37125300,0.37125300,1.6438863e-06,-0.37573235,2.6331640,6.0114249e-15,-2.0083111,-0.28657062,9.9527127e-15,-5.1480873,-2.2975171
0.37225300,0.37225300,0.37225300,0.37225300,0.37225300,0.37225300,0.37225300,0.37225300,0.37225300,1.6438863e-06,-0.37774323,2.6328763,6.0213487e-15,-2.0134569,-0.28887408,9.8983990e-15,-5.1445738,-2.3095596
0.37325300,0.37325300,0.37325300,0.37325300,0.37325300,0.37325300,0.37325300,0.37325300,0.37325300,1.6438863e-06,-0.37975926,2.6325863,6.0312181e-15,-2.0185991,-0.29118958,9.8438947e-15,-5.1410324,-2.3216289
0.37425300,0.37425300,0.37425300,0.37425300,0.37425300,0.37425300,0.37425300,0.37425300,0.37425300,1.6438863e-06,-0.38178043,2.6322939,6.0410329e-15,-2.0237378,-0.29351717,9.7891998e-15,-5.1374631,-2.3337249
0.37525300,0.37525300,0.37525300,0.37525300,0.37525300,0.37525300,0.37525300,0.37525300,0.37525300,1.6438863e-06,-0.38380673,2.6319992,6.0507929e-15,-2.0288728,-0.29585687,9.7343139e-15,-5.1338657,-2.3458474
0.37625300,0.37625300,0.37625300,0.37625300,0.37625300,0.37625300,0.37625300,0.37625300,0.37625300,1.6438863e-06,-0.38583817,2.6317022,6.0604979e-15,-2.0340043,-0.29820870,9.6792369e-15,-5.1302400,-2.3579964
0.37725300,0.37725300,0.37725300,0.37725300,0.37725300,0.37725300,0.37725300,0.37725300,0.37725300,1.6438863e-06,-0.38787474,2.6314028,6.0701477e-15,-2.0391321,-0.30057270,9.6239685e-15,-5.1265860,-2.3701719
0.37825300,0.37825300,0.37825300,0.37825300,0.37825300,0.37825300,0.37825300,0.37825300,0.37825300,1.6438863e-06,-0.38991643,2.6311010,6.0797421e-15,-2.0442562,-0.30294888,9.5685085e-15,-5.1229034,-2.3823737
0.37925300,0.37925300,0.37925300,0.37925300,0.37925300,0.37925300,0.37925300,0.37925300,0.37925300,1.6438863e-06,-0.39196325,2.6307969,6.0892810e-15,-2.0493767,-0.30533727,9.5128568e-15,-5.1191922,-2.3946017
0.38025300,0.38025300,0.38025300,0.38025300,0.38025300,0.38025300,0.38025300,0.38025300,0.38025300,1.6438863e-06,-0.39401518,2.6304904,6.0987641e-15,-2.0544934,-0.30773790,9.4570131e-15,-5.1154522,-2.4068560
0.38125300,0.38125300,0.38125300,0.38125300,0.38125300,0.38125300,0.38125300,0.38125300,0.38125300,1.6438863e-06,-0.39607223,2.6301814,6.1081913e-15,-2.0596063,-0.31015080,9.4009772e-15,-5.1116833,-2.4191364
0.38225300,0.38225300,0.38225300,0.38225300,0.38225300,0.38225300,0.38225300,0.38225300,0.38225300,1.6438863e-06,-0.39813440,2.6298700,6.1175623e-15,-2.0647155,-0.31257600,9.3447489e-15,-5.1078852,-2.4314428
0.38325300,0.38325300,0.38325300,0.38325300,0.38325300,0.38325300,0.38325300,0.38325300,0.38325300,1.6438863e-06,-0.40020166,2.6295563,6.1268770e-15,-2.0698208,-0.31501351,9.2883279e-15,-5.1040580,-2.4437752
0.38425300,0.38425300,0.38425300,0.38425300,0.38425300,0.38425300,0.38425300,0.38425300,0.38425300,1.6438863e-06,-0.40227404,2.6292400,6.1361351e-15,-2.0749223,-0.31746336,9.2317142e-15,-5.1002014,-2.4561334
0.38525300,0.38525300,0.38525300,0.38525300,0.38525300,0.38525300,0.38525300,0.38525300,0.38525300,1.6438863e-06,-0.40435151,2.6289213,6.1453366e-15,-2.0800199,-0.31992558,9.1749074e-15,-5.0963153,-2.4685174
0.38625300,0.38625300,0.38625300,0.38625300,0.38625300,0.38625300,0.38625300,0.38625300,0.38625300,1.6438863e-06,-0.40643407,2.6286002,6.1544811e-15,-2.0851136,-0.32240020,9.1179073e-15,-5.0923996,-2.4809271
0.38725300,0.38725300,0.38725300,0.38725300,0.38725300,0.38725300,0.38725300,0.38725300,0.38725300,1.6438863e-06,-0.40852173,2.6282765,6.1635685e-15,-2.0902034,-0.32488725,9.0607139e-15,-5.0884541,-2.4933625
0.38825300,0.38825300,0.38825300,0.38825300,0.38825300,0.38825300,0.38825300,0.38825300,0.38825300,1.6438863e-06,-0.41061448,2.6279504,6.1725986e-15,-2.0952892,-0.32738673,9.0033268e-15,-5.0844787,-2.5058234
0.38925300,0.38925300,0.38925300,0.38925300,0.38925300,0.38925300,0.38925300,0.38925300,0.38925300,1.6438863e-06,-0.41271231,2.6276217,6.1815712e-15,-2.1003710,-0.32989869,8.9457459e-15,-5.0804732,-2.5183098
0.39025300,0.39025300,0.39025300,0.39025300,0.39025300,0.39025300,0.39025300,0.39025300,0.39025300,1.6438863e-06,-0.41481522,2.6272906,6.1904861e-15,-2.1054488,-0.33242315,8.8879709e-15,-5.0764375,-2.5308215
0.39125300,0.39125300,0.39125300,0.39125300,0.39125300,0.39125300,0.39125300,0.39125300,0.39125300,1.6438863e-06,-0.41692321,2.6269569,6.1993431e-15,-2.1105226,-0.33496013,8.8300018e-15,-5.0723715,-2.5433585
0.39225300,0.39225300,0.39225300,0.39225300,0.39225300,0.39225300,0.39225300,0.39225300,0.39225300,1.6438863e-06,-0.41903626,2.6266207,6.2081420e-15,-2.1155922,-0.33750966,8.7718382e-15,-5.0682750,-2.5559207
0.39325300,0.39325300,0.39325300,0.39325300,0.39325300,0.39325300,0.39325300,0.39325300,0.39325300,1.6438863e-06,-0.42115439,2.6262819,6.2168827e-15,-2.1206577,-0.34007177,8.7134800e-15,-5.0641479,-2.5685081
0.39425300,0.39425300,0.39425300,0.39425300,0.39425300,0.39425300,0.39425300,0.39425300,0.39425300,1.6438863e-06,-0.42327758,2.6259405,6.2255649e-15,-2.1257191,-0.34264647,8.6549270e-15,-5.0599901,-2.5811204
0.39525300,0.39525300,0.39525300,0.39525300,0.39525300,0.39525300,0.39525300,0.39525300,0.39525300,1.6438863e-06,-0.42540582,2.6255966,6.2341884e-15,-2.1307763,-0.34523379,8.5961791e-15,-5.0558013,-2.5937577
0.39625300,0.39625300,0.39625300,0.39625300,0.39625300,0.39625300,0.39625300,0.39625300,0.39625300,1.6438863e-06,-0.42753913,2.6252500,6.2427531e-15,-2.1358293,-0.34783376,8.5372360e-15,-5.0515815,-2.6064199
0.39725300,0.39725300,0.39725300,0.39725300,0.39725300,0.39725300,0.39725300,0.39725300,0.39725300,1.6438863e-06,-0.42967748,2.6249009,6.2512587e-15,-2.1408781,-0.35044641,8.4780975e-15,-5.0473305,-2.6191068
0.39825300,0.39825300,0.39825300,0.39825300,0.39825300,0.39825300,0.39825300,0.39825300,0.39825300,1.6438863e-06,-0.43182088,2.6245491,6.2597051e-15,-2.1459226,-0.35307175,8.4187635e-15,-5.0430481,-2.6318184
0.39925300,0.39925300,0.39925300,0.39925300,0.39925300,0.39925300,0.39925300,0.39925300,0.39925300,1.6438863e-06,-0.43396932,2.6241948,6.2680921e-15,-2.1509627,-0.35570982,8.3592338e-15,-5.0387343,-2.6445546
0.40025300,0.40025300,0.40025300,0.40025300,0.40025300,0.40025300,0.40025300,0.40025300,0.40025300,1.6438863e-06,-0.43612280,2.6238377,6.2764193e-15,-2.1559986,-0.35836063,8.2995082e-15,-5.0343889,-2.6573153
0.40125300,0.40125300,0.40125300,0.40125300,0.40125300,0.40125300,0.40125300,0.40125300,0.40125300,1.6438863e-06,-0.43828132,2.6234780,6.2846868e-15,-2.1610301,-0.36102422,8.2395865e-15,-5.0300117,-2.6701003
0.40225300,0.40225300,0.40225300,0.40225300,0.40225300,0.40225300,0.40225300,0.40225300,0.40225300,1.6438863e-06,-0.44044486,2.6231157,6.2928942e-15,-2.1660571,-0.36370060,8.1794685e-15,-5.0256026,-2.6829097
0.40325300,0.40325300,0.40325300,0.40325300,0.40325300,0.40325300,0.40325300,0.40325300,0.40325300,1.6438863e-06,-0.44261343,2.6227506,6.3010414e-15,-2.1710798,-0.36638980,8.1191542e-15,-5.0211615,-2.6957433
0.40425300,0.40425300,0.40425300,0.40425300,0.40425300,0.40425300,0.40425300,0.40425300,0.40425300,1.6438863e-06,-0.44478702,2.6223829,6.3091282e-15,-2.1760980,-0.36909184,8.0586433e-15,-5.0166882,-2.7086010
0.40525300,0.40525300,0.40525300,0.40525300,0.40525300,0.40525300,0.40525300,0.40525300,0.40525300,1.6438863e-06,-0.44696563,2.6220124,6.3171543e-15,-2.1811117,-0.37180676,7.9979356e-15,-5.0121826,-2.7214828
0.40625300,0.40625300,0.40625300,0.40625300,0.40625300,0.40625300,0.40625300,0.40625300,0.40625300,1.6438863e-06,-0.44914924,2.6216393,6.3251196e-15,-2.1861208,-0.37453456,7.9370310e-15,-5.0076445,-2.7343885
0.40725300,0.40725300,0.40725300,0.40725300,0.40725300,0.40725300,0.40725300,0.40725300,0.40725300,1.6438863e-06,-0.45133787,2.6212634,6.3330239e-15,-2.1911254,-0.37727528,7.8759293e-15,-5.0030738,-2.7473180
0.40825300,0.40825300,0.40825300,0.40825300,0.40825300,0.40825300,0.40825300,0.40825300,0.40825300,1.6438863e-06,-0.45353149,2.6208847,6.3408670e-15,-2.1961254,-0.38002894,7.8146303e-15,-4.9984703,-2.7602712
0.40925300,0.40925300,0.40925300,0.40925300,0.40925300,0.40925300,0.40925300,0.40925300,0.40925300,1.6438863e-06,-0.45573011,2.6205033,6.3486487e-15,-2.2011208,-0.38279557,7.7531339e-15,-4.9938339,-2.7732481
0.41025300,0.41025300,0.41025300,0.41025300,0.41025300,0.41025300,0.41025300,0.41025300,0.41025300,1.6438863e-06,-0.45793373,2.6201191,6.3563688e-15,-2.2061116,-0.38557518,7.6914399e-15,-4.9891645,-2.7862486
0.41125300,0.41125300,0.41125300,0.41125300,0.41125300,0.41125300,0.41125300,0.41125300,0.41125300,1.6438863e-06,-0.46014234,2.6197321,6.3640271e-15,-2.2110976,-0.38836780,7.6295483e-15,-4.9844619,-2.7992725
0.41225300,0.41225300,0.41225300,0.41225300,0.41225300,0.41225300,0.41225300,0.41225300,0.41225300,1.6438863e-06,-0.46235592,2.6193424,6.3716233e-15,-2.2160789,-0.39117346,7.5674587e-15,-4.9797260,-2.8123197
0.41325300,0.41325300,0.41325300,0.41325300,0.41325300,0.41325300,0.41325300,0.41325300,0.41325300,1.6438863e-06,-0.46457449,2.6189498,6.3791574e-15,-2.2210555,-0.39399217,7.5051710e-15,-4.9749566,-2.8253902
0.41425300,0.41425300,0.41425300,0.41425300,0.41425300,0.41425300,0.41425300,0.41425300,0.41425300,1.6438863e-06,-0.46679803,2.6185544,6.3866290e-15,-2.2260272,-0.39682396,7.4426852e-15,-4.9701536,-2.8384839
0.41525300,0.41525300,0.41525300,0.41525300,0.41525300,0.41525300,0.41525300,0.41525300,0.41525300,1.6438863e-06,-0.46902654,2.6181561,6.3940381e-15,-2.2309942,-0.39966886,7.3800011e-15,-4.9653169,-2.8516006
0.41625300,0.41625300,0.41625300,0.41625300,0.41625300,0.41625300,0.41625300,0.41625300,0.41625300,1.6438863e-06,-0.47126002,2.6177550,6.4013844e-15,-2.2359562,-0.40252688,7.3171184e-15,-4.9604462,-2.8647402
0.41725300,0.41725300,0.41725300,0.41725300,0.41725300,0.41725300,0.41725300,0.41725300,0.41725300,1.6438863e-06,-0.47349845,2.6173511,6.4086676e-15,-2.2409134,-0.40539805,7.2540371e-15,-4.9555415,-2.8779027
0.41825300,0.41825300,0.41825300,0.41825300,0.41825300,0.41825300,0.41825300,0.41825300,0.41825300,1.6438863e-06,-0.47574184,2.6169442,6.4158877e-15,-2.2458657,-0.40828240,7.1907570e-15,-4.9506026,-2.8910879
0.41925300,0.41925300,0.41925300,0.41925300,0.41925300,0.41925300,0.41925300,0.41925300,0.41925300,1.6438863e-06,-0.47799018,2.6165345,6.4230444e-15,-2.2508130,-0.41117994,7.1272781e-15,-4.9456294,-2.9042958
0.42025300,0.42025300,0.42025300,0.42025300,0.42025300,0.42025300,0.42025300,0.42025300,0.42025300,1.6438863e-06,-0.48024347,2.6161219,6.4301375e-15,-2.2557553,-0.41409070,7.0636000e-15,-4.9406217,-2.9175262
0.42125300,0.42125300,0.42125300,0.42125300,0.42125300,0.42125300,0.42125300,0.42125300,0.42125300,1.6438863e-06,-0.48250169,2.6157063,6.4371668e-15,-2.2606925,-0.41701469,6.9997228e-15,-4.9355794,-2.9307791
0.42225300,0.42225300,0.42225300,0.42225300,0.42225300,0.42225300,0.42225300,0.42225300,0.42225300,1.6438863e-06,-0.48476485,2.6152878,6.4441321e-15,-2.2656247,-0.41995195,6.9356462e-15,-4.9305023,-2.9440542
0.42325300,0.42325300,0.42325300,0.42325300,0.42325300,0.42325300,0.42325300,0.42325300,0.42325300,1.6438863e-06,-0.48703294,2.6148664,6.4510332e-15,-2.2705518,-0.42290250,6.8713702e-15,-4.9253903,-2.9573516
0.42425300,0.42425300,0.42425300,0.42425300,0.42425300,0.42425300,0.42425300,0.42425300,0.42425300,1.6438863e-06,-0.48930595,2.6144420,6.4578699e-15,-2.2754738,-0.42586635,6.8068945e-15,-4.9202432,-2.9706711
0.42525300,0.42525300,0.42525300,0.42525300,0.42525300,0.42525300,0.42525300,0.42525300,0.42525300,1.6438863e-06,-0.49158388,2.6140147,6.4646421e-15,-2.2803906,-0.42884352,6.7422192e-15,-4.9150610,-2.9840126
